P3
200 150
255
133 109 109  133 108 108  132 108 108  132 108 108  131 107 107  131 107 107  131 106 106  130 106 106  129 106 106  129 105 105  128 105 105  128 104 104  127 104 104  127 103 103  126 103 103  125 102 102  125 102 102  124 101 101  123 101 101  123 100 100  122 99 99  121 99 99  120 98 98  119 97 97  119 97 97  118 96 96  117 95 95  116 94 94  115 94 94  114 93 93  113 92 92  112 91 91  111 90 90  109 89 89  108 88 88  107 87 87  106 86 86  104 85 85  103 84 84  102 83 83  100 82 82  99 81 81  97 79 79  96 78 78  94 77 77  92 75 75  91 74 74  89 73 73  87 71 71  85 70 70  62 113 62  62 114 62  63 115 63  63 115 63  63 116 63  64 117 64  64 118 64  65 118 65  65 119 65  65 120 65  66 121 66  66 121 66  67 122 67  67 123 67  67 123 67  68 124 68  68 125 68  69 125 69  69 126 69  69 127 69  70 127 70  70 128 70  70 129 70  71 129 71  71 130 71  71 130 71  71 131 71  72 131 72  72 132 72  72 132 72  73 133 73  73 133 73  73 134 73  73 134 73  73 134 73  74 135 74  74 135 74  74 136 74  74 136 74  74 136 74  74 136 74  75 137 75  75 137 75  75 137 75  75 137 75  75 137 75  75 137 75  75 137 75  75 137 75  75 137 75  75 137 75  75 137 75  75 137 75  75 137 75  75 137 75  75 137 75  75 137 75  75 137 75  75 137 75  74 136 74  74 136 74  74 136 74  74 136 74  74 135 74  74 135 74  73 134 73  73 134 73  73 134 73  73 133 73  73 133 73  160 72 72  168 76 76  175 79 79  182 83 83  188 85 85  192 87 87  195 88 88  198 89 89  199 91 91  200 93 93  202 94 94  204 97 97  208 100 100  209 99 99  213 104 104  233 134 134  205 97 97  67 122 67  66 121 66  66 121 66  65 120 65  65 119 65  65 118 65  64 118 64  64 117 64  63 116 63  63 115 63  63 115 63  62 114 62  62 113 62  70 70 85  71 71 87  73 73 89  74 74 91  75 75 92  77 77 94  78 78 96  199 90 90  229 123 123  227 121 121  211 103 103  170 77 77  85 85 104  86 86 106  87 87 107  88 88 108  89 89 109  90 90 111  91 91 112  92 92 113  93 93 114  94 94 115  94 94 116  167 76 76  111 51 51  79 37 37  52 26 26  9 13 13  9 13 13  99 99 122  100 100 123  212 100 100  218 104 104  222 126 126  170 77 77  126 57 57  103 103 127  104 104 127  104 104 128  105 105 128  105 105 129  106 106 129  106 106 130  106 106 131  107 107 131  107 107 131  108 108 132  108 108 132  108 108 133  109 109 133  
133 109 109  133 108 108  132 108 108  132 107 107  131 107 107  131 107 107  130 106 106  130 106 106  129 105 105  129 105 105  128 105 105  128 104 104  127 104 104  126 103 103  126 103 103  125 102 102  124 102 102  124 101 101  123 100 100  122 100 100  122 99 99  121 99 99  120 98 98  119 97 97  118 97 97  117 96 96  117 95 95  116 94 94  115 93 93  114 93 93  113 92 92  111 91 91  110 90 90  109 89 89  108 88 88  107 87 87  106 86 86  104 85 85  103 84 84  101 83 83  100 82 82  99 80 80  97 79 79  96 78 78  94 77 77  92 75 75  91 74 74  89 73 73  87 71 71  85 70 70  62 113 62  62 114 62  63 115 63  63 115 63  63 116 63  64 117 64  64 118 64  65 118 65  65 119 65  65 120 65  66 121 66  66 121 66  67 122 67  67 123 67  67 123 67  68 124 68  68 125 68  68 125 68  69 126 69  69 127 69  70 127 70  70 128 70  70 129 70  71 129 71  71 130 71  71 130 71  71 131 71  72 131 72  72 132 72  72 132 72  72 133 72  73 133 73  73 134 73  73 134 73  73 134 73  74 135 74  74 135 74  74 135 74  74 136 74  74 136 74  74 136 74  75 136 75  75 137 75  75 137 75  75 137 75  75 137 75  75 137 75  75 137 75  75 137 75  75 137 75  75 137 75  75 137 75  75 137 75  75 137 75  75 137 75  75 137 75  75 137 75  75 137 75  75 136 75  74 136 74  74 136 74  74 136 74  74 135 74  74 135 74  74 135 74  73 134 73  73 134 73  73 134 73  73 133 73  72 133 72  72 132 72  161 73 73  171 77 77  178 81 81  185 85 85  191 87 87  194 88 88  197 89 89  199 90 90  201 92 92  202 94 94  203 94 94  203 95 95  206 98 98  210 102 102  212 104 104  212 102 102  229 128 128  200 93 93  66 121 66  65 120 65  65 119 65  65 118 65  64 118 64  64 117 64  63 116 63  63 115 63  63 115 63  62 114 62  62 113 62  70 70 85  71 71 87  73 73 89  74 74 91  75 75 92  77 77 94  189 85 85  235 132 132  241 141 141  240 139 139  223 116 116  199 92 92  173 78 78  127 58 58  87 87 107  88 88 108  89 89 109  90 90 110  91 91 111  92 92 113  93 93 114  93 93 115  158 71 71  101 47 47  87 41 41  70 33 33  44 23 23  9 13 13  99 99 121  99 99 122  100 100 122  220 110 110  218 108 108  211 120 120  157 71 71  103 103 126  103 103 126  104 104 127  104 104 128  105 105 128  105 105 129  105 105 129  106 106 130  106 106 130  107 107 131  107 107 131  107 107 132  108 108 132  108 108 133  109 109 133  
133 108 108  132 108 108  132 108 108  131 107 107  131 107 107  131 106 106  130 106 106  130 106 106  129 105 105  128 105 105  128 104 104  127 104 104  127 103 103  126 103 103  125 102 102  125 102 102  124 101 101  123 101 101  123 100 100  122 100 100  121 99 99  121 98 98  120 98 98  119 97 97  118 96 96  117 96 96  116 95 95  115 94 94  114 93 93  113 92 92  112 92 92  111 91 91  110 90 90  109 89 89  108 88 88  107 87 87  105 86 86  104 85 85  103 84 84  101 83 83  100 81 81  98 80 80  97 79 79  95 78 78  94 77 77  92 75 75  91 74 74  89 72 72  87 71 71  85 70 70  62 113 62  62 114 62  63 115 63  63 115 63  63 116 63  64 117 64  64 118 64  65 118 65  65 119 65  65 120 65  66 121 66  66 121 66  67 122 67  67 123 67  67 123 67  68 124 68  68 125 68  68 125 68  69 126 69  69 127 69  69 127 69  70 128 70  70 129 70  70 129 70  71 130 71  71 130 71  71 131 71  72 131 72  72 132 72  72 132 72  72 133 72  73 133 73  73 134 73  73 134 73  73 134 73  74 135 74  74 135 74  74 135 74  74 136 74  74 136 74  74 136 74  74 136 74  75 137 75  75 137 75  75 137 75  75 137 75  75 137 75  75 137 75  75 137 75  75 137 75  75 137 75  75 137 75  75 137 75  75 137 75  75 137 75  75 137 75  75 137 75  75 137 75  74 136 74  74 136 74  74 136 74  74 136 74  74 135 74  74 135 74  74 135 74  73 134 73  73 134 73  73 134 73  73 133 73  72 133 72  72 132 72  72 132 72  161 73 73  170 77 77  179 81 81  187 85 85  192 88 88  196 89 89  199 90 90  200 91 91  202 93 93  203 94 94  203 94 94  204 94 94  205 95 95  207 100 100  212 103 103  213 102 102  215 104 104  224 121 121  195 89 89  65 119 65  65 118 65  64 118 64  64 117 64  63 116 63  63 115 63  63 115 63  62 114 62  62 113 62  70 70 85  71 71 87  72 72 89  74 74 91  75 75 92  185 84 84  221 111 111  235 130 130  240 138 138  239 136 136  233 127 127  226 119 119  219 111 111  213 104 104  180 82 82  88 88 108  89 89 109  90 90 110  91 91 111  92 92 112  191 88 88  163 74 74  91 43 43  84 39 39  83 39 39  64 31 31  9 13 13  98 98 120  98 98 121  99 99 121  206 95 95  223 114 114  221 122 122  184 90 90  140 64 64  102 102 125  103 103 126  103 103 127  104 104 127  104 104 128  105 105 128  105 105 129  106 106 130  106 106 130  106 106 131  107 107 131  107 107 131  108 108 132  108 108 132  108 108 133  
133 108 108  132 108 108  132 107 107  131 107 107  131 107 107  130 106 106  130 106 106  129 105 105  129 105 105  128 105 105  128 104 104  127 104 104  126 103 103  126 103 103  125 102 102  125 102 102  124 101 101  123 101 101  123 100 100  122 99 99  121 99 99  120 98 98  119 97 97  119 97 97  118 96 96  117 95 95  116 95 95  115 94 94  114 93 93  113 92 92  112 91 91  111 91 91  110 90 90  109 89 89  108 88 88  106 87 87  105 86 86  104 85 85  103 84 84  101 83 83  100 81 81  98 80 80  97 79 79  95 78 78  94 76 76  92 75 75  91 74 74  89 72 72  87 71 71  85 70 70  62 113 62  62 114 62  63 115 63  63 115 63  63 116 63  64 117 64  64 118 64  65 118 65  65 119 65  65 120 65  66 121 66  66 121 66  67 122 67  67 123 67  67 123 67  68 124 68  68 125 68  68 125 68  69 126 69  69 127 69  69 127 69  70 128 70  70 128 70  70 129 70  71 130 71  71 130 71  71 131 71  72 131 72  72 132 72  72 132 72  72 133 72  73 133 73  73 133 73  73 134 73  73 134 73  74 135 74  74 135 74  74 135 74  74 136 74  74 136 74  74 136 74  74 136 74  75 137 75  75 137 75  75 137 75  75 137 75  75 137 75  75 137 75  75 137 75  75 137 75  75 137 75  75 137 75  75 137 75  75 137 75  75 137 75  75 137 75  75 137 75  75 137 75  74 136 74  74 136 74  74 136 74  74 136 74  74 135 74  74 135 74  74 135 74  73 134 73  73 134 73  73 133 73  73 133 73  72 133 72  72 132 72  72 132 72  72 131 72  71 131 71  174 79 79  183 83 83  190 87 87  195 89 89  198 90 90  201 91 91  202 94 94  203 93 93  203 94 94  204 94 94  205 94 94  205 95 95  206 96 96  210 100 100  213 101 101  214 101 101  227 122 122  214 109 109  65 118 65  64 118 64  64 117 64  63 116 63  63 115 63  63 115 63  62 114 62  62 113 62  70 70 85  71 71 87  72 72 89  74 74 91  171 77 77  182 82 82  219 105 105  226 114 114  229 118 118  228 117 117  226 113 113  218 105 105  206 95 95  193 88 88  120 55 55  88 88 108  89 89 109  90 90 110  91 91 111  194 92 92  172 78 78  81 38 38  77 37 37  83 39 39  71 34 34  9 13 13  97 97 119  97 97 119  98 98 120  99 99 121  222 113 113  220 109 109  213 122 122  167 76 76  122 56 56  102 102 125  103 103 126  103 103 126  104 104 127  104 104 128  105 105 128  105 105 129  105 105 129  106 106 130  106 106 130  107 107 131  107 107 131  107 107 132  108 108 132  108 108 133  
132 108 108  132 108 108  131 107 107  131 107 107  131 106 106  130 106 106  130 106 106  129 105 105  128 105 105  128 104 104  127 104 104  127 103 103  126 103 103  126 102 102  125 102 102  124 101 101  124 101 101  123 100 100  122 100 100  122 99 99  121 99 99  120 98 98  119 97 97  118 97 97  118 96 96  117 95 95  116 94 94  115 94 94  114 93 93  113 92 92  112 91 91  111 90 90  110 89 89  109 89 89  107 88 88  106 87 87  105 86 86  104 85 85  102 83 83  101 82 82  100 81 81  98 80 80  97 79 79  95 78 78  94 76 76  92 75 75  90 74 74  89 72 72  87 71 71  85 70 70  62 113 62  62 114 62  63 115 63  63 115 63  63 116 63  64 117 64  64 118 64  65 118 65  65 119 65  65 120 65  66 120 66  66 121 66  67 122 67  67 123 67  67 123 67  68 124 68  68 125 68  68 125 68  69 126 69  69 127 69  69 127 69  70 128 70  70 128 70  70 129 70  71 129 71  71 130 71  71 131 71  72 131 72  72 132 72  72 132 72  72 133 72  73 133 73  73 133 73  73 134 73  73 134 73  73 135 73  74 135 74  74 135 74  74 135 74  74 136 74  74 136 74  74 136 74  74 136 74  75 137 75  75 137 75  75 137 75  75 137 75  75 137 75  75 137 75  75 137 75  75 137 75  75 137 75  75 137 75  75 137 75  75 137 75  75 137 75  75 137 75  74 136 74  74 136 74  74 136 74  74 136 74  74 135 74  74 135 74  74 135 74  73 135 73  73 134 73  73 134 73  73 133 73  73 133 73  72 133 72  72 132 72  72 132 72  72 131 72  71 131 71  71 130 71  176 80 80  190 86 86  198 89 89  200 91 91  202 95 95  203 96 96  203 95 95  204 94 94  204 94 94  205 95 95  206 95 95  206 96 96  208 98 98  211 100 100  213 100 100  214 100 100  220 110 110  221 116 116  64 118 64  64 117 64  63 116 63  63 115 63  63 115 63  62 114 62  62 113 62  70 70 85  71 71 87  72 72 89  74 74 90  219 109 109  229 119 119  227 122 122  223 107 107  223 108 108  223 109 109  223 111 111  215 102 102  205 93 93  190 86 86  167 76 76  88 88 107  89 89 109  89 89 110  197 95 95  179 82 82  70 33 33  70 34 34  75 36 36  77 37 37  22 16 16  96 96 118  97 97 118  97 97 119  98 98 120  149 68 68  229 123 123  217 111 111  181 86 86  150 68 68  101 101 124  102 102 125  102 102 126  103 103 126  103 103 127  104 104 127  104 104 128  105 105 128  105 105 129  106 106 130  106 106 130  106 106 131  107 107 131  107 107 131  108 108 132  108 108 132  
132 108 108  132 107 107  131 107 107  131 107 107  130 106 106  130 106 106  129 105 105  129 105 105  128 105 105  128 104 104  127 104 104  127 103 103  126 103 103  125 102 102  125 102 102  124 101 101  123 101 101  123 100 100  122 100 100  121 99 99  121 98 98  120 98 98  119 97 97  118 96 96  117 96 96  116 95 95  116 94 94  115 93 93  114 93 93  113 92 92  112 91 91  111 90 90  109 89 89  108 88 88  107 87 87  106 86 86  105 85 85  104 84 84  102 83 83  101 82 82  99 81 81  98 80 80  97 79 79  95 78 78  94 76 76  92 75 75  90 74 74  89 72 72  87 71 71  85 70 70  62 113 62  62 114 62  63 115 63  63 115 63  63 116 63  64 117 64  64 118 64  65 118 65  65 119 65  65 120 65  66 120 66  66 121 66  66 122 66  67 123 67  67 123 67  68 124 68  68 125 68  68 125 68  69 126 69  69 126 69  69 127 69  70 128 70  70 128 70  70 129 70  71 129 71  71 130 71  71 130 71  72 131 72  72 131 72  72 132 72  72 132 72  73 133 73  73 133 73  73 134 73  73 134 73  73 134 73  74 135 74  74 135 74  74 135 74  74 136 74  74 136 74  74 136 74  74 136 74  75 136 75  75 137 75  75 137 75  75 137 75  75 137 75  75 137 75  75 137 75  75 137 75  75 137 75  75 137 75  75 137 75  75 137 75  75 137 75  75 136 75  74 136 74  74 136 74  74 136 74  74 136 74  74 135 74  74 135 74  74 135 74  73 134 73  73 134 73  73 134 73  73 133 73  73 133 73  72 132 72  72 132 72  72 131 72  72 131 72  71 130 71  71 130 71  71 129 71  127 58 58  190 86 86  197 89 89  202 94 94  207 101 101  205 98 98  204 96 96  205 96 96  205 95 95  206 96 96  207 96 96  207 98 98  211 100 100  213 101 101  214 100 100  212 98 98  216 104 104  217 108 108  174 79 79  63 116 63  63 115 63  63 115 63  62 114 62  62 113 62  70 70 85  71 71 87  72 72 89  224 112 112  226 111 111  247 165 165  246 158 158  243 152 152  241 147 147  237 138 138  241 144 144  232 138 138  198 96 96  181 82 82  162 73 73  87 87 107  88 88 108  201 99 99  182 84 84  83 39 39  61 30 30  65 31 31  78 37 37  14 14 14  95 95 116  96 96 117  96 96 118  97 97 119  98 98 120  217 107 107  227 121 121  208 112 112  161 73 73  129 59 59  101 101 124  102 102 125  102 102 125  103 103 126  103 103 127  104 104 127  104 104 128  105 105 128  105 105 129  105 105 129  106 106 130  106 106 130  107 107 131  107 107 131  107 107 132  108 108 132  
132 108 108  131 107 107  131 107 107  131 107 107  130 106 106  130 106 106  129 105 105  129 105 105  128 104 104  127 104 104  127 103 103  126 103 103  126 103 103  125 102 102  124 102 102  124 101 101  123 100 100  122 100 100  122 99 99  121 99 99  120 98 98  119 97 97  119 97 97  118 96 96  117 95 95  116 95 95  115 94 94  114 93 93  113 92 92  112 92 92  111 91 91  110 90 90  109 89 89  108 88 88  107 87 87  106 86 86  105 85 85  103 84 84  102 83 83  101 82 82  99 81 81  98 80 80  96 79 79  95 77 77  93 76 76  92 75 75  90 74 74  89 72 72  87 71 71  85 69 69  62 113 62  62 114 62  118 215 118  131 240 131  133 242 133  106 194 106  64 117 64  65 118 65  65 119 65  65 120 65  66 120 66  66 121 66  66 122 66  67 122 67  67 123 67  68 124 68  68 124 68  68 125 68  69 126 69  69 126 69  107 196 107  70 128 70  70 128 70  70 129 70  71 129 71  71 130 71  71 130 71  71 131 71  72 131 72  72 132 72  72 132 72  72 133 72  73 133 73  73 134 73  73 134 73  73 134 73  73 135 73  74 135 74  74 135 74  74 135 74  74 136 74  74 136 74  74 136 74  74 136 74  75 136 75  75 137 75  75 137 75  75 137 75  75 137 75  75 137 75  75 137 75  75 137 75  75 137 75  75 137 75  75 137 75  75 136 75  74 136 74  74 136 74  74 136 74  74 136 74  74 135 74  74 135 74  74 135 74  73 135 73  73 134 73  73 134 73  73 134 73  73 133 73  72 133 72  72 132 72  72 132 72  72 131 72  71 131 71  71 130 71  71 130 71  71 129 71  70 129 70  70 128 70  188 85 85  195 88 88  201 92 92  208 102 102  207 99 99  206 98 98  206 97 97  206 97 97  207 97 97  208 98 98  210 100 100  212 102 102  213 102 102  203 92 92  214 99 99  219 105 105  213 100 100  177 80 80  63 115 63  62 114 62  62 114 62  62 113 62  69 69 85  71 71 87  218 100 100  218 99 99  251 168 168  214 109 109  207 98 98  213 102 102  216 104 104  236 137 137  249 161 161  223 133 133  188 86 86  170 77 77  135 62 62  87 87 107  205 104 104  185 86 86  120 55 55  28 18 18  51 26 26  69 33 33  9 13 13  9 13 13  95 95 116  95 95 117  96 96 118  97 97 119  230 128 128  218 113 113  178 80 80  148 67 67  128 58 58  100 100 123  101 101 124  102 102 124  102 102 125  103 103 126  103 103 126  103 103 127  104 104 127  104 104 128  105 105 129  105 105 129  106 106 130  106 106 130  107 107 131  107 107 131  107 107 131  108 108 132  
114 208 114  131 107 107  131 107 107  130 106 106  130 106 106  129 106 106  129 105 105  128 105 105  128 104 104  127 104 104  127 103 103  126 103 103  125 102 102  125 102 102  124 101 101  124 101 101  123 100 100  122 100 100  121 99 99  121 98 98  120 98 98  119 97 97  118 97 97  118 96 96  117 95 95  116 95 95  115 94 94  114 93 93  113 92 92  112 91 91  111 91 91  110 90 90  109 89 89  108 88 88  107 87 87  106 86 86  104 85 85  103 84 84  102 83 83  101 82 82  99 81 81  98 80 80  96 79 79  95 77 77  93 76 76  92 75 75  90 74 74  89 72 72  87 71 71  85 69 69  62 113 62  119 217 119  128 234 128  130 238 130  130 237 130  122 224 122  64 117 64  64 118 64  65 119 65  65 120 65  66 120 66  66 121 66  66 122 66  67 122 67  67 123 67  68 124 68  68 124 68  68 125 68  111 203 111  141 255 141  161 255 161  165 255 165  149 255 149  70 129 70  71 129 71  71 130 71  71 130 71  71 131 71  72 131 72  72 132 72  72 132 72  72 133 72  73 133 73  73 133 73  73 134 73  73 134 73  73 134 73  74 135 74  74 135 74  74 135 74  74 136 74  74 136 74  74 136 74  74 136 74  74 136 74  74 136 74  75 137 75  75 137 75  75 137 75  75 137 75  75 137 75  75 137 75  75 137 75  75 137 75  74 136 74  74 136 74  74 136 74  74 136 74  74 136 74  74 136 74  74 135 74  74 135 74  74 135 74  73 134 73  73 134 73  73 134 73  73 133 73  73 133 73  72 133 72  72 132 72  72 132 72  72 131 72  71 131 71  71 130 71  71 130 71  71 129 71  70 129 70  70 128 70  70 127 70  177 80 80  194 88 88  200 90 90  206 96 96  209 101 101  208 100 100  207 99 99  207 98 98  208 98 98  208 99 99  209 100 100  211 101 101  207 93 93  214 97 97  219 110 110  216 110 110  210 100 100  180 81 81  62 114 62  62 114 62  62 113 62  69 69 85  71 71 87  210 94 94  239 148 148  214 110 110  206 99 99  202 95 95  211 97 97  221 109 109  230 121 121  249 168 168  197 98 98  176 79 79  147 67 67  9 13 13  209 109 109  189 89 89  134 61 61  9 13 13  9 13 13  63 31 31  58 29 29  9 13 13  94 94 115  95 95 116  95 95 117  96 96 118  231 134 134  199 92 92  170 77 77  148 67 67  128 58 58  100 100 122  100 100 123  101 101 124  101 101 124  102 102 125  102 102 125  103 103 126  103 103 127  104 104 127  104 104 128  105 105 128  105 105 129  106 106 129  106 106 130  106 106 130  107 107 131  107 107 131  107 107 132  
110 201 110  116 213 116  131 107 107  130 106 106  130 106 106  129 105 105  129 105 105  128 104 104  128 104 104  127 104 104  126 103 103  126 103 103  125 102 102  125 102 102  124 101 101  123 101 101  123 100 100  122 99 99  121 99 99  120 98 98  120 98 98  119 97 97  118 96 96  117 96 96  117 95 95  116 94 94  115 94 94  32 59 32  78 143 78  74 135 74  111 90 90  110 90 90  109 89 89  108 88 88  107 87 87  105 86 86  104 85 85  103 84 84  102 83 83  100 82 82  99 81 81  98 80 80  96 78 78  95 77 77  93 76 76  92 75 75  90 73 73  88 72 72  87 71 71  85 69 69  118 217 118  123 224 123  128 235 128  128 234 128  128 234 128  119 218 119  64 117 64  64 118 64  65 119 65  65 119 65  66 120 66  66 121 66  66 122 66  67 122 67  67 123 67  67 124 67  68 124 68  68 125 68  68 125 68  111 203 111  147 255 147  166 255 166  168 255 168  153 255 153  70 129 70  71 130 71  71 130 71  71 131 71  72 131 72  72 132 72  72 132 72  72 132 72  73 133 73  73 133 73  73 134 73  73 134 73  73 134 73  73 135 73  74 135 74  74 135 74  74 135 74  74 136 74  74 136 74  74 136 74  74 136 74  74 136 74  74 136 74  74 136 74  75 136 75  75 136 75  75 136 75  75 136 75  74 136 74  74 136 74  74 136 74  74 136 74  74 136 74  74 136 74  74 136 74  74 135 74  74 135 74  74 135 74  73 135 73  73 134 73  73 134 73  73 134 73  73 133 73  73 133 73  72 132 72  72 132 72  72 132 72  72 131 72  71 131 71  71 130 71  71 130 71  70 129 70  70 128 70  70 128 70  69 127 69  69 127 69  189 85 85  194 88 88  200 90 90  205 94 94  209 100 100  206 95 95  204 93 93  206 94 94  207 96 96  208 97 97  209 98 98  208 94 94  219 112 112  233 141 141  227 134 134  213 113 113  202 94 94  171 77 77  62 114 62  62 113 62  69 69 85  157 71 71  215 104 104  210 113 113  197 95 95  221 119 119  208 95 95  214 98 98  221 103 103  241 146 146  232 146 146  183 84 84  157 71 71  52 26 26  211 111 111  208 110 110  165 75 75  95 44 44  9 13 13  59 29 29  71 34 34  9 13 13  93 93 114  94 94 115  94 94 116  214 106 106  222 120 120  199 92 92  171 77 77  148 67 67  128 58 58  99 99 121  99 99 122  100 100 123  101 101 123  101 101 124  102 102 125  102 102 125  103 103 126  103 103 126  104 104 127  104 104 128  104 104 128  105 105 129  105 105 129  106 106 130  106 106 130  107 107 131  107 107 131  107 107 132  
105 192 105  115 210 115  96 175 96  130 106 106  101 185 101  116 212 116  128 105 105  128 104 104  127 104 104  127 103 103  126 103 103  126 102 102  125 102 102  124 101 101  124 101 101  123 100 100  122 100 100  122 99 99  121 99 99  120 98 98  119 97 97  119 97 97  118 96 96  117 96 96  116 95 95  115 94 94  115 93 93  114 93 93  16 30 16  74 136 74  111 204 111  117 214 117  109 89 89  107 88 88  106 87 87  105 86 86  104 85 85  103 84 84  101 83 83  100 82 82  99 81 81  97 79 79  96 78 78  95 77 77  93 76 76  92 75 75  90 73 73  88 72 72  85 155 85  115 210 115  120 220 120  123 225 123  126 230 126  125 229 125  126 230 126  117 214 117  64 117 64  64 118 64  65 119 65  65 119 65  66 120 66  66 121 66  66 121 66  67 122 67  67 123 67  67 123 67  68 124 68  68 125 68  68 125 68  69 126 69  95 173 95  140 255 140  161 255 161  162 255 162  152 255 152  71 129 71  71 130 71  71 130 71  71 131 71  72 131 72  72 132 72  72 132 72  72 133 72  73 133 73  73 133 73  73 134 73  73 134 73  73 134 73  74 135 74  74 135 74  74 135 74  74 135 74  74 136 74  74 136 74  74 136 74  74 136 74  74 136 74  74 136 74  74 136 74  74 136 74  74 136 74  74 136 74  74 136 74  74 136 74  74 136 74  74 136 74  74 136 74  74 136 74  74 135 74  74 135 74  74 135 74  74 135 74  73 134 73  73 134 73  73 134 73  73 133 73  73 133 73  72 133 72  72 132 72  72 132 72  72 131 72  71 131 71  71 130 71  71 130 71  71 129 71  70 129 70  70 128 70  70 128 70  69 127 69  69 127 69  182 82 82  190 86 86  196 89 89  203 92 92  204 92 92  201 91 91  202 91 91  204 93 93  206 94 94  207 95 95  208 96 96  209 98 98  223 125 125  240 154 154  242 159 159  223 135 135  204 105 105  192 87 87  147 67 67  62 113 62  69 69 85  207 93 93  246 158 158  211 115 115  212 118 118  231 135 135  212 96 96  220 101 101  224 105 105  234 133 133  215 122 122  181 82 82  80 38 38  194 88 88  225 134 134  185 84 84  123 56 56  9 13 13  55 27 27  72 34 34  46 24 24  92 92 113  93 93 114  93 93 115  224 121 121  221 119 119  199 92 92  171 77 77  148 67 67  125 57 57  98 98 120  99 99 121  99 99 122  100 100 122  100 100 123  101 101 124  101 101 124  102 102 125  102 102 126  103 103 126  103 103 127  104 104 127  104 104 128  105 105 128  105 105 129  106 106 129  106 106 130  106 106 130  107 107 131  107 107 131  
98 179 98  110 201 110  102 186 102  130 106 106  106 194 106  116 213 116  128 105 105  128 104 104  127 104 104  127 103 103  126 103 103  125 102 102  125 102 102  124 101 101  123 101 101  123 100 100  122 100 100  121 99 99  121 98 98  120 98 98  119 97 97  118 97 97  118 96 96  117 95 95  116 95 95  115 94 94  114 93 93  113 92 92  16 30 16  16 30 16  107 196 107  118 216 118  118 216 118  105 193 105  106 87 87  105 86 86  104 85 85  103 84 84  101 83 83  100 82 82  99 80 80  97 79 79  96 78 78  94 77 77  93 76 76  91 75 75  90 73 73  82 149 82  109 199 109  118 216 118  122 224 122  124 227 124  122 223 122  122 224 122  124 227 124  115 211 115  64 117 64  64 118 64  65 118 65  65 119 65  65 120 65  66 121 66  66 121 66  67 122 67  67 123 67  67 123 67  68 124 68  68 125 68  68 125 68  69 126 69  69 126 69  76 139 76  120 219 120  147 255 147  152 255 152  146 255 146  71 130 71  71 130 71  71 131 71  72 131 72  72 132 72  72 132 72  72 132 72  73 133 73  73 133 73  73 134 73  73 134 73  73 134 73  73 134 73  74 135 74  74 135 74  74 135 74  74 135 74  74 136 74  74 136 74  74 136 74  74 136 74  74 136 74  74 136 74  74 136 74  74 136 74  74 136 74  74 136 74  74 136 74  74 136 74  74 136 74  74 136 74  74 135 74  74 135 74  74 135 74  74 135 74  73 134 73  73 134 73  73 134 73  73 134 73  73 133 73  73 133 73  72 132 72  72 132 72  72 132 72  72 131 72  71 131 71  71 130 71  71 130 71  71 129 71  70 129 70  70 128 70  70 128 70  69 127 69  69 126 69  176 79 79  185 84 84  194 87 87  201 91 91  199 90 90  200 90 90  203 91 91  204 92 92  206 94 94  206 94 94  207 95 95  209 97 97  218 114 114  235 146 146  246 165 165  232 150 150  207 116 116  192 92 92  174 79 79  61 113 61  69 69 85  218 99 99  238 143 143  213 119 119  227 140 140  231 134 134  218 99 99  226 108 108  228 113 113  222 109 109  206 97 97  179 81 81  143 65 65  223 126 126  197 94 94  147 67 67  49 25 25  50 25 25  69 33 33  56 28 28  91 91 111  92 92 112  231 131 131  228 127 127  206 97 97  198 91 91  171 77 77  148 67 67  120 55 55  97 97 119  98 98 120  98 98 121  99 99 121  100 100 122  100 100 123  101 101 123  101 101 124  102 102 125  102 102 125  103 103 126  103 103 127  104 104 127  104 104 128  105 105 128  105 105 129  105 105 129  106 106 130  106 106 130  107 107 131  107 107 131  
88 161 88  104 190 104  108 197 108  111 204 111  129 105 105  116 212 116  116 211 116  127 104 104  127 103 103  126 103 103  126 103 103  125 102 102  124 102 102  124 101 101  123 101 101  123 100 100  122 99 99  121 99 99  120 98 98  120 98 98  119 97 97  118 96 96  117 96 96  117 95 95  116 94 94  115 94 94  114 93 93  113 92 92  112 91 91  16 30 16  16 30 16  116 212 116  121 222 121  119 217 119  102 187 102  105 85 85  104 84 84  102 83 83  101 82 82  100 81 81  98 80 80  97 79 79  96 78 78  94 77 77  93 76 76  91 74 74  90 73 73  99 181 99  116 212 116  120 220 120  123 225 123  124 226 124  120 220 120  123 224 123  122 223 122  113 206 113  64 117 64  64 118 64  65 118 65  65 119 65  65 120 65  66 120 66  66 121 66  66 122 66  67 122 67  67 123 67  68 124 68  68 124 68  68 125 68  94 172 94  154 255 154  171 255 171  170 255 170  158 255 158  150 255 150  150 255 150  136 249 136  71 130 71  71 131 71  72 131 72  72 131 72  72 132 72  72 132 72  72 133 72  73 133 73  73 133 73  73 134 73  73 134 73  73 134 73  73 135 73  74 135 74  74 135 74  74 135 74  74 135 74  74 136 74  74 136 74  74 136 74  74 136 74  74 136 74  74 136 74  74 136 74  74 136 74  74 136 74  74 136 74  74 136 74  74 136 74  74 135 74  74 135 74  74 135 74  74 135 74  73 135 73  73 134 73  73 134 73  73 134 73  73 133 73  73 133 73  72 133 72  72 132 72  72 132 72  72 131 72  72 131 72  71 131 71  71 130 71  71 130 71  70 129 70  70 129 70  70 128 70  70 127 70  69 127 69  69 126 69  69 126 69  68 125 68  191 86 86  196 88 88  198 89 89  200 90 90  203 91 91  205 92 92  206 93 93  206 93 93  206 94 94  210 99 99  212 104 104  226 131 131  243 160 160  241 161 161  218 132 132  198 102 102  188 85 85  61 113 61  197 89 89  227 113 113  229 128 128  215 122 122  240 158 158  221 117 117  222 103 103  236 129 129  237 130 130  228 117 117  207 94 94  181 82 82  146 66 66  211 106 106  170 77 77  98 45 45  44 23 23  65 32 32  65 31 31  9 13 13  9 13 13  234 134 134  223 115 115  208 99 99  194 88 88  173 78 78  148 67 67  116 53 53  96 96 118  97 97 119  98 98 120  98 98 120  99 99 121  99 99 122  100 100 123  101 101 123  101 101 124  102 102 124  102 102 125  103 103 126  103 103 126  103 103 127  104 104 127  104 104 128  105 105 128  105 105 129  106 106 129  106 106 130  106 106 130  107 107 131  
78 143 78  101 185 101  107 195 107  115 209 115  129 105 105  116 212 116  115 211 115  113 207 113  127 103 103  126 103 103  125 102 102  125 102 102  124 101 101  124 101 101  123 100 100  122 100 100  122 99 99  121 99 99  120 98 98  120 97 97  119 97 97  118 96 96  117 96 96  116 95 95  116 94 94  115 94 94  114 93 93  113 92 92  112 91 91  16 30 16  16 30 16  97 178 97  120 219 120  123 224 123  118 216 118  104 190 104  103 84 84  102 83 83  101 82 82  100 81 81  98 80 80  97 79 79  96 78 78  94 77 77  93 76 76  91 74 74  90 73 73  107 195 107  118 215 118  122 222 122  122 223 122  122 223 122  118 216 118  122 223 122  119 218 119  110 200 110  64 117 64  64 118 64  65 118 65  65 119 65  65 120 65  66 120 66  66 121 66  66 122 66  67 122 67  67 123 67  67 124 67  68 124 68  68 125 68  69 125 69  108 198 108  150 255 150  159 255 159  166 255 166  158 255 158  148 255 148  145 255 145  71 130 71  71 130 71  71 131 71  72 131 72  72 132 72  72 132 72  72 132 72  73 133 73  73 133 73  73 133 73  73 134 73  73 134 73  73 134 73  73 135 73  74 135 74  74 135 74  74 135 74  74 135 74  74 135 74  74 136 74  74 136 74  74 136 74  74 136 74  74 136 74  74 136 74  74 136 74  74 136 74  74 135 74  74 135 74  74 135 74  74 135 74  74 135 74  73 135 73  73 134 73  73 134 73  73 134 73  73 133 73  73 133 73  73 133 73  72 132 72  72 132 72  72 132 72  72 131 72  71 131 71  71 130 71  71 130 71  71 129 71  70 129 70  70 128 70  70 128 70  69 127 69  69 127 69  69 126 69  69 125 69  68 125 68  68 124 68  193 87 87  197 89 89  200 90 90  203 91 91  205 92 92  206 93 93  205 92 92  210 100 100  213 105 105  209 98 98  219 116 116  236 148 148  245 165 165  230 148 148  215 127 127  201 105 105  196 88 88  196 88 88  221 103 103  228 136 136  216 125 125  243 160 160  218 99 99  230 117 117  243 140 140  242 138 138  229 120 120  207 95 95  182 82 82  146 66 66  194 95 95  138 63 63  14 14 14  62 30 30  72 35 35  9 13 13  199 90 90  214 104 104  234 135 135  220 115 115  202 101 101  188 86 86  163 74 74  110 51 51  96 96 117  96 96 118  97 97 119  97 97 120  98 98 120  99 99 121  99 99 122  100 100 122  100 100 123  101 101 124  101 101 124  102 102 125  102 102 125  103 103 126  103 103 127  104 104 127  104 104 128  105 105 128  105 105 129  105 105 129  106 106 130  106 106 130  107 107 131  
67 122 67  108 198 108  103 188 103  112 205 112  116 212 116  116 211 116  115 210 115  113 207 113  126 103 103  126 103 103  125 102 102  125 102 102  124 101 101  123 101 101  123 100 100  122 100 100  121 99 99  121 98 98  120 98 98  119 97 97  119 97 97  118 96 96  117 95 95  116 95 95  115 94 94  114 93 93  114 93 93  113 92 92  112 91 91  111 90 90  16 30 16  16 30 16  106 194 106  121 222 121  124 226 124  118 217 118  106 194 106  102 83 83  101 82 82  99 81 81  98 80 80  97 79 79  95 78 78  94 77 77  93 75 75  91 74 74  90 73 73  112 204 112  120 220 120  120 219 120  120 220 120  120 220 120  117 214 117  120 219 120  117 214 117  63 116 63  64 117 64  64 117 64  64 118 64  65 119 65  65 119 65  66 120 66  66 121 66  66 121 66  67 122 67  67 123 67  67 123 67  68 124 68  68 125 68  68 125 68  69 126 69  109 200 109  145 255 145  156 255 156  162 255 162  155 255 155  147 255 147  138 251 138  71 130 71  71 131 71  72 131 72  72 131 72  72 132 72  72 132 72  72 133 72  73 133 73  73 133 73  73 134 73  73 134 73  73 134 73  73 134 73  73 135 73  74 135 74  74 135 74  74 135 74  74 135 74  74 135 74  74 135 74  74 135 74  74 135 74  74 135 74  74 135 74  74 135 74  74 135 74  74 135 74  74 135 74  74 135 74  74 135 74  73 135 73  73 134 73  73 134 73  73 134 73  73 134 73  73 133 73  73 133 73  72 133 72  72 132 72  72 132 72  72 131 72  72 131 72  71 131 71  71 130 71  71 130 71  71 129 71  70 129 70  70 128 70  70 128 70  69 127 69  69 126 69  69 126 69  68 125 68  68 125 68  182 82 82  187 84 84  194 87 87  201 91 91  206 93 93  209 96 96  211 99 99  213 104 104  219 118 118  217 115 115  211 102 102  213 105 105  227 133 133  243 161 161  243 163 163  234 153 153  222 137 137  219 109 109  193 87 87  220 105 105  239 153 153  219 129 129  228 121 121  219 102 102  234 128 128  236 131 131  232 125 125  220 110 110  204 94 94  179 81 81  143 65 65  160 73 73  26 17 17  63 31 31  72 34 34  205 93 93  209 97 97  224 121 121  223 118 118  209 102 102  216 123 123  203 109 109  180 83 83  155 70 70  95 95 116  95 95 117  96 96 118  97 97 119  97 97 119  98 98 120  98 98 121  99 99 121  100 100 122  100 100 123  101 101 123  101 101 124  102 102 125  102 102 125  103 103 126  103 103 126  104 104 127  104 104 127  104 104 128  105 105 129  105 105 129  106 106 130  106 106 130  106 106 130  
115 211 115  115 209 115  110 202 110  109 199 109  115 210 115  116 211 116  115 211 115  112 206 112  109 200 109  126 102 102  125 102 102  124 102 102  124 101 101  123 100 100  123 100 100  122 99 99  121 99 99  120 98 98  120 98 98  119 97 97  118 96 96  118 96 96  117 95 95  116 95 95  115 94 94  114 93 93  113 92 92  112 92 92  111 91 91  110 90 90  16 30 16  16 30 16  84 155 84  104 190 104  121 221 121  124 227 124  120 219 120  108 197 108  100 82 82  99 81 81  98 80 80  97 79 79  95 78 78  94 77 77  92 75 75  91 74 74  89 73 73  114 209 114  122 223 122  119 217 119  120 219 120  119 217 119  117 215 117  120 220 120  116 212 116  63 116 63  64 117 64  64 117 64  64 118 64  65 119 65  65 119 65  65 120 65  66 121 66  66 121 66  67 122 67  67 123 67  67 123 67  68 124 68  68 125 68  68 125 68  69 126 69  69 126 69  110 201 110  143 255 143  153 255 153  158 255 158  157 255 157  142 255 142  126 230 126  71 130 71  71 131 71  72 131 72  72 132 72  72 132 72  72 132 72  72 133 72  73 133 73  73 133 73  73 134 73  73 134 73  73 134 73  73 134 73  73 135 73  74 135 74  74 135 74  74 135 74  74 135 74  74 135 74  74 135 74  74 135 74  74 135 74  74 135 74  74 135 74  74 135 74  74 135 74  74 135 74  74 135 74  73 135 73  73 134 73  73 134 73  73 134 73  73 134 73  73 133 73  73 133 73  72 133 72  72 132 72  72 132 72  72 132 72  72 131 72  71 131 71  71 130 71  71 130 71  71 129 71  70 129 70  70 128 70  70 128 70  70 127 70  69 127 69  69 126 69  69 126 69  68 125 68  68 125 68  68 124 68  67 123 67  155 70 70  190 86 86  213 105 105  216 112 112  220 121 121  225 130 130  229 137 137  223 127 127  215 110 110  210 100 100  219 118 118  235 146 146  243 160 160  245 163 163  245 164 164  230 129 129  188 85 85  212 101 101  211 104 104  239 152 152  214 98 98  220 104 104  226 112 112  231 119 119  223 109 109  207 94 94  203 93 93  191 87 87  165 74 74  164 74 74  215 107 107  208 98 98  214 106 106  216 109 109  217 111 111  208 99 99  199 91 91  191 91 91  192 97 97  197 107 107  175 81 81  143 65 65  95 95 116  95 95 117  96 96 118  96 96 118  97 97 119  98 98 120  98 98 120  99 99 121  99 99 122  100 100 123  100 100 123  101 101 124  102 102 124  102 102 125  102 102 126  103 103 126  103 103 127  104 104 127  104 104 128  105 105 128  105 105 129  106 106 129  106 106 130  106 106 130  
115 210 115  115 210 115  114 209 114  112 204 112  112 205 112  114 209 114  115 210 115  115 211 115  112 205 112  125 102 102  125 102 102  124 101 101  124 101 101  123 100 100  122 100 100  122 99 99  121 99 99  120 98 98  120 98 98  119 97 97  118 96 96  117 96 96  116 95 95  116 94 94  115 94 94  114 93 93  113 92 92  112 91 91  111 91 91  110 90 90  109 89 89  16 30 16  64 117 64  91 167 91  114 209 114  123 225 123  123 224 123  116 212 116  100 82 82  99 81 81  98 80 80  96 79 79  95 78 78  94 76 76  92 75 75  91 74 74  89 73 73  120 219 120  123 226 123  119 218 119  121 222 121  119 218 119  120 220 120  120 219 120  115 210 115  63 116 63  64 116 64  64 117 64  64 118 64  65 118 65  65 119 65  65 120 65  66 120 66  66 121 66  66 122 66  67 122 67  67 123 67  68 124 68  68 124 68  68 125 68  69 126 69  69 126 69  69 127 69  110 201 110  140 255 140  151 255 151  153 255 153  152 255 152  129 236 129  104 189 104  71 131 71  72 131 72  72 131 72  72 132 72  72 132 72  72 132 72  73 133 73  73 133 73  73 133 73  73 134 73  73 134 73  73 134 73  73 134 73  73 134 73  73 135 73  74 135 74  74 135 74  74 135 74  74 135 74  74 135 74  74 135 74  74 135 74  74 135 74  74 135 74  74 135 74  73 135 73  73 134 73  73 134 73  73 134 73  73 134 73  73 134 73  73 133 73  73 133 73  73 133 73  72 132 72  72 132 72  72 132 72  72 131 72  72 131 72  71 131 71  71 130 71  71 130 71  71 129 71  70 129 70  70 128 70  70 128 70  69 127 69  69 127 69  69 126 69  69 126 69  68 125 68  68 124 68  68 124 68  67 123 67  199 90 90  208 94 94  215 110 110  219 116 116  222 123 123  226 130 130  229 137 137  228 135 135  220 119 119  213 106 106  214 107 107  218 114 114  221 119 119  224 125 125  228 130 130  219 102 102  194 88 88  197 89 89  191 86 86  123 56 56  216 99 99  221 104 104  225 109 109  228 114 114  228 114 114  222 108 108  213 100 100  204 93 93  196 89 89  190 86 86  183 83 83  174 79 79  173 78 78  179 81 81  195 89 89  187 84 84  178 80 80  174 79 79  178 83 83  189 95 95  169 76 76  119 55 55  94 94 116  95 95 116  96 96 117  96 96 118  97 97 119  98 98 120  98 98 120  99 99 121  99 99 122  100 100 122  100 100 123  101 101 124  101 101 124  102 102 125  102 102 125  103 103 126  103 103 127  104 104 127  104 104 128  105 105 128  105 105 129  105 105 129  106 106 130  106 106 130  
113 207 113  114 209 114  114 209 114  112 205 112  110 201 110  111 204 111  113 207 113  114 209 114  114 209 114  110 201 110  125 102 102  124 101 101  123 101 101  123 100 100  122 100 100  121 99 99  121 98 98  120 98 98  119 97 97  119 97 97  118 96 96  117 95 95  116 95 95  115 94 94  115 93 93  114 93 93  113 92 92  112 91 91  111 91 91  110 90 90  109 89 89  16 30 16  43 78 43  73 134 73  101 185 101  121 221 121  123 224 123  119 218 119  110 202 110  99 81 81  98 80 80  96 78 78  95 77 77  93 76 76  92 75 75  91 74 74  85 156 85  124 227 124  126 230 126  121 221 121  121 222 121  122 222 122  121 221 121  119 217 119  63 115 63  63 116 63  63 116 63  64 117 64  64 118 64  65 118 65  65 119 65  65 120 65  66 120 66  66 121 66  66 122 66  67 122 67  67 123 67  67 124 67  68 124 68  68 125 68  68 125 68  69 126 69  69 126 69  16 30 16  105 193 105  137 250 137  149 255 149  149 255 149  138 252 138  110 201 110  71 130 71  71 131 71  72 131 72  72 132 72  72 132 72  72 132 72  72 133 72  73 133 73  73 133 73  73 133 73  73 134 73  73 134 73  73 134 73  73 134 73  73 134 73  73 134 73  73 135 73  73 135 73  74 135 74  74 135 74  74 135 74  74 135 74  73 135 73  73 135 73  73 134 73  73 134 73  73 134 73  73 134 73  73 134 73  73 134 73  73 133 73  73 133 73  73 133 73  72 133 72  72 132 72  72 132 72  72 132 72  72 131 72  71 131 71  71 130 71  71 130 71  71 129 71  70 129 70  70 129 70  70 128 70  70 128 70  69 127 69  69 126 69  69 126 69  68 125 68  68 125 68  68 124 68  67 124 67  67 123 67  67 122 67  206 93 93  216 109 109  217 112 112  220 120 120  225 130 130  229 137 137  232 142 142  225 128 128  215 110 110  212 103 103  212 102 102  211 98 98  211 97 97  212 98 98  214 98 98  207 94 94  231 116 116  215 101 101  153 69 69  239 129 129  247 141 141  246 138 138  242 133 133  236 124 124  229 115 115  221 106 106  212 99 99  203 92 92  191 86 86  186 84 84  170 77 77  159 72 72  152 69 69  166 75 75  163 74 74  162 73 73  161 73 73  175 81 81  179 83 83  158 72 72  79 38 38  94 94 115  95 95 116  95 95 117  96 96 118  97 97 119  97 97 119  98 98 120  98 98 121  99 99 121  100 100 122  100 100 123  101 101 123  101 101 124  102 102 125  102 102 125  103 103 126  103 103 126  103 103 127  104 104 127  104 104 128  105 105 128  105 105 129  106 106 129  106 106 130  
110 200 110  112 205 112  113 207 113  112 206 112  109 200 109  111 203 111  112 204 112  112 205 112  113 206 113  113 206 113  103 188 103  124 101 101  123 100 100  123 100 100  122 99 99  121 99 99  121 98 98  120 98 98  119 97 97  118 97 97  118 96 96  117 95 95  116 95 95  115 94 94  114 93 93  113 93 93  113 92 92  112 91 91  111 90 90  110 90 90  109 89 89  108 88 88  16 30 16  54 99 54  83 151 83  113 207 113  123 225 123  121 221 121  115 210 115  88 162 88  97 79 79  96 78 78  95 77 77  93 76 76  92 75 75  90 74 74  99 181 99  127 232 127  127 232 127  123 225 123  123 224 123  121 221 121  119 218 119  116 213 116  63 115 63  63 115 63  63 116 63  64 117 64  64 117 64  64 118 64  65 119 65  65 119 65  66 120 66  66 121 66  66 121 66  67 122 67  67 123 67  67 123 67  68 124 68  68 124 68  68 125 68  69 126 69  69 126 69  16 30 16  72 133 72  106 193 106  136 248 136  147 255 147  145 255 145  115 211 115  71 130 71  71 131 71  71 131 71  72 131 72  72 132 72  72 132 72  72 132 72  72 133 72  73 133 73  73 133 73  73 133 73  73 134 73  73 134 73  73 134 73  73 134 73  73 134 73  73 134 73  73 134 73  73 134 73  73 134 73  73 134 73  73 134 73  73 134 73  73 134 73  73 134 73  73 134 73  73 134 73  73 134 73  73 134 73  73 133 73  73 133 73  73 133 73  72 133 72  72 132 72  72 132 72  72 132 72  72 131 72  71 131 71  71 131 71  71 130 71  71 130 71  71 129 71  70 129 70  70 128 70  70 128 70  69 127 69  69 127 69  69 126 69  69 126 69  68 125 68  68 124 68  68 124 68  67 123 67  67 123 67  67 122 67  66 121 66  211 99 99  216 111 111  223 125 125  230 138 138  235 147 147  235 146 146  225 127 127  214 108 108  214 106 106  215 106 106  215 106 106  214 102 102  213 98 98  212 96 96  235 123 123  241 127 127  218 100 100  185 83 83  240 126 126  245 135 135  243 132 132  239 126 126  234 118 118  228 111 111  223 107 107  216 101 101  207 95 95  197 89 89  187 85 85  184 83 83  172 78 78  154 70 70  145 66 66  157 71 71  145 66 66  142 65 65  172 78 78  168 76 76  139 63 63  9 13 13  94 94 115  95 95 116  95 95 117  96 96 118  97 97 118  97 97 119  98 98 120  98 98 121  99 99 121  99 99 122  100 100 123  100 100 123  101 101 124  101 101 124  102 102 125  102 102 126  103 103 126  103 103 127  104 104 127  104 104 128  105 105 128  105 105 129  105 105 129  106 106 130  
109 199 109  109 200 109  110 202 110  112 205 112  110 201 110  110 202 110  111 203 111  112 204 112  113 206 113  113 208 113  104 190 104  124 101 101  123 100 100  122 100 100  122 99 99  121 99 99  120 98 98  120 98 98  119 97 97  118 96 96  117 96 96  117 95 95  116 94 94  115 94 94  114 93 93  113 92 92  112 92 92  111 91 91  111 90 90  110 89 89  109 89 89  108 88 88  16 30 16  17 32 17  58 106 58  98 179 98  119 218 119  122 223 122  118 216 118  106 195 106  97 79 79  112 204 112  112 204 112  111 203 111  110 202 110  117 214 117  126 231 126  128 235 128  127 232 127  125 228 125  123 225 123  120 219 120  118 216 118  62 114 62  62 114 62  63 115 63  63 116 63  64 117 64  64 117 64  64 118 64  65 119 65  65 119 65  65 120 65  66 121 66  66 121 66  67 122 67  67 122 67  67 123 67  68 124 68  68 124 68  68 125 68  68 125 68  69 126 69  27 49 27  87 159 87  162 255 162  154 255 154  165 255 165  150 255 150  133 243 133  71 130 71  71 130 71  71 131 71  72 131 72  72 131 72  72 132 72  72 132 72  72 132 72  72 133 72  73 133 73  73 133 73  73 133 73  73 133 73  73 134 73  73 134 73  73 134 73  73 134 73  73 134 73  73 134 73  73 134 73  73 134 73  73 134 73  73 134 73  73 134 73  73 134 73  73 134 73  73 134 73  73 133 73  73 133 73  73 133 73  73 133 73  72 133 72  72 132 72  72 132 72  72 132 72  72 131 72  72 131 72  71 131 71  71 130 71  71 130 71  71 129 71  70 129 70  70 129 70  70 128 70  70 128 70  69 127 69  69 127 69  69 126 69  68 125 68  68 125 68  68 124 68  68 124 68  67 123 67  67 122 67  67 122 67  66 121 66  66 121 66  217 112 112  241 157 157  240 155 155  239 153 153  238 150 150  231 138 138  215 108 108  216 108 108  217 109 109  217 108 108  218 108 108  218 108 108  228 113 113  238 123 123  233 115 115  229 120 120  225 114 114  231 113 113  237 120 120  237 121 121  235 118 118  232 114 114  225 106 106  227 111 111  221 105 105  212 99 99  200 91 91  179 81 81  183 83 83  175 79 79  159 72 72  82 39 39  153 69 69  130 59 59  119 54 54  160 72 72  153 69 69  102 47 47  9 13 13  94 94 115  94 94 116  95 95 117  96 96 117  96 96 118  97 97 119  98 98 120  98 98 120  99 99 121  99 99 122  100 100 122  100 100 123  101 101 124  101 101 124  102 102 125  102 102 125  103 103 126  103 103 126  104 104 127  104 104 128  104 104 128  105 105 129  105 105 129  106 106 130  
108 197 108  108 198 108  109 199 109  109 199 109  110 201 110  110 200 110  110 202 110  112 204 112  113 207 113  114 208 114  105 192 105  92 169 92  123 100 100  122 100 100  121 99 99  121 99 99  120 98 98  119 97 97  119 97 97  118 96 96  117 96 96  116 95 95  116 94 94  115 94 94  114 93 93  113 92 92  112 91 91  111 91 91  110 90 90  109 89 89  108 88 88  107 88 88  106 87 87  16 30 16  16 30 16  65 119 65  86 157 86  106 194 106  113 206 113  109 200 109  111 204 111  116 212 116  120 220 120  124 226 124  126 231 126  129 236 129  130 237 130  129 235 129  127 233 127  125 229 125  122 223 122  120 219 120  118 216 118  62 114 62  62 114 62  63 115 63  63 116 63  64 116 64  64 117 64  64 118 64  65 118 65  65 119 65  65 120 65  66 120 66  66 121 66  66 122 66  67 122 67  67 123 67  67 123 67  68 124 68  68 125 68  68 125 68  69 126 69  35 64 35  146 255 146  163 255 163  160 255 160  153 255 153  148 255 148  133 243 133  111 203 111  71 130 71  71 130 71  71 131 71  72 131 72  72 131 72  72 132 72  72 132 72  72 132 72  72 133 72  73 133 73  73 133 73  73 133 73  73 133 73  73 133 73  73 134 73  73 134 73  73 134 73  73 134 73  73 134 73  73 134 73  73 134 73  73 134 73  73 134 73  73 134 73  73 133 73  73 133 73  73 133 73  73 133 73  73 133 73  72 133 72  72 132 72  72 132 72  72 132 72  72 131 72  72 131 72  71 131 71  71 130 71  71 130 71  71 130 71  71 129 71  70 129 70  70 128 70  70 128 70  70 127 70  69 127 69  69 126 69  69 126 69  68 125 68  68 125 68  68 124 68  67 123 67  67 123 67  67 122 67  66 122 66  66 121 66  66 120 66  210 95 95  238 154 154  239 154 154  239 154 154  238 151 151  233 141 141  227 128 128  218 110 110  219 111 111  219 111 111  220 110 110  220 103 103  235 122 122  234 117 117  234 123 123  225 121 121  243 149 149  233 115 115  234 116 116  235 117 117  234 115 115  231 112 112  228 109 109  231 115 115  226 110 110  216 101 101  203 92 92  185 84 84  154 70 70  167 76 76  155 70 70  112 51 51  148 67 67  123 56 56  90 42 42  146 66 66  118 54 54  9 13 13  93 93 114  94 94 115  94 94 116  95 95 116  96 96 117  96 96 118  97 97 119  97 97 119  98 98 120  99 99 121  99 99 121  100 100 122  100 100 123  101 101 123  101 101 124  102 102 125  102 102 125  103 103 126  103 103 126  103 103 127  104 104 127  104 104 128  105 105 128  105 105 129  106 106 129  
107 196 107  107 196 107  108 197 108  108 197 108  108 198 108  109 200 109  111 203 111  112 205 112  113 207 113  114 209 114  115 210 115  94 173 94  123 100 100  122 99 99  121 99 99  121 98 98  120 98 98  119 97 97  118 97 97  118 96 96  117 95 95  116 95 95  115 94 94  114 93 93  114 93 93  113 92 92  112 91 91  111 91 91  110 90 90  109 89 89  108 88 88  107 87 87  106 87 87  105 86 86  16 30 16  76 139 76  98 180 98  106 193 106  109 200 109  113 206 113  116 212 116  119 218 119  132 242 132  133 242 133  129 237 129  130 238 130  130 238 130  129 236 129  128 233 128  126 231 126  124 228 124  121 220 121  61 113 61  62 113 62  62 114 62  63 115 63  63 115 63  63 116 63  64 117 64  64 118 64  65 118 65  65 119 65  65 120 65  66 120 66  66 121 66  66 121 66  67 122 67  67 123 67  67 123 67  68 124 68  68 124 68  68 125 68  69 125 69  42 77 42  96 176 96  139 254 139  146 255 146  137 251 137  133 243 133  131 240 131  109 200 109  71 130 71  71 130 71  71 131 71  71 131 71  72 131 72  72 131 72  72 132 72  72 132 72  72 132 72  72 133 72  72 133 72  73 133 73  73 133 73  73 133 73  73 133 73  73 133 73  73 133 73  73 134 73  73 134 73  73 134 73  73 134 73  73 133 73  73 133 73  73 133 73  73 133 73  73 133 73  73 133 73  72 133 72  72 133 72  72 132 72  72 132 72  72 132 72  72 131 72  72 131 72  71 131 71  71 131 71  71 130 71  71 130 71  71 129 71  70 129 70  70 128 70  70 128 70  70 128 70  69 127 69  69 127 69  69 126 69  69 125 69  68 125 68  68 124 68  68 124 68  67 123 67  67 123 67  67 122 67  66 121 66  66 121 66  192 87 87  215 106 106  240 154 154  237 152 152  238 153 153  238 151 151  234 142 142  228 130 130  223 118 118  220 111 111  218 106 106  217 103 103  232 118 118  233 117 117  231 114 114  240 139 139  216 114 114  255 165 165  233 112 112  233 115 115  235 117 117  233 115 115  221 102 102  231 112 112  234 118 118  230 115 115  218 101 101  204 92 92  188 85 85  161 73 73  159 72 72  147 67 67  107 49 49  143 65 65  116 53 53  79 37 37  130 59 59  51 26 26  9 13 13  93 93 114  93 93 114  94 94 115  95 95 116  95 95 117  96 96 118  97 97 118  97 97 119  98 98 120  98 98 121  99 99 121  99 99 122  100 100 123  100 100 123  101 101 124  101 101 124  102 102 125  102 102 126  103 103 126  103 103 127  104 104 127  104 104 128  105 105 128  105 105 129  105 105 129  
105 191 105  106 194 106  106 195 106  107 195 107  107 196 107  109 200 109  111 203 111  112 206 112  113 208 113  114 209 114  115 210 115  96 176 96  122 100 100  122 99 99  121 99 99  120 98 98  120 98 98  119 97 97  118 96 96  117 96 96  117 95 95  116 95 95  115 94 94  114 93 93  113 93 93  113 92 92  112 91 91  111 90 90  110 90 90  116 213 116  131 239 131  107 87 87  106 86 86  81 148 81  105 191 105  101 186 101  99 181 99  104 190 104  108 197 108  112 205 112  124 227 124  130 237 130  127 233 127  131 239 131  132 241 132  131 239 131  129 235 129  128 234 128  128 234 128  127 232 127  126 230 126  113 206 113  116 213 116  115 211 115  62 114 62  63 115 63  63 115 63  63 116 63  64 117 64  64 117 64  64 118 64  65 119 65  65 119 65  65 120 65  66 121 66  66 121 66  66 122 66  67 122 67  67 123 67  67 124 67  68 124 68  68 125 68  88 161 88  58 105 58  42 77 42  104 190 104  124 228 124  126 231 126  121 222 121  114 208 114  108 197 108  71 129 71  71 130 71  71 130 71  71 131 71  71 131 71  72 131 72  72 131 72  72 132 72  72 132 72  72 132 72  72 132 72  72 133 72  72 133 72  73 133 73  73 133 73  73 133 73  73 133 73  73 133 73  73 133 73  73 133 73  73 133 73  73 133 73  73 133 73  73 133 73  73 133 73  72 133 72  72 133 72  72 132 72  72 132 72  72 132 72  72 132 72  72 131 72  72 131 72  71 131 71  71 131 71  71 130 71  71 130 71  71 129 71  70 129 70  70 129 70  70 128 70  70 128 70  69 127 69  69 127 69  69 126 69  69 126 69  68 125 68  68 125 68  68 124 68  67 124 67  67 123 67  67 122 67  66 122 66  66 121 66  66 121 66  206 93 93  211 98 98  230 136 136  237 152 152  236 150 150  237 150 150  235 143 143  226 124 124  220 110 110  217 103 103  216 99 99  227 111 111  229 112 112  231 112 112  236 127 127  227 135 135  227 131 131  234 122 122  233 113 113  234 117 117  236 121 121  234 119 119  225 105 105  233 114 114  237 120 120  230 112 112  218 99 99  205 92 92  189 85 85  166 75 75  110 51 51  136 62 62  101 47 47  136 62 62  108 50 50  120 55 55  80 38 38  9 13 13  9 13 13  93 93 113  93 93 114  94 94 115  95 95 116  95 95 117  96 96 117  96 96 118  97 97 119  98 98 120  98 98 120  99 99 121  99 99 122  100 100 122  100 100 123  101 101 124  101 101 124  102 102 125  102 102 125  103 103 126  103 103 126  104 104 127  104 104 127  104 104 128  105 105 128  105 105 129  
101 185 101  104 191 104  105 192 105  105 192 105  107 195 107  109 199 109  111 203 111  112 206 112  114 208 114  114 209 114  115 210 115  115 211 115  122 100 100  121 99 99  121 99 99  120 98 98  119 97 97  119 97 97  118 96 96  117 96 96  116 95 95  116 94 94  115 94 94  114 93 93  113 92 92  112 92 92  111 91 91  111 90 90  110 89 89  98 179 98  119 217 119  129 236 129  139 254 139  135 248 135  111 203 111  101 186 101  109 200 109  114 209 114  119 217 119  123 224 123  130 237 130  130 238 130  125 228 125  125 228 125  129 237 129  130 237 130  129 236 129  129 235 129  128 234 128  127 233 127  125 229 125  111 204 111  116 213 116  117 213 117  116 213 116  62 114 62  63 115 63  63 116 63  64 116 64  64 117 64  64 118 64  65 118 65  65 119 65  65 120 65  66 120 66  66 121 66  66 122 66  67 122 67  67 123 67  67 123 67  110 201 110  112 206 112  75 138 75  61 113 61  41 76 41  16 30 16  91 167 91  108 197 108  111 203 111  107 196 107  101 185 101  71 129 71  71 130 71  71 130 71  71 130 71  71 131 71  71 131 71  72 131 72  72 131 72  72 132 72  72 132 72  72 132 72  72 132 72  72 132 72  72 133 72  72 133 72  73 133 73  73 133 73  73 133 73  73 133 73  73 133 73  73 133 73  73 133 73  73 133 73  72 133 72  72 133 72  72 132 72  72 132 72  72 132 72  72 132 72  72 132 72  72 131 72  72 131 72  71 131 71  71 131 71  71 130 71  71 130 71  71 130 71  71 129 71  70 129 70  70 128 70  70 128 70  70 127 70  69 127 69  69 127 69  69 126 69  69 126 69  68 125 68  68 124 68  68 124 68  67 123 67  67 123 67  67 122 67  66 122 66  66 121 66  66 120 66  65 120 65  212 98 98  217 112 112  239 153 153  232 146 146  233 141 141  224 121 121  218 105 105  216 99 99  215 97 97  217 100 100  229 111 111  230 111 111  230 110 110  255 169 169  212 115 115  255 173 173  229 106 106  233 112 112  237 122 122  239 128 128  222 106 106  229 111 111  235 117 117  238 121 121  228 109 109  218 100 100  204 92 92  188 85 85  168 76 76  110 51 51  124 57 57  94 44 44  129 59 59  95 44 44  98 46 46  9 13 13  100 46 46  92 92 112  92 92 113  93 93 114  94 94 115  94 94 116  95 95 116  96 96 117  96 96 118  97 97 119  97 97 119  98 98 120  99 99 121  99 99 121  100 100 122  100 100 123  101 101 123  101 101 124  102 102 125  102 102 125  103 103 126  103 103 126  103 103 127  104 104 127  104 104 128  105 105 128  105 105 129  
96 176 96  101 184 101  103 188 103  103 189 103  106 194 106  108 198 108  111 202 111  112 205 112  114 208 114  115 210 115  115 210 115  115 211 115  99 182 99  121 99 99  121 98 98  120 98 98  119 97 97  118 97 97  118 96 96  117 95 95  116 95 95  115 94 94  115 94 94  114 93 93  113 92 92  112 91 91  111 91 91  110 90 90  50 92 50  69 126 69  94 173 94  114 208 114  123 226 123  138 251 138  138 253 138  138 253 138  138 252 138  136 249 136  124 226 124  127 232 127  132 242 132  130 238 130  126 231 126  128 234 128  129 236 129  129 237 129  129 237 129  129 236 129  128 235 128  128 233 128  126 231 126  123 226 123  110 201 110  117 215 117  117 214 117  116 211 116  63 115 63  63 116 63  63 116 63  64 117 64  64 118 64  65 118 65  65 119 65  65 119 65  66 120 66  66 121 66  66 121 66  67 122 67  67 123 67  97 178 97  100 183 100  102 187 102  71 130 71  65 119 65  41 74 41  36 66 36  40 73 40  76 140 76  92 169 92  101 184 101  97 178 97  70 129 70  71 129 71  71 130 71  71 130 71  71 130 71  71 131 71  71 131 71  72 131 72  72 131 72  72 132 72  72 132 72  72 132 72  72 132 72  72 132 72  72 132 72  72 133 72  72 133 72  72 133 72  72 133 72  72 133 72  72 133 72  72 133 72  72 133 72  72 132 72  72 132 72  72 132 72  72 132 72  72 132 72  72 132 72  72 131 72  72 131 72  71 131 71  71 131 71  71 130 71  71 130 71  71 130 71  71 129 71  70 129 70  70 129 70  70 128 70  70 128 70  69 127 69  69 127 69  69 126 69  69 126 69  68 125 68  68 125 68  68 124 68  67 124 67  67 123 67  67 123 67  67 122 67  66 121 66  66 121 66  66 120 66  65 119 65  223 121 121  215 104 104  214 106 106  219 115 115  212 98 98  206 93 93  201 91 91  208 94 94  216 98 98  228 110 110  227 108 108  230 108 108  241 139 139  217 125 125  213 117 117  235 128 128  230 105 105  233 110 110  240 128 128  246 144 144  226 112 112  233 118 118  236 118 118  236 118 118  234 125 125  217 104 104  203 93 93  187 84 84  172 78 78  115 53 53  116 53 53  89 42 42  111 51 51  85 40 40  175 79 79  178 84 84  9 13 13  91 91 112  92 92 113  93 93 114  94 94 115  94 94 115  95 95 116  95 95 117  96 96 118  97 97 118  97 97 119  98 98 120  98 98 121  99 99 121  99 99 122  100 100 123  100 100 123  101 101 124  101 101 124  102 102 125  102 102 125  103 103 126  103 103 127  104 104 127  104 104 128  105 105 128  105 105 129  
86 157 86  94 172 94  100 183 100  102 187 102  105 192 105  108 197 108  110 201 110  112 205 112  113 207 113  114 209 114  115 211 115  115 211 115  115 211 115  115 210 115  120 98 98  120 98 98  119 97 97  118 96 96  118 96 96  117 95 95  116 95 95  115 94 94  114 93 93  114 93 93  113 92 92  112 91 91  111 91 91  110 90 90  27 50 27  61 112 61  69 126 69  89 162 89  107 195 107  119 218 119  125 229 125  129 237 129  134 245 134  136 249 136  136 249 136  134 244 134  131 240 131  131 239 131  128 235 128  129 237 129  130 237 130  130 238 130  129 236 129  129 235 129  128 235 128  128 234 128  127 232 127  125 230 125  121 221 121  109 199 109  118 215 118  116 213 116  115 211 115  63 115 63  63 116 63  64 117 64  64 117 64  64 118 64  65 119 65  65 119 65  65 120 65  66 120 66  66 121 66  66 122 66  67 122 67  86 157 86  91 166 91  93 170 93  68 125 68  73 133 73  44 81 44  40 74 40  52 95 52  59 108 59  76 139 76  91 167 91  93 170 93  85 155 85  70 129 70  71 129 71  71 130 71  71 130 71  71 130 71  71 131 71  71 131 71  72 131 72  72 131 72  72 132 72  72 132 72  72 132 72  72 132 72  72 132 72  72 132 72  72 132 72  72 132 72  72 132 72  72 132 72  72 132 72  72 132 72  72 132 72  72 132 72  72 132 72  72 132 72  72 132 72  72 132 72  72 131 72  72 131 72  71 131 71  71 131 71  71 130 71  71 130 71  71 130 71  71 129 71  70 129 70  70 129 70  70 128 70  70 128 70  70 127 70  69 127 69  69 126 69  69 126 69  69 126 69  68 125 68  68 124 68  68 124 68  67 123 67  67 123 67  67 122 67  66 122 66  66 121 66  66 120 66  65 120 65  65 119 65  65 119 65  223 133 133  211 116 116  161 73 73  215 101 101  187 84 84  208 93 93  217 98 98  225 108 108  228 115 115  228 106 106  229 107 107  253 172 172  194 91 91  214 119 119  225 105 105  230 106 106  232 108 108  242 133 133  240 144 144  224 123 123  245 149 149  244 139 139  255 175 175  221 127 127  202 95 95  189 86 86  179 81 81  169 76 76  116 53 53  108 50 50  84 39 39  37 21 21  136 62 62  165 75 75  119 54 54  91 91 111  91 91 112  92 92 113  93 93 114  93 93 114  94 94 115  95 95 116  95 95 117  96 96 118  96 96 118  97 97 119  98 98 120  98 98 120  99 99 121  99 99 122  100 100 122  100 100 123  101 101 124  101 101 124  102 102 125  102 102 125  103 103 126  103 103 126  104 104 127  104 104 127  104 104 128  105 105 128  
69 126 69  82 151 82  91 167 91  102 187 102  105 193 105  108 197 108  109 200 109  111 204 111  113 207 113  114 209 114  115 210 115  115 210 115  114 209 114  114 209 114  115 211 115  115 209 115  106 194 106  118 96 96  117 96 96  117 95 95  116 94 94  115 94 94  114 93 93  113 92 92  113 92 92  112 91 91  111 90 90  110 90 90  16 30 16  53 97 53  61 113 61  69 126 69  83 152 83  100 184 100  112 206 112  119 218 119  125 228 125  129 236 129  132 242 132  133 244 133  133 242 133  131 239 131  131 239 131  130 238 130  130 238 130  130 238 130  129 235 129  127 233 127  128 233 128  127 233 127  127 232 127  126 230 126  124 227 124  118 215 118  109 200 109  119 218 119  119 217 119  115 210 115  63 116 63  64 116 64  64 117 64  64 118 64  65 118 65  65 119 65  65 120 65  66 120 66  66 121 66  66 121 66  67 122 67  73 134 73  92 168 92  80 146 80  75 137 75  80 146 80  66 122 66  16 30 16  40 74 40  57 104 57  74 135 74  82 150 82  84 154 84  107 196 107  70 129 70  70 129 70  71 129 71  71 130 71  71 130 71  71 130 71  71 131 71  71 131 71  72 131 72  72 131 72  72 131 72  72 132 72  72 132 72  72 132 72  72 132 72  72 132 72  72 132 72  72 132 72  72 132 72  72 132 72  72 132 72  72 132 72  72 132 72  72 132 72  72 132 72  72 131 72  72 131 72  72 131 72  71 131 71  71 131 71  71 130 71  71 130 71  71 130 71  71 129 71  70 129 70  70 129 70  70 128 70  70 128 70  70 128 70  69 127 69  69 127 69  69 126 69  69 126 69  68 125 68  68 125 68  68 124 68  68 124 68  67 123 67  67 123 67  67 122 67  66 121 66  66 121 66  66 120 66  65 120 65  65 119 65  65 118 65  64 118 64  64 117 64  64 116 64  217 100 100  217 110 110  217 98 98  214 98 98  225 107 107  226 105 105  228 104 104  244 144 144  206 106 106  194 91 91  219 128 128  224 101 101  229 105 105  231 106 106  246 147 147  236 150 150  196 92 92  215 119 119  223 122 122  199 92 92  191 89 89  194 89 89  182 82 82  172 78 78  160 72 72  126 58 58  99 46 46  77 36 36  9 13 13  125 57 57  98 45 45  9 13 13  90 90 111  91 91 112  92 92 113  92 92 113  93 93 114  94 94 115  94 94 116  95 95 117  96 96 117  96 96 118  97 97 119  97 97 119  98 98 120  99 99 121  99 99 121  100 100 122  100 100 123  101 101 123  101 101 124  102 102 125  102 102 125  102 102 126  103 103 126  103 103 127  104 104 127  104 104 128  105 105 128  
46 85 46  64 117 64  76 140 76  86 158 86  105 192 105  109 199 109  110 202 110  112 205 112  113 207 113  114 209 114  113 207 113  113 206 113  112 204 112  111 204 111  113 206 113  115 211 115  116 212 116  107 195 107  117 96 96  116 95 95  116 94 94  115 94 94  114 93 93  113 92 92  112 92 92  111 91 91  111 90 90  110 89 89  109 89 89  44 80 44  53 98 53  62 113 62  68 125 68  77 141 77  98 179 98  110 201 110  117 213 117  121 222 121  123 225 123  125 228 125  126 231 126  127 232 127  128 234 128  131 240 131  131 239 131  130 238 130  128 235 128  126 231 126  126 230 126  126 231 126  126 230 126  125 228 125  125 228 125  122 224 122  116 213 116  110 201 110  119 218 119  120 220 120  103 188 103  63 116 63  64 117 64  64 117 64  64 118 64  65 119 65  65 119 65  65 120 65  66 121 66  66 121 66  66 122 66  80 146 80  96 176 96  77 140 77  82 149 82  86 157 86  82 151 82  63 115 63  42 78 42  64 118 64  75 137 75  85 155 85  89 162 89  107 195 107  94 172 94  70 129 70  70 129 70  71 129 71  71 130 71  71 130 71  71 130 71  71 131 71  71 131 71  71 131 71  72 131 72  72 131 72  72 131 72  72 132 72  72 132 72  72 132 72  72 132 72  72 132 72  72 132 72  72 132 72  72 132 72  72 132 72  72 132 72  72 131 72  72 131 72  72 131 72  71 131 71  71 131 71  71 131 71  71 130 71  71 130 71  71 130 71  71 129 71  70 129 70  70 129 70  70 128 70  70 128 70  70 128 70  69 127 69  69 127 69  69 126 69  69 126 69  68 125 68  68 125 68  68 124 68  68 124 68  67 123 67  67 123 67  67 122 67  66 122 66  66 121 66  66 121 66  65 120 65  65 119 65  65 119 65  64 118 64  64 117 64  64 117 64  205 94 94  212 97 97  216 98 98  222 112 112  227 109 109  228 113 113  225 102 102  228 105 105  240 149 149  183 83 83  193 91 91  247 164 164  226 102 102  229 104 104  230 105 105  228 123 123  206 102 102  180 81 81  207 102 102  194 92 92  234 142 142  223 110 110  213 97 97  206 93 93  195 88 88  155 70 70  135 62 62  91 42 42  66 32 32  67 32 32  77 37 37  9 13 13  89 89 110  90 90 111  91 91 111  92 92 112  92 92 113  93 93 114  94 94 115  94 94 116  95 95 116  96 96 117  96 96 118  97 97 119  97 97 119  98 98 120  98 98 121  99 99 121  99 99 122  100 100 123  100 100 123  101 101 124  101 101 124  102 102 125  102 102 125  103 103 126  103 103 127  104 104 127  104 104 128  104 104 128  
128 104 104  127 104 104  45 82 45  72 131 72  88 162 88  106 194 106  110 202 110  112 205 112  114 208 114  115 210 115  114 209 114  113 208 113  113 206 113  112 205 112  111 203 111  111 204 111  114 209 114  116 212 116  97 177 97  116 95 95  115 94 94  115 93 93  114 93 93  113 92 92  112 91 91  111 91 91  110 90 90  109 89 89  109 88 88  16 30 16  46 84 46  65 120 65  71 131 71  73 135 73  74 135 74  95 173 95  106 193 106  112 205 112  111 203 111  108 197 108  114 209 114  118 216 118  117 214 117  122 223 122  129 236 129  128 234 128  127 232 127  125 229 125  123 224 123  122 223 122  121 221 121  120 220 120  122 223 122  124 227 124  122 222 122  115 211 115  114 209 114  119 218 119  120 220 120  101 185 101  64 117 64  64 117 64  64 118 64  65 118 65  65 119 65  65 120 65  66 120 66  66 121 66  66 121 66  86 157 86  98 180 98  78 142 78  88 162 88  91 167 91  95 173 95  87 160 87  70 128 70  64 118 64  81 149 81  89 163 89  90 164 90  106 194 106  101 184 101  70 128 70  70 129 70  71 129 71  71 129 71  71 130 71  71 130 71  71 130 71  71 130 71  71 131 71  71 131 71  71 131 71  72 131 72  72 131 72  72 131 72  72 131 72  72 131 72  72 131 72  72 131 72  72 131 72  72 131 72  72 131 72  72 131 72  72 131 72  71 131 71  71 131 71  71 131 71  71 130 71  71 130 71  71 130 71  71 130 71  71 129 71  71 129 71  70 129 70  70 128 70  70 128 70  70 128 70  70 127 70  69 127 69  69 127 69  69 126 69  69 126 69  68 125 68  68 125 68  68 124 68  68 124 68  67 123 67  67 123 67  67 122 67  66 121 66  66 121 66  66 120 66  65 120 65  65 119 65  65 118 65  64 118 64  64 117 64  64 117 64  63 116 63  63 115 63  219 116 116  222 105 105  234 132 132  225 102 102  222 100 100  238 132 132  197 91 91  174 79 79  193 91 91  222 114 114  226 102 102  228 103 103  225 102 102  210 96 96  208 96 96  201 95 95  255 177 177  239 122 122  235 117 117  227 108 108  218 100 100  207 94 94  196 88 88  179 81 81  146 66 66  88 41 41  9 13 13  87 87 107  88 88 108  88 88 109  89 89 109  90 90 110  91 91 111  91 91 112  92 92 113  93 93 114  93 93 115  94 94 115  95 95 116  95 95 117  96 96 118  97 97 118  97 97 119  98 98 120  98 98 120  99 99 121  99 99 122  100 100 122  100 100 123  101 101 124  101 101 124  102 102 125  102 102 125  103 103 126  103 103 126  103 103 127  104 104 127  104 104 128  
128 104 104  127 104 104  23 42 23  66 121 66  80 147 80  98 180 98  111 204 111  113 206 113  114 209 114  115 211 115  115 210 115  114 209 114  114 208 114  113 207 113  112 205 112  110 201 110  110 202 110  113 208 113  115 211 115  116 95 95  115 94 94  114 93 93  114 93 93  113 92 92  112 91 91  111 91 91  110 90 90  109 89 89  108 88 88  107 88 88  106 87 87  37 67 37  70 128 70  79 145 79  73 134 73  72 132 72  89 163 89  99 181 99  99 181 99  101 184 101  104 191 104  105 193 105  108 198 108  110 201 110  121 222 121  121 220 121  119 218 119  117 215 117  115 210 115  115 210 115  117 215 117  116 213 116  116 213 116  120 220 120  125 229 125  121 222 121  115 210 115  117 215 117  119 218 119  120 220 120  100 182 100  64 117 64  64 118 64  65 118 65  65 119 65  65 119 65  66 120 66  66 121 66  82 151 82  92 168 92  91 167 91  77 141 77  90 164 90  89 163 89  104 191 104  108 198 108  88 162 88  96 176 96  99 182 99  97 178 97  106 194 106  106 194 106  103 189 103  70 128 70  70 129 70  70 129 70  70 129 70  71 129 71  71 130 71  71 130 71  71 130 71  71 130 71  71 130 71  71 131 71  71 131 71  71 131 71  72 131 72  72 131 72  72 131 72  72 131 72  72 131 72  72 131 72  72 131 72  72 131 72  71 131 71  71 131 71  71 131 71  71 130 71  71 130 71  71 130 71  71 130 71  71 130 71  71 129 71  70 129 70  70 129 70  70 129 70  70 128 70  70 128 70  70 127 70  69 127 69  69 127 69  69 126 69  69 126 69  68 125 68  68 125 68  68 124 68  68 124 68  67 123 67  67 123 67  67 122 67  66 122 66  66 121 66  66 121 66  66 120 66  65 119 65  65 119 65  65 118 65  64 118 64  64 117 64  64 116 64  63 116 63  63 115 63  211 96 96  225 105 105  235 134 134  222 100 100  225 101 101  255 171 171  176 80 80  174 79 79  188 88 88  216 101 101  226 102 102  227 103 103  218 103 103  199 91 91  231 137 137  235 118 118  236 118 118  237 121 121  235 120 120  228 110 110  219 101 101  210 95 95  199 90 90  179 81 81  154 70 70  56 28 28  9 13 13  87 87 106  88 88 107  88 88 108  89 89 109  90 90 110  91 91 111  91 91 112  92 92 113  93 93 114  93 93 114  94 94 115  95 95 116  95 95 117  96 96 117  96 96 118  97 97 119  98 98 120  98 98 120  99 99 121  99 99 122  100 100 122  100 100 123  101 101 123  101 101 124  102 102 125  102 102 125  102 102 126  103 103 126  103 103 127  104 104 127  104 104 128  
127 104 104  127 104 104  16 30 16  58 107 58  73 134 73  93 171 93  108 197 108  114 209 114  115 210 115  116 211 116  116 212 116  115 211 115  115 210 115  114 208 114  113 207 113  112 204 112  109 200 109  109 200 109  113 206 113  116 211 116  115 94 94  114 93 93  113 92 92  113 92 92  112 91 91  111 90 90  110 90 90  109 89 89  108 88 88  107 87 87  106 87 87  105 86 86  31 58 31  50 91 50  78 143 78  73 134 73  75 138 75  88 162 88  98 179 98  104 191 104  111 204 111  106 194 106  106 195 106  112 206 112  113 206 113  113 207 113  110 202 110  105 192 105  98 180 98  90 165 90  95 173 95  103 189 103  109 199 109  116 212 116  119 217 119  125 229 125  121 222 121  114 209 114  117 214 117  119 218 119  120 219 120  116 212 116  64 117 64  64 118 64  65 119 65  65 119 65  65 120 65  66 120 66  85 156 85  97 177 97  90 166 90  77 140 77  86 157 86  84 154 84  112 206 112  116 213 116  109 200 109  107 196 107  110 202 110  105 192 105  106 194 106  108 198 108  104 190 104  87 159 87  70 128 70  70 129 70  70 129 70  70 129 70  71 129 71  71 130 71  71 130 71  71 130 71  71 130 71  71 130 71  71 130 71  71 131 71  71 131 71  71 131 71  71 131 71  71 131 71  71 131 71  71 131 71  71 131 71  71 131 71  71 131 71  71 130 71  71 130 71  71 130 71  71 130 71  71 130 71  71 130 71  71 129 71  70 129 70  70 129 70  70 129 70  70 128 70  70 128 70  70 128 70  69 127 69  69 127 69  69 126 69  69 126 69  69 126 69  68 125 68  68 125 68  68 124 68  67 124 67  67 123 67  67 123 67  67 122 67  66 121 66  66 121 66  66 120 66  65 120 65  65 119 65  65 119 65  64 118 64  64 117 64  64 117 64  63 116 63  63 115 63  63 115 63  221 100 100  224 101 101  217 101 101  218 103 103  218 103 103  229 143 143  153 69 69  170 77 77  183 84 84  211 98 98  226 102 102  228 103 103  217 101 101  231 121 121  234 110 110  234 111 111  236 119 119  241 131 131  241 134 134  231 120 120  219 103 103  210 95 95  201 91 91  179 81 81  161 73 73  61 30 30  86 86 105  87 87 106  87 87 107  88 88 108  89 89 109  90 90 110  90 90 111  91 91 112  92 92 113  92 92 113  93 93 114  94 94 115  94 94 116  95 95 117  96 96 117  96 96 118  97 97 119  97 97 119  98 98 120  98 98 121  99 99 121  99 99 122  100 100 123  100 100 123  101 101 124  101 101 124  102 102 125  102 102 125  103 103 126  103 103 126  104 104 127  104 104 127  
127 104 104  127 103 103  126 103 103  48 88 48  65 120 65  80 146 80  96 176 96  112 204 112  115 211 115  116 212 116  116 212 116  116 212 116  115 211 115  115 210 115  114 209 114  113 206 113  111 203 111  109 199 109  108 198 108  112 206 112  116 212 116  114 93 93  113 92 92  112 92 92  111 91 91  111 90 90  110 89 89  109 89 89  108 88 88  107 87 87  106 86 86  105 86 86  104 85 85  16 30 16  28 51 28  68 124 68  72 131 72  85 156 85  97 178 97  106 195 106  114 209 114  112 206 112  103 189 103  105 192 105  107 195 107  108 198 108  110 201 110  106 194 106  101 184 101  98 179 98  101 185 101  103 189 103  107 196 107  109 199 109  111 202 111  113 208 113  123 226 123  122 222 122  117 214 117  117 214 117  119 218 119  119 217 119  117 213 117  64 118 64  65 118 65  65 119 65  65 120 65  66 120 66  86 158 86  98 179 98  89 164 89  76 139 76  81 147 81  110 202 110  118 216 118  121 222 121  120 219 120  113 207 113  110 201 110  105 192 105  105 193 105  108 198 108  103 189 103  95 174 95  70 128 70  70 128 70  70 129 70  70 129 70  70 129 70  71 129 71  71 129 71  71 130 71  71 130 71  71 130 71  71 130 71  71 130 71  71 130 71  71 130 71  71 130 71  71 130 71  71 130 71  71 130 71  71 130 71  71 130 71  71 130 71  71 130 71  71 130 71  71 130 71  71 130 71  71 129 71  71 129 71  70 129 70  70 129 70  70 129 70  70 128 70  70 128 70  70 128 70  69 127 69  69 127 69  69 126 69  69 126 69  69 126 69  68 125 68  68 125 68  68 124 68  68 124 68  67 123 67  67 123 67  67 122 67  66 122 66  66 121 66  66 121 66  66 120 66  65 120 65  65 119 65  65 118 65  64 118 64  64 117 64  64 116 64  63 116 63  63 115 63  210 96 96  219 109 109  226 118 118  223 114 114  217 113 113  211 97 97  187 85 85  155 70 70  164 74 74  192 87 87  213 98 98  225 104 104  227 103 103  227 104 104  234 111 111  234 110 110  234 114 114  241 133 133  249 149 149  249 152 152  239 139 139  221 111 111  208 95 95  196 89 89  185 83 83  158 72 72  113 52 52  86 86 105  86 86 106  87 87 107  88 88 108  89 89 109  89 89 110  90 90 111  91 91 111  92 92 112  92 92 113  93 93 114  94 94 115  94 94 116  95 95 116  95 95 117  96 96 118  97 97 118  97 97 119  98 98 120  98 98 121  99 99 121  99 99 122  100 100 122  100 100 123  101 101 124  101 101 124  102 102 125  102 102 125  103 103 126  103 103 126  103 103 127  104 104 127  
127 104 104  127 103 103  126 103 103  21 39 21  52 95 52  67 124 67  80 146 80  94 172 94  115 211 115  116 212 116  116 212 116  116 212 116  116 212 116  116 211 116  115 210 115  114 208 114  112 205 112  110 202 110  108 197 108  107 195 107  115 210 115  107 195 107  113 92 92  112 91 91  111 91 91  110 90 90  109 89 89  109 89 89  108 88 88  107 87 87  106 86 86  105 85 85  104 85 85  103 84 84  16 30 16  16 30 16  55 101 55  76 139 76  90 165 90  99 181 99  108 198 108  110 202 110  101 184 101  103 188 103  104 191 104  104 190 104  107 196 107  108 198 108  107 196 107  105 193 105  108 197 108  109 199 109  109 199 109  104 190 104  102 186 102  101 185 101  116 213 116  125 229 125  124 227 124  120 220 120  116 212 116  119 218 119  117 214 117  114 208 114  64 118 64  65 119 65  65 119 65  65 120 65  88 160 88  100 183 100  92 169 92  74 136 74  75 137 75  106 193 106  113 207 113  117 214 117  115 210 115  111 202 111  107 196 107  105 192 105  106 194 106  107 196 107  104 190 104  96 176 96  70 128 70  70 128 70  70 128 70  70 128 70  70 129 70  70 129 70  71 129 71  71 129 71  71 130 71  71 130 71  71 130 71  71 130 71  71 130 71  71 130 71  71 130 71  71 130 71  71 130 71  71 130 71  71 130 71  71 130 71  71 130 71  71 130 71  71 130 71  71 130 71  71 129 71  71 129 71  70 129 70  70 129 70  70 128 70  70 128 70  70 128 70  70 128 70  69 127 69  69 127 69  69 127 69  69 126 69  69 126 69  68 125 68  68 125 68  68 124 68  68 124 68  67 124 67  67 123 67  67 123 67  67 122 67  66 121 66  66 121 66  66 120 66  65 120 65  65 119 65  65 119 65  64 118 64  64 117 64  64 117 64  63 116 63  63 116 63  63 115 63  179 81 81  179 82 82  204 113 113  187 85 85  235 148 148  217 103 103  191 86 86  153 69 69  156 71 71  189 85 85  219 106 106  223 102 102  228 103 103  233 110 110  234 109 109  233 111 111  239 126 126  250 152 152  255 162 162  255 166 166  248 157 157  224 121 121  203 93 93  190 86 86  178 81 81  163 74 74  140 64 64  85 85 105  86 86 106  87 87 107  88 88 108  89 89 109  89 89 109  90 90 110  91 91 111  91 91 112  92 92 113  93 93 114  93 93 115  94 94 115  95 95 116  95 95 117  96 96 118  96 96 118  97 97 119  98 98 120  98 98 120  99 99 121  99 99 122  100 100 122  100 100 123  101 101 123  101 101 124  102 102 125  102 102 125  102 102 126  103 103 126  103 103 127  104 104 127  
127 104 104  126 103 103  126 103 103  16 30 16  26 49 26  54 99 54  69 126 69  80 147 80  92 169 92  116 213 116  116 212 116  116 212 116  116 212 116  116 212 116  115 211 115  114 209 114  113 207 113  111 203 111  109 199 109  106 194 106  113 207 113  116 212 116  94 172 94  112 91 91  111 91 91  110 90 90  109 89 89  108 88 88  107 88 88  106 87 87  105 86 86  104 85 85  103 84 84  102 84 84  101 83 83  16 30 16  21 39 21  56 102 56  78 143 78  89 163 89  100 183 100  106 194 106  98 179 98  100 183 100  98 179 98  101 185 101  105 193 105  110 201 110  112 205 112  111 204 111  112 206 112  113 207 113  113 207 113  111 204 111  100 182 100  98 180 98  105 192 105  122 223 122  125 229 125  124 228 124  121 222 121  117 215 117  114 208 114  115 211 115  113 206 113  65 118 65  65 119 65  65 120 65  91 167 91  104 191 104  96 175 96  75 137 75  75 138 75  99 182 99  105 193 105  107 195 107  104 190 104  106 193 106  104 191 104  105 192 105  107 195 107  106 193 106  104 189 104  98 179 98  69 127 69  70 128 70  70 128 70  70 128 70  70 128 70  70 129 70  70 129 70  70 129 70  71 129 71  71 129 71  71 129 71  71 130 71  71 130 71  71 130 71  71 130 71  71 130 71  71 130 71  71 130 71  71 130 71  71 130 71  71 130 71  71 129 71  71 129 71  71 129 71  70 129 70  70 129 70  70 129 70  70 128 70  70 128 70  70 128 70  70 128 70  69 127 69  69 127 69  69 127 69  69 126 69  69 126 69  68 125 68  68 125 68  68 125 68  68 124 68  68 124 68  67 123 67  67 123 67  67 122 67  66 122 66  66 121 66  66 121 66  66 120 66  65 120 65  65 119 65  65 118 65  64 118 64  64 117 64  64 117 64  63 116 63  63 115 63  163 74 74  169 77 77  180 82 82  219 130 130  206 93 93  225 101 101  210 96 96  177 80 80  150 68 68  147 67 67  184 85 85  199 91 91  218 99 99  232 108 108  233 109 109  233 109 109  236 119 119  247 145 145  254 161 161  255 165 165  255 168 168  247 159 159  217 118 118  195 89 89  183 83 83  171 77 77  157 71 71  143 65 65  85 85 104  86 86 105  87 87 106  88 88 107  88 88 108  89 89 109  90 90 110  91 91 111  91 91 112  92 92 113  93 93 114  93 93 114  94 94 115  95 95 116  95 95 117  96 96 117  96 96 118  97 97 119  97 97 119  98 98 120  99 99 121  99 99 121  100 100 122  100 100 123  100 100 123  101 101 124  101 101 124  102 102 125  102 102 125  103 103 126  103 103 126  104 104 127  
127 103 103  126 103 103  126 103 103  125 102 102  16 30 16  31 56 31  56 103 56  70 128 70  81 148 81  91 167 91  114 209 114  116 212 116  116 212 116  115 211 115  115 210 115  114 209 114  113 207 113  111 204 111  108 198 108  107 196 107  114 209 114  116 212 116  109 199 109  112 91 91  111 90 90  110 90 90  109 89 89  108 88 88  107 87 87  106 87 87  105 86 86  104 85 85  103 84 84  102 83 83  68 124 68  16 30 16  46 85 46  40 73 40  63 115 63  77 142 77  91 166 91  101 185 101  95 173 95  94 172 94  94 172 94  100 183 100  105 192 105  110 201 110  113 207 113  115 211 115  117 213 117  117 213 117  116 211 116  114 209 114  108 197 108  101 184 101  100 182 100  111 203 111  123 226 123  125 229 125  123 225 123  121 222 121  120 219 120  117 214 117  113 207 113  115 210 115  65 119 65  87 159 87  94 172 94  106 194 106  104 190 104  81 149 81  86 158 86  91 167 91  94 172 94  95 173 95  97 178 97  101 185 101  102 187 102  105 191 105  104 191 104  104 191 104  104 190 104  69 127 69  69 127 69  69 127 69  70 128 70  70 128 70  70 128 70  70 128 70  70 129 70  70 129 70  70 129 70  70 129 70  71 129 71  71 129 71  71 129 71  71 129 71  71 129 71  71 129 71  71 129 71  71 129 71  71 129 71  71 129 71  71 129 71  71 129 71  70 129 70  70 129 70  70 129 70  70 129 70  70 128 70  70 128 70  70 128 70  70 128 70  69 127 69  69 127 69  69 127 69  69 126 69  69 126 69  69 126 69  68 125 68  68 125 68  68 124 68  68 124 68  67 123 67  67 123 67  67 122 67  67 122 67  66 121 66  66 121 66  66 120 66  65 120 65  65 119 65  65 119 65  64 118 64  64 118 64  64 117 64  63 116 63  63 116 63  63 115 63  62 114 62  171 77 77  194 93 93  225 132 132  225 108 108  220 109 109  193 90 90  158 72 72  144 66 66  143 65 65  178 86 86  194 88 88  230 106 106  233 108 108  233 108 108  234 113 113  242 136 136  251 154 154  255 165 165  255 167 167  255 170 170  246 159 159  211 110 110  189 86 86  181 82 82  172 78 78  160 72 72  146 66 66  86 40 40  86 86 105  87 87 106  87 87 107  88 88 108  89 89 109  90 90 110  90 90 111  91 91 112  92 92 113  92 92 113  93 93 114  94 94 115  94 94 116  95 95 116  96 96 117  96 96 118  97 97 119  97 97 119  98 98 120  98 98 121  99 99 121  99 99 122  100 100 122  100 100 123  101 101 124  101 101 124  102 102 125  102 102 125  103 103 126  103 103 126  103 103 127  
127 103 103  126 103 103  126 102 102  125 102 102  124 102 102  16 30 16  31 57 31  57 104 57  71 129 71  82 150 82  92 168 92  108 197 108  115 211 115  114 209 114  114 208 114  113 207 113  112 204 112  109 199 109  107 196 107  111 203 111  117 213 117  115 210 115  106 194 106  82 151 82  111 90 90  110 90 90  109 89 89  108 88 88  107 87 87  106 86 86  105 86 86  104 85 85  103 84 84  102 83 83  71 130 71  77 141 77  16 30 16  16 30 16  43 79 43  63 116 63  79 145 79  90 165 90  87 159 87  80 147 80  90 165 90  99 180 99  105 192 105  109 199 109  112 205 112  115 209 115  116 211 116  115 211 115  116 211 116  115 211 115  114 209 114  104 190 104  99 182 99  104 191 104  118 216 118  123 226 123  122 224 122  122 223 122  123 225 123  119 218 119  111 202 111  110 201 110  94 172 94  80 147 80  89 162 89  97 177 97  98 179 98  92 169 92  83 152 83  85 155 85  86 157 86  88 161 88  93 170 93  98 179 98  100 183 100  101 186 101  102 187 102  106 193 106  105 192 105  69 126 69  69 127 69  69 127 69  69 127 69  70 128 70  70 128 70  70 128 70  70 128 70  70 128 70  70 129 70  70 129 70  70 129 70  70 129 70  70 129 70  70 129 70  71 129 71  71 129 71  71 129 71  71 129 71  70 129 70  70 129 70  70 129 70  70 129 70  70 129 70  70 129 70  70 128 70  70 128 70  70 128 70  70 128 70  70 128 70  69 127 69  69 127 69  69 127 69  69 126 69  69 126 69  69 126 69  68 125 68  68 125 68  68 124 68  68 124 68  67 124 67  67 123 67  67 123 67  67 122 67  66 122 66  66 121 66  66 121 66  66 120 66  65 120 65  65 119 65  65 118 65  64 118 64  64 117 64  64 117 64  63 116 63  63 115 63  63 115 63  62 114 62  174 79 79  203 101 101  211 96 96  227 111 111  227 143 143  173 78 78  110 51 51  90 42 42  9 13 13  67 67 82  227 104 104  230 105 105  232 107 107  232 109 109  238 126 126  246 144 144  255 166 166  255 168 168  255 169 169  255 170 170  243 156 156  206 104 104  188 86 86  169 76 76  173 78 78  163 74 74  150 68 68  116 53 53  86 86 105  86 86 106  87 87 107  88 88 108  89 89 109  90 90 110  90 90 111  91 91 111  92 92 112  92 92 113  93 93 114  94 94 115  94 94 115  95 95 116  95 95 117  96 96 118  97 97 118  97 97 119  98 98 120  98 98 120  99 99 121  99 99 122  100 100 122  100 100 123  101 101 123  101 101 124  102 102 124  102 102 125  102 102 126  103 103 126  103 103 127  
126 103 103  126 103 103  125 102 102  125 102 102  124 101 101  124 101 101  16 30 16  33 61 33  56 103 56  70 128 70  82 151 82  93 170 93  105 191 105  109 200 109  114 208 114  113 206 113  113 207 113  113 206 113  112 205 112  116 213 116  115 211 115  112 206 112  114 208 114  109 199 109  110 90 90  110 89 89  109 89 89  108 88 88  107 87 87  106 86 86  105 86 86  104 85 85  103 84 84  102 83 83  74 136 74  80 146 80  84 154 84  82 150 82  72 133 72  46 84 46  60 109 60  64 117 64  69 126 69  73 134 73  82 151 82  93 170 93  102 186 102  106 193 106  110 202 110  112 204 112  112 205 112  111 203 111  111 203 111  113 206 113  112 205 112  103 189 103  103 189 103  104 190 104  108 197 108  119 217 119  121 221 121  122 223 122  124 226 124  124 228 124  117 213 117  101 184 101  90 164 90  75 137 75  79 145 79  88 161 88  85 156 85  79 145 79  79 145 79  77 142 77  80 146 80  86 158 86  91 167 91  96 176 96  99 181 99  100 183 100  104 190 104  106 195 106  105 193 105  69 126 69  69 126 69  69 127 69  69 127 69  69 127 69  70 127 70  70 128 70  70 128 70  70 128 70  70 128 70  70 128 70  70 129 70  70 129 70  70 129 70  70 129 70  70 129 70  70 129 70  70 129 70  70 129 70  70 129 70  70 129 70  70 129 70  70 129 70  70 128 70  70 128 70  70 128 70  70 128 70  70 128 70  70 127 70  69 127 69  69 127 69  69 127 69  69 126 69  69 126 69  69 126 69  68 125 68  68 125 68  68 125 68  68 124 68  68 124 68  67 123 67  67 123 67  67 122 67  67 122 67  66 121 66  66 121 66  66 120 66  65 120 65  65 119 65  65 119 65  64 118 64  64 118 64  64 117 64  64 116 64  63 116 63  63 115 63  63 115 63  62 114 62  62 113 62  207 102 102  239 128 128  236 134 134  185 84 84  130 59 59  28 18 18  9 13 13  59 108 59  225 102 102  233 123 123  232 106 106  231 108 108  234 117 117  241 133 133  250 153 153  255 169 169  255 170 170  255 171 171  255 171 171  237 149 149  202 99 99  184 84 84  165 75 75  162 73 73  161 73 73  154 70 70  132 60 60  86 86 105  86 86 106  87 87 107  88 88 108  89 89 109  89 89 110  90 90 110  91 91 111  91 91 112  92 92 113  93 93 114  93 93 115  94 94 115  95 95 116  95 95 117  96 96 117  96 96 118  97 97 119  97 97 120  98 98 120  99 99 121  99 99 121  100 100 122  100 100 123  100 100 123  101 101 124  101 101 124  102 102 125  102 102 125  103 103 126  103 103 126  
126 103 103  126 103 103  125 102 102  125 102 102  124 101 101  124 101 101  123 100 100  16 30 16  32 58 32  55 102 55  69 126 69  83 152 83  93 171 93  98 180 98  102 187 102  106 193 106  108 198 108  111 203 111  114 209 114  114 209 114  111 202 111  111 203 111  114 209 114  114 208 114  114 209 114  105 192 105  108 88 88  108 88 88  107 87 87  106 86 86  105 85 85  104 85 85  103 84 84  79 145 79  77 141 77  81 149 81  79 145 79  76 139 76  71 130 71  67 123 67  62 114 62  38 70 38  52 95 52  60 110 60  69 127 69  86 157 86  98 179 98  104 190 104  106 194 106  107 196 107  107 196 107  107 196 107  107 195 107  109 200 109  110 201 110  106 195 106  107 196 107  108 197 108  109 200 109  112 206 112  119 218 119  121 222 121  123 225 123  120 220 120  106 193 106  97 178 97  85 156 85  76 139 76  63 116 63  75 137 75  77 142 77  76 139 76  74 136 74  69 127 69  79 144 79  85 156 85  90 165 90  95 173 95  98 180 98  101 184 101  106 195 106  109 200 109  118 215 118  69 126 69  69 126 69  69 126 69  69 127 69  69 127 69  69 127 69  70 127 70  70 128 70  70 128 70  70 128 70  70 128 70  70 128 70  70 128 70  70 128 70  70 128 70  70 129 70  70 129 70  70 129 70  70 129 70  70 128 70  70 128 70  70 128 70  70 128 70  70 128 70  70 128 70  70 128 70  70 128 70  70 127 70  69 127 69  69 127 69  69 127 69  69 126 69  69 126 69  69 126 69  68 125 68  68 125 68  68 125 68  68 124 68  68 124 68  67 123 67  67 123 67  67 122 67  67 122 67  66 122 66  66 121 66  66 121 66  66 120 66  65 119 65  65 119 65  65 118 65  64 118 64  64 117 64  64 117 64  63 116 63  249 129 129  63 115 63  62 114 62  62 114 62  62 113 62  221 101 101  238 124 124  203 92 92  153 69 69  9 13 13  63 31 31  9 13 13  228 104 104  231 137 137  227 103 103  231 108 108  234 117 117  236 122 122  244 140 140  255 170 170  255 172 172  255 172 172  255 172 172  254 171 171  231 141 141  199 95 95  177 80 80  161 73 73  160 73 73  159 72 72  152 69 69  144 66 66  85 85 105  86 86 106  87 87 107  88 88 108  88 88 108  89 89 109  90 90 110  91 91 111  91 91 112  92 92 113  93 93 114  93 93 114  94 94 115  94 94 116  95 95 117  96 96 117  96 96 118  97 97 119  97 97 119  98 98 120  98 98 121  99 99 121  99 99 122  100 100 122  100 100 123  101 101 124  101 101 124  102 102 125  102 102 125  103 103 126  103 103 126  
126 103 103  125 102 102  125 102 102  124 102 102  124 101 101  123 101 101  123 100 100  122 100 100  122 99 99  28 52 28  54 100 54  69 126 69  80 146 80  86 157 86  91 166 91  95 173 95  98 179 98  102 187 102  108 197 108  108 198 108  103 188 103  109 199 109  113 207 113  116 212 116  115 210 115  111 204 111  107 196 107  106 193 106  106 194 106  105 193 105  104 190 104  101 186 101  94 172 94  79 145 79  78 143 78  78 144 78  78 142 78  77 140 77  79 144 79  74 135 74  69 126 69  63 116 63  58 106 58  27 50 27  54 98 54  73 134 73  91 166 91  100 182 100  101 184 101  102 186 102  102 187 102  102 187 102  104 191 104  106 195 106  109 199 109  111 203 111  111 204 111  112 205 112  113 206 113  114 209 114  117 214 117  120 220 120  121 222 121  115 211 115  103 189 103  94 171 94  87 159 87  85 155 85  71 129 71  56 102 56  50 92 50  64 117 64  62 114 62  67 123 67  78 142 78  84 154 84  90 165 90  95 174 95  99 182 99  105 193 105  115 211 115  123 226 123  68 125 68  68 125 68  69 126 69  69 126 69  69 126 69  69 127 69  69 127 69  69 127 69  69 127 69  70 127 70  70 128 70  70 128 70  70 128 70  70 128 70  70 128 70  70 128 70  70 128 70  70 128 70  70 128 70  70 128 70  70 128 70  70 128 70  70 128 70  70 128 70  70 128 70  70 128 70  70 127 70  69 127 69  69 127 69  69 127 69  69 127 69  69 126 69  69 126 69  69 126 69  68 125 68  68 125 68  68 125 68  68 124 68  68 124 68  67 123 67  67 123 67  67 123 67  67 122 67  66 122 66  66 121 66  66 121 66  66 120 66  65 120 65  65 119 65  65 119 65  64 118 64  64 118 64  64 117 64  64 116 64  63 116 63  220 101 101  227 106 106  62 114 62  62 113 62  213 96 96  232 115 115  214 98 98  173 78 78  9 13 13  147 67 67  110 51 51  229 104 104  205 107 107  212 98 98  231 105 105  234 119 119  232 113 113  238 128 128  249 152 152  255 173 173  255 173 173  255 173 173  255 173 173  253 170 170  225 132 132  196 93 93  175 79 79  161 73 73  158 72 72  163 74 74  154 70 70  146 66 66  84 39 39  86 86 105  87 87 106  88 88 107  88 88 108  89 89 109  90 90 110  90 90 111  91 91 112  92 92 113  92 92 113  93 93 114  94 94 115  94 94 116  95 95 116  96 96 117  96 96 118  97 97 118  97 97 119  98 98 120  98 98 120  99 99 121  99 99 122  100 100 122  100 100 123  101 101 123  101 101 124  102 102 124  102 102 125  102 102 125  103 103 126  
126 103 103  125 102 102  125 102 102  124 101 101  124 101 101  123 100 100  123 100 100  122 100 100  121 99 99  121 99 99  21 38 21  53 97 53  62 113 62  71 130 71  79 144 79  86 157 86  91 166 91  95 173 95  98 179 98  100 184 100  99 181 99  106 194 106  111 204 111  113 206 113  111 202 111  107 196 107  106 194 106  106 193 106  105 193 105  105 192 105  104 191 104  102 187 102  93 170 93  80 146 80  75 138 75  76 138 76  78 143 78  81 148 81  85 155 85  83 152 83  78 143 78  73 133 73  71 131 71  69 126 69  72 132 72  82 149 82  86 157 86  92 169 92  98 179 98  99 181 99  100 183 100  101 184 101  102 187 102  104 190 104  107 196 107  110 201 110  112 205 112  114 209 114  116 212 116  117 213 117  118 216 118  118 216 118  117 215 117  108 198 108  100 183 100  95 175 95  94 171 94  92 168 92  80 146 80  66 120 66  16 30 16  16 30 16  42 77 42  62 114 62  74 136 74  84 154 84  90 165 90  98 178 98  108 197 108  121 221 121  68 124 68  68 124 68  68 125 68  68 125 68  68 125 68  69 126 69  69 126 69  69 126 69  69 126 69  69 127 69  69 127 69  69 127 69  69 127 69  70 127 70  70 128 70  70 128 70  70 128 70  70 128 70  70 128 70  70 128 70  70 128 70  70 128 70  70 128 70  70 128 70  70 128 70  70 128 70  70 127 70  69 127 69  69 127 69  69 127 69  69 127 69  69 126 69  69 126 69  69 126 69  69 126 69  68 125 68  68 125 68  68 125 68  68 124 68  68 124 68  67 124 67  67 123 67  67 123 67  67 122 67  67 122 67  66 121 66  66 121 66  66 120 66  65 120 65  65 119 65  65 119 65  65 118 65  64 118 64  64 117 64  64 117 64  163 74 74  207 99 99  212 105 105  204 94 94  215 98 98  202 91 91  227 107 107  217 100 100  192 87 87  62 30 30  60 110 60  60 109 60  228 103 103  184 84 84  197 89 89  229 103 103  234 122 122  239 134 134  233 117 117  240 134 134  255 171 171  255 174 174  255 174 174  255 174 174  255 174 174  251 169 169  219 125 125  192 93 93  168 76 76  162 73 73  156 71 71  163 74 74  154 70 70  148 67 67  93 43 43  86 86 105  87 87 106  87 87 107  88 88 108  89 89 109  90 90 110  90 90 111  91 91 112  92 92 112  92 92 113  93 93 114  94 94 115  94 94 115  95 95 116  95 95 117  96 96 118  96 96 118  97 97 119  98 98 120  98 98 120  99 99 121  99 99 121  100 100 122  100 100 123  100 100 123  101 101 124  101 101 124  102 102 125  102 102 125  103 103 126  
126 102 102  125 102 102  125 102 102  124 101 101  124 101 101  123 100 100  122 100 100  122 99 99  121 99 99  121 98 98  120 98 98  16 30 16  36 65 36  56 102 56  66 121 66  75 137 75  82 150 82  86 158 86  89 164 89  92 168 92  96 176 96  101 185 101  107 196 107  109 199 109  106 194 106  105 192 105  104 191 104  103 189 103  103 189 103  103 188 103  101 186 101  99 181 99  90 166 90  78 142 78  71 129 71  82 151 82  85 156 85  87 160 87  90 165 90  95 174 95  92 169 92  86 157 86  82 151 82  81 148 81  81 148 81  85 156 85  89 163 89  92 169 92  96 176 96  98 179 98  100 184 100  103 188 103  108 198 108  124 226 124  124 228 124  115 210 115  116 213 116  118 215 118  118 217 118  117 214 117  114 208 114  113 206 113  112 204 112  104 190 104  101 185 101  100 183 100  98 179 98  95 173 95  93 169 93  83 152 83  66 121 66  43 78 43  58 106 58  66 121 66  78 143 78  89 163 89  101 186 101  115 210 115  67 123 67  67 123 67  68 124 68  68 124 68  68 124 68  68 125 68  68 125 68  68 125 68  69 126 69  69 126 69  69 126 69  69 126 69  69 127 69  69 127 69  69 127 69  69 127 69  69 127 69  70 127 70  70 127 70  70 127 70  70 128 70  70 128 70  70 128 70  70 128 70  70 127 70  70 127 70  70 127 70  69 127 69  69 127 69  69 127 69  69 127 69  69 127 69  69 126 69  69 126 69  69 126 69  69 126 69  68 125 68  68 125 68  68 125 68  68 124 68  68 124 68  68 124 68  67 123 67  67 123 67  67 122 67  67 122 67  66 122 66  66 121 66  66 121 66  66 120 66  65 120 65  65 119 65  65 119 65  64 118 64  64 117 64  64 117 64  64 116 64  181 82 82  172 80 80  170 78 78  181 85 85  251 135 135  201 91 91  199 90 90  199 90 90  92 43 43  60 110 60  60 110 60  228 103 103  193 91 91  175 79 79  215 100 100  229 104 104  242 142 142  230 114 114  234 122 122  247 150 150  255 174 174  255 174 174  255 174 174  255 174 174  255 173 173  249 166 166  215 120 120  184 86 86  168 76 76  162 73 73  154 70 70  161 73 73  155 70 70  149 68 68  87 41 41  86 86 105  86 86 106  87 87 107  88 88 108  89 89 109  89 89 110  90 90 110  91 91 111  91 91 112  92 92 113  93 93 114  93 93 114  94 94 115  95 95 116  95 95 117  96 96 117  96 96 118  97 97 119  97 97 119  98 98 120  98 98 121  99 99 121  99 99 122  100 100 122  100 100 123  101 101 124  101 101 124  102 102 125  102 102 125  102 102 126  
125 102 102  125 102 102  124 101 101  124 101 101  123 101 101  123 100 100  122 100 100  122 99 99  121 99 99  120 98 98  120 98 98  119 97 97  119 97 97  16 30 16  39 71 39  59 109 59  69 127 69  75 137 75  79 144 79  83 152 83  90 164 90  95 174 95  98 179 98  103 188 103  102 187 102  102 187 102  101 186 101  100 184 100  100 183 100  99 181 99  96 176 96  93 171 93  88 160 88  74 135 74  65 119 65  79 145 79  90 165 90  93 170 93  95 173 95  99 182 99  103 189 103  100 183 100  95 174 95  91 166 91  90 164 90  93 171 93  96 176 96  99 181 99  101 184 101  103 189 103  108 198 108  115 211 115  120 219 120  122 224 122  117 214 117  118 217 118  119 219 119  119 218 119  118 215 118  115 211 115  110 201 110  105 193 105  104 189 104  101 185 101  98 180 98  95 174 95  91 167 91  88 161 88  92 168 92  88 162 88  75 137 75  72 132 72  82 151 82  91 167 91  103 189 103  115 210 115  125 229 125  67 122 67  67 123 67  67 123 67  67 123 67  68 124 68  68 124 68  68 124 68  68 125 68  68 125 68  68 125 68  69 126 69  69 126 69  69 126 69  69 126 69  69 126 69  69 127 69  69 127 69  69 127 69  69 127 69  69 127 69  69 127 69  69 127 69  69 127 69  69 127 69  69 127 69  69 127 69  69 127 69  69 127 69  69 127 69  69 127 69  69 127 69  69 126 69  69 126 69  69 126 69  69 126 69  69 126 69  68 125 68  68 125 68  68 125 68  68 124 68  68 124 68  68 124 68  67 123 67  67 123 67  67 123 67  67 122 67  66 122 66  66 121 66  66 121 66  66 120 66  65 120 65  65 119 65  65 119 65  65 118 65  64 118 64  64 117 64  64 117 64  63 116 63  63 115 63  170 84 84  145 67 67  155 73 73  189 85 85  156 71 71  126 57 57  61 111 61  60 111 60  60 110 60  228 103 103  215 105 105  166 75 75  195 89 89  230 104 104  241 145 145  241 146 146  229 110 110  235 126 126  255 170 170  255 174 174  255 173 173  255 173 173  254 172 172  253 172 172  244 161 161  211 114 114  179 82 82  168 76 76  161 73 73  152 69 69  160 72 72  161 73 73  150 68 68  71 34 34  85 85 105  86 86 106  87 87 107  88 88 108  89 89 109  89 89 109  90 90 110  91 91 111  91 91 112  92 92 113  93 93 114  93 93 114  94 94 115  94 94 116  95 95 116  96 96 117  96 96 118  97 97 119  97 97 119  98 98 120  98 98 120  99 99 121  99 99 122  100 100 122  100 100 123  101 101 123  101 101 124  101 101 124  102 102 125  102 102 125  
125 102 102  125 102 102  124 101 101  124 101 101  123 100 100  123 100 100  122 100 100  121 99 99  121 99 99  120 98 98  120 98 98  119 97 97  118 97 97  118 96 96  16 30 16  30 55 30  39 71 39  45 83 45  54 98 54  68 124 68  78 142 78  84 154 84  89 163 89  92 168 92  98 179 98  100 184 100  99 181 99  98 178 98  96 176 96  95 175 95  94 173 94  91 166 91  84 154 84  70 128 70  58 107 58  75 137 75  87 159 87  96 175 96  99 182 99  103 189 103  107 196 107  109 200 109  106 195 106  102 187 102  97 178 97  99 181 99  102 186 102  105 192 105  104 191 104  105 192 105  108 198 108  113 206 113  116 212 116  118 216 118  120 219 120  120 220 120  120 219 120  118 216 118  116 212 116  115 211 115  113 207 113  102 187 102  97 178 97  95 174 95  91 167 91  87 159 87  83 153 83  80 146 80  84 153 84  86 158 86  85 155 85  85 155 85  90 165 90  105 193 105  116 213 116  118 216 118  125 229 125  66 122 66  67 122 67  67 123 67  67 123 67  67 123 67  68 124 68  68 124 68  68 124 68  68 125 68  68 125 68  68 125 68  69 126 69  69 126 69  69 126 69  69 126 69  69 126 69  69 126 69  69 127 69  69 127 69  69 127 69  69 127 69  69 127 69  69 127 69  69 127 69  69 127 69  69 127 69  69 127 69  69 127 69  69 127 69  69 126 69  69 126 69  69 126 69  69 126 69  69 126 69  69 126 69  68 125 68  68 125 68  68 125 68  68 124 68  68 124 68  68 124 68  67 123 67  67 123 67  67 123 67  67 122 67  66 122 66  66 121 66  66 121 66  66 120 66  65 120 65  65 119 65  65 119 65  65 118 65  64 118 64  64 117 64  64 117 64  63 116 63  63 116 63  63 115 63  63 115 63  167 76 76  156 71 71  181 83 83  97 45 45  61 112 61  61 111 61  60 110 60  227 102 102  226 102 102  178 81 81  175 79 79  224 110 110  228 104 104  244 156 156  231 124 124  229 113 113  240 139 139  255 172 172  255 174 174  255 173 173  254 172 172  252 171 171  251 170 170  240 156 156  206 112 112  177 81 81  168 76 76  160 72 72  150 68 68  158 72 72  165 75 75  151 69 69  51 26 26  85 85 105  86 86 106  87 87 106  88 88 107  88 88 108  89 89 109  90 90 110  90 90 111  91 91 112  92 92 113  92 92 113  93 93 114  94 94 115  94 94 116  95 95 116  95 95 117  96 96 118  97 97 118  97 97 119  98 98 120  98 98 120  99 99 121  99 99 121  100 100 122  100 100 123  100 100 123  101 101 124  101 101 124  102 102 125  102 102 125  
125 102 102  125 102 102  124 101 101  123 101 101  123 100 100  122 100 100  122 99 99  121 99 99  121 98 98  120 98 98  119 97 97  119 97 97  118 96 96  117 96 96  117 95 95  116 95 95  115 94 94  115 93 93  25 47 25  41 76 41  58 107 58  70 128 70  76 139 76  82 150 82  87 160 87  93 169 93  99 180 99  98 179 98  96 176 96  95 174 95  91 166 91  86 157 86  81 148 81  68 125 68  51 94 51  69 126 69  82 150 82  92 168 92  100 183 100  106 193 106  110 201 110  113 206 113  114 208 114  111 203 111  107 197 107  107 195 107  106 193 106  106 194 106  103 188 103  102 186 102  108 198 108  111 204 111  114 208 114  116 212 116  117 214 117  117 215 117  117 213 117  115 211 115  116 212 116  117 214 117  117 214 117  107 196 107  91 167 91  86 158 86  82 149 82  78 142 78  71 130 71  71 130 71  69 127 69  65 120 65  78 143 78  91 167 91  100 184 100  109 200 109  120 220 120  126 231 126  133 244 133  66 121 66  67 122 67  67 122 67  67 123 67  67 123 67  67 123 67  68 124 68  68 124 68  68 124 68  68 125 68  68 125 68  68 125 68  68 125 68  69 126 69  69 126 69  69 126 69  69 126 69  69 126 69  69 126 69  69 126 69  69 127 69  69 127 69  69 127 69  69 127 69  69 127 69  69 127 69  69 126 69  69 126 69  69 126 69  69 126 69  69 126 69  69 126 69  69 126 69  68 125 68  68 125 68  68 125 68  68 125 68  68 124 68  68 124 68  68 124 68  67 123 67  67 123 67  67 123 67  67 122 67  67 122 67  66 121 66  66 121 66  66 121 66  66 120 66  65 120 65  65 119 65  65 119 65  64 118 64  64 118 64  64 117 64  64 117 64  63 116 63  63 115 63  63 115 63  62 114 62  62 114 62  62 113 62  61 113 61  61 112 61  61 111 61  60 111 60  60 110 60  230 104 104  200 107 107  170 77 77  200 94 94  231 104 104  239 150 150  232 141 141  226 105 105  229 116 116  241 142 142  255 173 173  255 173 173  254 172 172  252 170 170  250 169 169  246 164 164  235 150 150  193 98 98  175 79 79  166 75 75  158 71 71  147 67 67  157 71 71  169 76 76  152 69 69  18 15 15  85 85 104  86 86 105  87 87 106  87 87 107  88 88 108  89 89 109  90 90 110  90 90 111  91 91 111  92 92 112  92 92 113  93 93 114  93 93 115  94 94 115  95 95 116  95 95 117  96 96 117  96 96 118  97 97 119  97 97 119  98 98 120  98 98 121  99 99 121  99 99 122  100 100 122  100 100 123  101 101 123  101 101 124  102 102 125  102 102 125  
125 102 102  124 101 101  124 101 101  123 101 101  123 100 100  122 100 100  122 99 99  121 99 99  120 98 98  120 98 98  119 97 97  119 97 97  118 96 96  117 96 96  117 95 95  116 95 95  115 94 94  114 93 93  114 93 93  113 92 92  16 30 16  34 63 34  59 109 59  68 124 68  75 138 75  82 149 82  87 159 87  93 171 93  95 175 95  90 165 90  86 157 86  82 151 82  78 144 78  66 122 66  43 79 43  62 114 62  76 140 76  87 159 87  96 175 96  102 186 102  107 195 107  111 203 111  114 208 114  111 204 111  107 195 107  103 188 103  102 186 102  99 180 99  94 172 94  101 185 101  106 194 106  109 200 109  112 204 112  113 207 113  114 208 114  113 207 113  113 206 113  114 209 114  115 210 115  115 211 115  117 214 117  117 213 117  102 186 102  78 143 78  69 126 69  60 111 60  61 111 61  61 113 61  66 121 66  73 134 73  80 147 80  89 162 89  100 183 100  110 201 110  118 215 118  125 228 125  66 121 66  66 121 66  66 122 66  67 122 67  67 122 67  67 123 67  67 123 67  67 123 67  68 124 68  68 124 68  68 124 68  68 125 68  68 125 68  68 125 68  68 125 68  69 125 69  69 126 69  69 126 69  69 126 69  69 126 69  69 126 69  69 126 69  69 126 69  69 126 69  69 126 69  69 126 69  69 126 69  69 126 69  69 126 69  69 126 69  69 126 69  69 126 69  69 125 69  68 125 68  68 125 68  68 125 68  68 125 68  68 124 68  68 124 68  68 124 68  67 123 67  67 123 67  67 123 67  67 122 67  67 122 67  66 122 66  66 121 66  66 121 66  66 120 66  65 120 65  65 119 65  65 119 65  65 118 65  64 118 64  64 117 64  64 117 64  63 116 63  63 116 63  63 115 63  63 115 63  62 114 62  62 113 62  62 113 62  61 112 61  61 112 61  61 111 61  60 110 60  225 101 101  228 128 128  168 76 76  168 76 76  226 107 107  229 103 103  228 142 142  224 124 124  225 106 106  230 121 121  241 145 145  254 172 172  253 171 171  251 170 170  250 168 168  246 165 165  240 158 158  230 144 144  190 93 93  173 78 78  166 75 75  158 72 72  151 68 68  155 70 70  169 77 77  156 71 71  9 13 13  85 85 104  86 86 105  86 86 106  87 87 107  88 88 108  89 89 109  89 89 110  90 90 110  91 91 111  91 91 112  92 92 113  93 93 114  93 93 114  94 94 115  95 95 116  95 95 117  96 96 117  96 96 118  97 97 119  97 97 119  98 98 120  98 98 120  99 99 121  99 99 122  100 100 122  100 100 123  101 101 123  101 101 124  101 101 124  102 102 125  
125 102 102  124 101 101  124 101 101  123 100 100  123 100 100  122 99 99  121 99 99  121 99 99  120 98 98  120 98 98  119 97 97  118 97 97  118 96 96  117 95 95  116 95 95  116 94 94  115 94 94  114 93 93  113 93 93  113 92 92  112 91 91  111 91 91  16 30 16  43 78 43  59 109 59  69 127 69  79 144 79  86 157 86  86 158 86  84 154 84  82 149 82  79 144 79  74 136 74  63 116 63  42 77 42  58 107 58  71 130 71  81 149 81  90 164 90  97 177 97  102 187 102  107 195 107  110 202 110  108 198 108  103 188 103  100 184 100  95 174 95  89 163 89  91 167 91  97 178 97  102 187 102  106 194 106  108 198 108  110 200 110  110 200 110  109 200 109  111 204 111  113 206 113  114 208 114  115 211 115  118 216 118  119 218 119  115 211 115  99 181 99  65 120 65  49 89 49  49 90 49  56 102 56  71 129 71  84 154 84  91 167 91  103 188 103  117 215 117  131 240 131  65 120 65  65 120 65  66 120 66  66 121 66  66 121 66  66 122 66  67 122 67  67 122 67  67 123 67  67 123 67  67 123 67  68 124 68  68 124 68  68 124 68  68 125 68  68 125 68  68 125 68  68 125 68  68 125 68  69 125 69  69 126 69  69 126 69  69 126 69  69 126 69  69 126 69  69 126 69  69 126 69  69 126 69  69 126 69  69 126 69  69 126 69  69 126 69  69 125 69  68 125 68  68 125 68  68 125 68  68 125 68  68 125 68  68 124 68  68 124 68  68 124 68  67 123 67  67 123 67  67 123 67  67 122 67  67 122 67  66 122 66  66 121 66  66 121 66  66 120 66  65 120 65  65 120 65  65 119 65  65 119 65  64 118 64  64 118 64  64 117 64  64 116 64  63 116 63  63 115 63  63 115 63  62 114 62  62 114 62  62 113 62  61 113 61  61 112 61  61 111 61  60 111 60  60 110 60  229 104 104  174 79 79  160 73 73  207 102 102  231 105 105  230 139 139  212 120 120  221 107 107  224 107 107  231 124 124  241 147 147  252 170 170  250 169 169  249 167 167  246 165 165  226 140 140  237 155 155  225 138 138  185 87 87  174 79 79  168 76 76  161 73 73  143 65 65  153 70 70  168 76 76  161 73 73  84 84 103  85 85 104  86 86 105  86 86 106  87 87 107  88 88 108  89 89 109  89 89 109  90 90 110  91 91 111  91 91 112  92 92 113  93 93 113  93 93 114  94 94 115  94 94 116  95 95 116  95 95 117  96 96 118  97 97 118  97 97 119  98 98 120  98 98 120  99 99 121  99 99 121  99 99 122  100 100 123  100 100 123  101 101 124  101 101 124  102 102 125  
124 101 101  124 101 101  123 101 101  123 100 100  122 100 100  122 99 99  121 99 99  121 98 98  120 98 98  119 97 97  119 97 97  118 96 96  117 96 96  117 95 95  116 95 95  115 94 94  115 94 94  114 93 93  113 92 92  112 92 92  112 91 91  111 90 90  110 90 90  109 89 89  16 30 16  37 69 37  54 99 54  67 124 67  76 140 76  79 145 79  76 138 76  72 132 72  68 125 68  59 108 59  37 67 37  46 85 46  67 123 67  76 139 76  83 153 83  90 165 90  96 176 96  101 186 101  105 193 105  104 190 104  100 183 100  100 183 100  87 158 87  79 145 79  87 159 87  93 170 93  98 179 98  101 185 101  103 189 103  105 192 105  105 193 105  106 194 106  110 201 110  112 205 112  113 208 113  116 213 116  119 218 119  121 221 121  119 217 119  112 205 112  95 174 95  54 99 54  47 86 47  63 115 63  75 138 75  93 170 93  105 192 105  115 210 115  124 227 124  65 119 65  65 119 65  65 120 65  66 120 66  66 121 66  66 121 66  66 121 66  66 122 66  67 122 67  67 122 67  67 123 67  67 123 67  67 123 67  68 124 68  68 124 68  68 124 68  68 124 68  68 125 68  68 125 68  68 125 68  68 125 68  68 125 68  68 125 68  68 125 68  69 126 69  69 126 69  69 126 69  69 126 69  69 126 69  69 126 69  68 125 68  68 125 68  68 125 68  68 125 68  68 125 68  68 125 68  68 125 68  68 124 68  68 124 68  68 124 68  68 124 68  67 123 67  67 123 67  67 123 67  67 122 67  67 122 67  66 122 66  66 121 66  66 121 66  66 121 66  66 120 66  65 120 65  65 119 65  65 119 65  65 118 65  64 118 64  64 117 64  64 117 64  63 116 63  63 116 63  63 115 63  63 115 63  62 114 62  62 113 62  62 113 62  61 112 61  61 112 61  61 111 61  60 110 60  229 103 103  205 111 111  134 61 61  173 79 79  229 106 106  229 103 103  205 115 115  207 109 109  223 102 102  225 110 110  232 128 128  242 150 150  249 167 167  247 165 165  245 163 163  229 143 143  214 124 124  234 152 152  212 125 125  185 88 88  175 79 79  169 77 77  165 75 75  128 59 59  152 69 69  166 75 75  156 71 71  84 84 103  85 85 104  85 85 105  86 86 106  87 87 107  88 88 107  88 88 108  89 89 109  90 90 110  90 90 111  91 91 112  92 92 112  92 92 113  93 93 114  94 94 115  94 94 115  95 95 116  95 95 117  96 96 117  96 96 118  97 97 119  97 97 119  98 98 120  98 98 121  99 99 121  99 99 122  100 100 122  100 100 123  101 101 123  101 101 124  101 101 124  
124 101 101  124 101 101  123 100 100  123 100 100  122 100 100  122 99 99  121 99 99  120 98 98  120 98 98  119 97 97  119 97 97  118 96 96  117 96 96  117 95 95  116 95 95  115 94 94  115 93 93  114 93 93  113 92 92  112 92 92  111 91 91  111 90 90  110 90 90  109 89 89  108 88 88  16 30 16  16 30 16  27 50 27  48 88 48  57 104 57  63 115 63  64 117 64  58 107 58  48 87 48  34 62 34  28 52 28  59 108 59  71 130 71  79 145 79  86 157 86  91 167 91  95 175 95  99 181 99  99 181 99  98 179 98  99 181 99  82 150 82  76 139 76  83 151 83  90 164 90  95 173 95  98 179 98  100 183 100  101 185 101  102 186 102  106 193 106  110 200 110  111 204 111  114 209 114  117 214 117  119 218 119  121 222 121  121 222 121  116 212 116  107 195 107  90 164 90  81 148 81  75 138 75  84 153 84  98 179 98  111 202 111  124 227 124  64 118 64  65 118 65  65 119 65  65 119 65  65 120 65  66 120 66  66 121 66  66 121 66  66 121 66  66 122 66  67 122 67  67 122 67  67 123 67  67 123 67  67 123 67  67 124 67  68 124 68  68 124 68  68 124 68  68 125 68  68 125 68  68 125 68  68 125 68  68 125 68  68 125 68  68 125 68  68 125 68  68 125 68  68 125 68  68 125 68  68 125 68  68 125 68  68 125 68  68 125 68  68 125 68  68 125 68  68 125 68  68 124 68  68 124 68  68 124 68  67 124 67  67 123 67  67 123 67  67 123 67  67 122 67  67 122 67  66 122 66  66 121 66  66 121 66  66 121 66  66 120 66  65 120 65  65 119 65  65 119 65  65 118 65  64 118 64  64 117 64  64 117 64  64 116 64  63 116 63  63 115 63  63 115 63  62 114 62  62 114 62  62 113 62  61 113 61  61 112 61  61 111 61  60 111 60  60 110 60  236 143 143  149 67 67  153 69 69  216 111 111  232 105 105  222 114 114  193 99 99  213 104 104  221 102 102  224 113 113  232 131 131  241 152 152  245 163 163  243 161 161  230 146 146  204 109 109  214 126 126  232 149 149  210 120 120  187 90 90  176 80 80  172 78 78  169 76 76  126 58 58  150 68 68  165 75 75  149 67 67  72 35 35  84 84 103  85 85 104  86 86 105  87 87 106  87 87 107  88 88 108  89 89 109  90 90 110  90 90 111  91 91 111  92 92 112  92 92 113  93 93 114  93 93 115  94 94 115  95 95 116  95 95 117  96 96 117  96 96 118  97 97 119  97 97 119  98 98 120  98 98 120  99 99 121  99 99 122  100 100 122  100 100 123  100 100 123  101 101 124  101 101 124  
124 101 101  123 101 101  123 100 100  122 100 100  122 99 99  121 99 99  121 99 99  120 98 98  120 98 98  119 97 97  118 97 97  118 96 96  117 95 95  116 95 95  116 94 94  115 94 94  114 93 93  114 93 93  113 92 92  112 91 91  111 91 91  110 90 90  110 89 89  109 89 89  108 88 88  107 87 87  106 87 87  105 86 86  104 85 85  21 39 21  34 62 34  38 70 38  44 80 44  31 57 31  16 30 16  16 30 16  44 81 44  65 118 65  74 135 74  81 148 81  87 159 87  91 167 91  95 173 95  98 178 98  96 176 96  98 180 98  83 153 83  71 130 71  71 129 71  84 154 84  91 166 91  94 172 94  96 175 96  97 177 97  99 181 99  104 190 104  108 198 108  111 204 111  114 209 114  117 214 117  120 219 120  121 222 121  123 226 123  121 221 121  114 209 114  109 199 109  109 200 109  108 198 108  121 221 121  63 116 63  64 117 64  64 117 64  64 118 64  64 118 64  65 119 65  65 119 65  65 119 65  65 120 65  66 120 66  66 121 66  66 121 66  66 121 66  66 122 66  67 122 67  67 122 67  67 123 67  67 123 67  67 123 67  67 124 67  68 124 68  68 124 68  68 124 68  68 124 68  68 124 68  68 125 68  68 125 68  68 125 68  68 125 68  68 125 68  68 125 68  68 125 68  68 125 68  68 125 68  68 125 68  68 125 68  68 125 68  68 124 68  68 124 68  68 124 68  68 124 68  68 124 68  67 124 67  67 123 67  67 123 67  67 123 67  67 122 67  67 122 67  66 122 66  66 121 66  66 121 66  66 121 66  66 120 66  65 120 65  65 119 65  65 119 65  65 119 65  64 118 64  64 118 64  64 117 64  64 117 64  63 116 63  63 116 63  63 115 63  62 114 62  62 114 62  62 113 62  62 113 62  61 112 61  61 112 61  61 111 61  60 110 60  233 105 105  183 85 85  103 48 48  184 91 91  231 105 105  228 103 103  201 110 110  184 88 88  218 100 100  221 103 103  224 115 115  231 134 134  239 152 152  241 159 159  232 147 147  206 113 113  190 91 91  211 124 124  230 147 147  213 125 125  189 93 93  178 82 82  175 80 80  172 78 78  124 57 57  148 67 67  165 75 75  141 64 64  47 24 24  84 84 103  85 85 104  86 86 105  87 87 106  87 87 107  88 88 108  89 89 109  89 89 110  90 90 110  91 91 111  91 91 112  92 92 113  93 93 114  93 93 114  94 94 115  94 94 116  95 95 116  95 95 117  96 96 118  97 97 118  97 97 119  98 98 120  98 98 120  99 99 121  99 99 121  99 99 122  100 100 122  100 100 123  101 101 123  101 101 124  
124 101 101  123 101 101  123 100 100  122 100 100  122 99 99  121 99 99  121 98 98  120 98 98  119 97 97  119 97 97  118 96 96  118 96 96  117 95 95  116 95 95  115 94 94  115 94 94  114 93 93  113 92 92  113 92 92  112 91 91  111 91 91  110 90 90  109 89 89  109 89 89  108 88 88  107 87 87  106 86 86  105 86 86  104 85 85  103 84 84  102 83 83  101 82 82  100 82 82  36 66 36  25 46 25  16 30 16  20 37 20  52 95 52  67 123 67  75 138 75  82 149 82  86 158 86  90 164 90  95 174 95  95 173 95  96 177 96  90 165 90  83 152 83  61 112 61  72 131 72  84 154 84  89 163 89  90 165 90  91 166 91  96 176 96  102 186 102  106 194 106  110 202 110  112 205 112  115 211 115  118 216 118  120 219 120  124 227 124  125 229 125  122 223 122  120 220 120  125 228 125  126 230 126  122 224 122  63 116 63  63 116 63  64 117 64  64 117 64  64 118 64  65 118 65  65 119 65  65 119 65  65 120 65  65 120 65  66 120 66  66 121 66  66 121 66  66 121 66  66 122 66  67 122 67  67 122 67  67 123 67  67 123 67  67 123 67  67 123 67  68 124 68  68 124 68  68 124 68  68 124 68  68 124 68  68 124 68  68 124 68  68 125 68  68 125 68  68 125 68  68 125 68  68 125 68  68 125 68  68 124 68  68 124 68  68 124 68  68 124 68  68 124 68  68 124 68  68 124 68  67 123 67  67 123 67  67 123 67  67 123 67  67 122 67  67 122 67  66 122 66  66 121 66  66 121 66  66 121 66  66 120 66  65 120 65  65 120 65  65 119 65  65 119 65  65 118 65  64 118 64  64 117 64  64 117 64  63 116 63  63 116 63  63 115 63  63 115 63  62 114 62  62 114 62  62 113 62  61 112 61  61 112 61  61 111 61  60 111 60  60 110 60  228 130 130  114 52 52  159 72 72  226 123 123  232 105 105  221 102 102  192 99 99  209 99 99  220 101 101  220 105 105  223 117 117  231 136 136  237 151 151  232 148 148  208 116 116  188 89 89  190 94 94  211 124 124  228 144 144  204 113 113  184 88 88  182 86 86  178 82 82  175 79 79  121 56 56  146 67 67  160 72 72  102 47 47  49 25 25  84 84 103  85 85 104  86 86 105  86 86 106  87 87 107  88 88 108  89 89 109  89 89 109  90 90 110  91 91 111  91 91 112  92 92 113  92 92 113  93 93 114  94 94 115  94 94 115  95 95 116  95 95 117  96 96 118  96 96 118  97 97 119  97 97 119  98 98 120  98 98 121  99 99 121  99 99 122  100 100 122  100 100 123  101 101 123  101 101 124  
124 101 101  123 100 100  123 100 100  122 100 100  121 99 99  121 99 99  120 98 98  120 98 98  119 97 97  119 97 97  118 96 96  117 96 96  117 95 95  116 95 95  115 94 94  115 93 93  114 93 93  113 92 92  112 92 92  112 91 91  111 90 90  110 90 90  109 89 89  108 88 88  107 88 88  107 87 87  106 86 86  105 85 85  104 85 85  103 84 84  102 83 83  101 82 82  100 81 81  99 81 81  98 80 80  97 79 79  95 78 78  31 57 31  60 109 60  69 126 69  76 138 76  81 147 81  84 154 84  87 159 87  90 164 90  94 172 94  96 175 96  90 164 90  82 151 82  56 102 56  67 122 67  76 139 76  83 152 83  86 158 86  93 170 93  98 180 98  103 189 103  108 197 108  112 205 112  114 209 114  115 211 115  120 220 120  125 228 125  126 231 126  126 231 126  127 233 127  129 236 129  130 238 130  63 115 63  63 115 63  63 116 63  64 116 64  64 117 64  64 117 64  64 118 64  65 118 65  65 119 65  65 119 65  65 120 65  66 120 66  66 120 66  66 121 66  66 121 66  66 121 66  66 122 66  67 122 67  67 122 67  67 123 67  67 123 67  67 123 67  67 123 67  67 124 67  68 124 68  68 124 68  68 124 68  68 124 68  68 124 68  68 124 68  68 124 68  68 124 68  68 124 68  68 124 68  68 124 68  68 124 68  68 124 68  68 124 68  68 124 68  68 124 68  67 124 67  67 123 67  67 123 67  67 123 67  67 123 67  67 122 67  67 122 67  66 122 66  66 121 66  66 121 66  66 121 66  66 120 66  66 120 66  65 120 65  65 119 65  65 119 65  65 118 65  64 118 64  64 117 64  64 117 64  64 116 64  63 116 63  63 115 63  63 115 63  62 114 62  62 114 62  62 113 62  62 113 62  61 112 61  61 112 61  61 111 61  60 110 60  236 108 108  172 78 78  99 46 46  201 106 106  234 106 106  227 103 103  208 111 111  171 78 78  218 101 101  219 101 101  219 105 105  222 119 119  229 136 136  233 147 147  210 119 119  189 91 91  177 80 80  191 97 97  211 124 124  220 134 134  196 102 102  175 80 80  186 91 91  182 86 86  178 82 82  119 55 55  148 67 67  154 70 70  128 58 58  52 26 26  84 84 103  85 85 104  85 85 105  86 86 106  87 87 107  88 88 107  88 88 108  89 89 109  90 90 110  90 90 111  91 91 112  92 92 112  92 92 113  93 93 114  93 93 115  94 94 115  95 95 116  95 95 117  96 96 117  96 96 118  97 97 119  97 97 119  98 98 120  98 98 120  99 99 121  99 99 121  100 100 122  100 100 123  100 100 123  101 101 124  
123 101 101  123 100 100  122 100 100  122 99 99  121 99 99  121 98 98  120 98 98  120 97 97  119 97 97  118 97 97  118 96 96  117 95 95  116 95 95  116 94 94  115 94 94  114 93 93  114 93 93  113 92 92  112 91 91  111 91 91  111 90 90  110 90 90  109 89 89  108 88 88  107 87 87  106 87 87  105 86 86  105 85 85  104 84 84  103 84 84  102 83 83  101 82 82  100 81 81  99 80 80  97 79 79  96 79 79  95 78 78  16 30 16  43 78 43  61 112 61  69 126 69  74 135 74  77 141 77  79 145 79  85 155 85  91 167 91  95 173 95  96 177 96  91 166 91  82 150 82  60 110 60  67 123 67  73 134 73  81 149 81  89 162 89  94 172 94  100 182 100  105 192 105  110 201 110  114 209 114  117 214 117  121 222 121  124 227 124  125 230 125  125 229 125  126 230 126  130 238 130  132 241 132  63 115 63  63 115 63  63 116 63  63 116 63  64 117 64  64 117 64  64 118 64  64 118 64  65 118 65  65 119 65  65 119 65  65 120 65  66 120 66  66 120 66  66 121 66  66 121 66  66 121 66  66 122 66  67 122 67  67 122 67  67 123 67  67 123 67  67 123 67  67 123 67  67 123 67  67 123 67  67 124 67  68 124 68  68 124 68  68 124 68  68 124 68  68 124 68  68 124 68  68 124 68  68 124 68  68 124 68  68 124 68  67 124 67  67 123 67  67 123 67  67 123 67  67 123 67  67 123 67  67 123 67  67 122 67  67 122 67  66 122 66  66 121 66  66 121 66  66 121 66  66 120 66  66 120 66  65 120 65  65 119 65  65 119 65  65 118 65  64 118 64  64 118 64  64 117 64  64 117 64  63 116 63  63 116 63  63 115 63  63 115 63  62 114 62  62 113 62  62 113 62  61 112 61  61 112 61  61 111 61  60 111 60  60 110 60  222 101 101  157 71 71  137 63 63  225 111 111  232 106 106  219 102 102  186 92 92  169 76 76  220 104 104  218 101 101  218 106 106  221 120 120  226 129 129  225 140 140  195 100 100  178 81 81  177 80 80  193 101 101  209 121 121  210 122 122  188 94 94  180 86 86  190 98 98  186 92 92  179 83 83  117 53 53  154 70 70  148 67 67  135 61 61  25 17 17  84 84 103  84 84 104  85 85 105  86 86 105  87 87 106  87 87 107  88 88 108  89 89 109  90 90 110  90 90 111  91 91 111  91 91 112  92 92 113  93 93 114  93 93 114  94 94 115  94 94 116  95 95 116  95 95 117  96 96 118  97 97 118  97 97 119  97 97 120  98 98 120  98 98 121  99 99 121  99 99 122  100 100 122  100 100 123  101 101 123  
123 100 100  123 100 100  122 100 100  122 99 99  121 99 99  120 98 98  120 98 98  119 97 97  119 97 97  118 96 96  117 96 96  117 95 95  116 95 95  116 94 94  115 94 94  114 93 93  113 92 92  113 92 92  112 91 91  111 91 91  110 90 90  110 89 89  109 89 89  108 88 88  107 87 87  106 87 87  105 86 86  104 85 85  103 84 84  102 83 83  101 83 83  100 82 82  99 81 81  98 80 80  97 79 79  96 78 78  95 78 78  94 77 77  16 30 16  53 96 53  61 111 61  64 118 64  67 124 67  72 131 72  82 149 82  88 162 88  92 169 92  95 174 95  99 182 99  92 168 92  88 161 88  75 137 75  75 137 75  83 153 83  92 168 92  95 174 95  99 181 99  102 187 102  106 194 106  110 201 110  115 210 115  120 219 120  122 224 122  124 227 124  123 225 123  122 222 122  125 229 125  132 241 132  62 114 62  63 115 63  63 115 63  63 116 63  63 116 63  64 117 64  64 117 64  64 118 64  64 118 64  65 119 65  65 119 65  65 119 65  65 120 65  66 120 66  66 120 66  66 121 66  66 121 66  66 121 66  66 122 66  67 122 67  67 122 67  67 122 67  67 123 67  67 123 67  67 123 67  67 123 67  67 123 67  67 123 67  67 123 67  67 124 67  67 124 67  67 124 67  67 124 67  67 124 67  67 124 67  67 123 67  67 123 67  67 123 67  67 123 67  67 123 67  67 123 67  67 123 67  67 122 67  67 122 67  67 122 67  66 122 66  66 121 66  66 121 66  66 121 66  66 120 66  66 120 66  65 120 65  65 119 65  65 119 65  65 119 65  64 118 64  64 118 64  64 117 64  64 117 64  63 116 63  63 116 63  63 115 63  63 115 63  62 114 62  62 114 62  62 113 62  61 113 61  61 112 61  61 111 61  61 111 61  60 110 60  215 97 97  217 121 121  138 63 63  209 110 110  235 107 107  227 103 103  211 102 102  184 90 90  211 97 97  217 101 101  216 100 100  216 107 107  219 113 113  222 124 124  216 129 129  185 87 87  169 76 76  178 82 82  194 103 103  207 118 118  202 111 111  182 87 87  188 96 96  194 104 104  190 98 98  166 75 75  116 53 53  155 70 70  141 64 64  121 55 55  9 13 13  83 83 102  84 84 103  85 85 104  86 86 105  87 87 106  87 87 107  88 88 108  89 89 109  89 89 110  90 90 110  91 91 111  91 91 112  92 92 113  92 92 113  93 93 114  94 94 115  94 94 116  95 95 116  95 95 117  96 96 117  96 96 118  97 97 119  97 97 119  98 98 120  98 98 120  99 99 121  99 99 122  100 100 122  100 100 123  100 100 123  
123 100 100  122 100 100  122 99 99  121 99 99  121 99 99  120 98 98  120 98 98  119 97 97  118 97 97  118 96 96  117 96 96  117 95 95  116 95 95  115 94 94  115 93 93  114 93 93  113 92 92  112 92 92  112 91 91  111 90 90  110 90 90  109 89 89  108 88 88  108 88 88  107 87 87  106 86 86  105 86 86  104 85 85  103 84 84  102 83 83  101 82 82  100 82 82  99 81 81  98 80 80  97 79 79  96 78 78  95 77 77  94 76 76  93 75 75  30 55 30  49 90 49  53 97 53  57 104 57  68 124 68  78 144 78  85 155 85  89 163 89  93 170 93  96 175 96  103 189 103  93 170 93  91 167 91  87 160 87  85 156 85  95 173 95  98 180 98  102 186 102  103 188 103  99 182 99  105 191 105  110 200 110  120 220 120  122 222 122  122 224 122  123 224 123  121 221 121  127 231 127  131 240 131  62 114 62  62 114 62  63 115 63  63 115 63  63 116 63  64 116 64  64 117 64  64 117 64  64 118 64  65 118 65  65 119 65  65 119 65  65 119 65  65 120 65  66 120 66  66 120 66  66 121 66  66 121 66  66 121 66  66 122 66  67 122 67  67 122 67  67 122 67  67 122 67  67 123 67  67 123 67  67 123 67  67 123 67  67 123 67  67 123 67  67 123 67  67 123 67  67 123 67  67 123 67  67 123 67  67 123 67  67 123 67  67 123 67  67 123 67  67 123 67  67 122 67  67 122 67  67 122 67  67 122 67  66 122 66  66 121 66  66 121 66  66 121 66  66 120 66  66 120 66  65 120 65  65 119 65  65 119 65  65 119 65  65 118 65  64 118 64  64 117 64  64 117 64  64 116 64  63 116 63  63 115 63  63 115 63  62 114 62  62 114 62  62 113 62  62 113 62  61 112 61  61 112 61  61 111 61  60 111 60  211 95 95  233 105 105  213 128 128  121 55 55  226 106 106  234 107 107  221 102 102  192 96 96  172 79 79  235 124 124  217 101 101  214 100 100  215 103 103  218 105 105  218 122 122  204 113 113  178 81 81  165 75 75  179 83 83  192 101 101  204 115 115  194 101 101  161 73 73  196 108 108  198 110 110  194 104 104  151 68 68  122 56 56  149 67 67  133 61 61  117 54 54  82 82 101  83 83 102  84 84 103  85 85 104  86 86 105  86 86 106  87 87 107  88 88 108  88 88 108  89 89 109  90 90 110  90 90 111  91 91 112  92 92 112  92 92 113  93 93 114  93 93 115  94 94 115  95 95 116  95 95 117  96 96 117  96 96 118  97 97 118  97 97 119  98 98 120  98 98 120  99 99 121  99 99 121  99 99 122  100 100 122  100 100 123  
123 100 100  122 100 100  122 99 99  121 99 99  121 98 98  120 98 98  119 97 97  119 97 97  118 96 96  118 96 96  117 95 95  116 95 95  116 94 94  115 94 94  114 93 93  114 93 93  113 92 92  112 92 92  111 91 91  111 90 90  110 90 90  109 89 89  108 88 88  107 88 88  107 87 87  106 86 86  105 85 85  104 85 85  103 84 84  102 83 83  101 82 82  100 81 81  99 81 81  98 80 80  97 79 79  96 78 78  95 77 77  93 76 76  92 75 75  16 30 16  23 43 23  38 70 38  49 90 49  64 116 64  75 137 75  81 148 81  86 157 86  90 164 90  93 170 93  99 181 99  106 194 106  102 186 102  98 178 98  98 179 98  97 177 97  99 181 99  100 184 100  102 187 102  104 190 104  109 200 109  114 209 114  121 221 121  123 226 123  126 230 126  126 230 126  121 221 121  125 229 125  62 113 62  62 114 62  62 114 62  63 115 63  63 115 63  63 116 63  63 116 63  64 117 64  64 117 64  64 117 64  64 118 64  65 118 65  65 119 65  65 119 65  65 119 65  65 120 65  66 120 66  66 120 66  66 121 66  66 121 66  66 121 66  66 122 66  66 122 66  67 122 67  67 122 67  67 122 67  67 122 67  67 123 67  67 123 67  67 123 67  67 123 67  67 123 67  67 123 67  67 123 67  67 123 67  67 123 67  67 123 67  67 123 67  67 123 67  67 122 67  67 122 67  67 122 67  67 122 67  66 122 66  66 122 66  66 121 66  66 121 66  66 121 66  66 120 66  66 120 66  65 120 65  65 119 65  65 119 65  65 119 65  65 118 65  64 118 64  64 117 64  64 117 64  64 117 64  63 116 63  63 116 63  63 115 63  63 115 63  62 114 62  62 114 62  62 113 62  61 112 61  61 112 61  61 111 61  60 111 60  206 93 93  232 104 104  245 120 120  183 90 90  173 78 78  225 106 106  230 105 105  213 100 100  175 81 81  161 73 73  212 99 99  216 100 100  215 99 99  217 100 100  215 104 104  211 117 117  191 98 98  172 78 78  161 73 73  180 85 85  190 98 98  202 112 112  186 92 92  165 75 75  206 117 117  203 114 114  197 108 108  130 59 59  127 58 58  142 64 64  125 57 57  81 81 100  82 82 101  83 83 102  84 84 103  85 85 104  85 85 105  86 86 106  87 87 107  88 88 107  88 88 108  89 89 109  90 90 110  90 90 111  91 91 111  92 92 112  92 92 113  93 93 114  93 93 114  94 94 115  94 94 116  95 95 116  95 95 117  96 96 118  96 96 118  97 97 119  97 97 119  98 98 120  98 98 121  99 99 121  99 99 122  100 100 122  100 100 123  
122 100 100  122 99 99  121 99 99  121 99 99  120 98 98  120 98 98  119 97 97  119 97 97  118 96 96  117 96 96  117 95 95  116 95 95  115 94 94  115 94 94  114 93 93  113 93 93  113 92 92  112 91 91  111 91 91  110 90 90  110 89 89  109 89 89  108 88 88  107 87 87  106 87 87  105 86 86  104 85 85  104 84 84  103 84 84  102 83 83  101 82 82  100 81 81  99 80 80  98 80 80  97 79 79  95 78 78  94 77 77  93 76 76  92 75 75  91 74 74  16 30 16  16 30 16  40 74 40  59 108 59  70 128 70  77 140 77  82 150 82  87 159 87  90 165 90  93 170 93  101 185 101  108 197 108  101 185 101  101 185 101  102 187 102  104 190 104  105 192 105  107 196 107  109 199 109  113 207 113  118 217 118  124 226 124  128 234 128  129 235 129  125 228 125  109 200 109  61 112 61  61 113 61  62 113 62  62 114 62  62 114 62  63 115 63  63 115 63  63 116 63  63 116 63  64 117 64  64 117 64  64 117 64  64 118 64  65 118 65  65 119 65  65 119 65  65 119 65  65 120 65  66 120 66  66 120 66  66 121 66  66 121 66  66 121 66  66 121 66  66 122 66  66 122 66  67 122 67  67 122 67  67 122 67  67 122 67  67 122 67  67 122 67  67 123 67  67 123 67  67 123 67  67 123 67  67 122 67  67 122 67  67 122 67  67 122 67  67 122 67  67 122 67  66 122 66  66 122 66  66 121 66  66 121 66  66 121 66  66 121 66  66 120 66  66 120 66  65 120 65  65 119 65  65 119 65  65 119 65  65 118 65  64 118 64  64 117 64  64 117 64  64 117 64  63 116 63  63 116 63  63 115 63  63 115 63  62 114 62  62 114 62  62 113 62  61 113 61  61 112 61  61 112 61  61 111 61  60 110 60  235 105 105  254 140 140  224 109 109  167 76 76  169 76 76  224 108 108  224 103 103  199 96 96  174 81 81  213 99 99  212 99 99  218 102 102  219 103 103  219 102 102  211 104 104  202 109 109  182 87 87  165 75 75  156 71 71  181 89 89  188 96 96  198 108 108  180 86 86  169 77 77  209 116 116  206 115 115  188 97 97  107 49 49  144 65 65  135 61 61  116 53 53  81 81 100  82 82 101  83 83 102  84 84 103  84 84 104  85 85 104  86 86 105  87 87 106  87 87 107  88 88 108  89 89 109  89 89 110  90 90 110  91 91 111  91 91 112  92 92 113  93 93 113  93 93 114  94 94 115  94 94 115  95 95 116  95 95 117  96 96 117  96 96 118  97 97 119  97 97 119  98 98 120  98 98 120  99 99 121  99 99 121  99 99 122  100 100 122  
122 100 100  122 99 99  121 99 99  121 98 98  120 98 98  119 97 97  119 97 97  118 97 97  118 96 96  117 96 96  117 95 95  116 95 95  115 94 94  115 93 93  114 93 93  113 92 92  112 92 92  112 91 91  111 91 91  110 90 90  109 89 89  109 89 89  108 88 88  107 87 87  106 86 86  105 86 86  104 85 85  103 84 84  102 84 84  101 83 83  100 82 82  99 81 81  98 80 80  97 79 79  96 79 79  95 78 78  94 77 77  93 76 76  92 75 75  91 74 74  89 73 73  16 30 16  23 42 23  48 88 48  66 121 66  74 136 74  79 145 79  84 154 84  87 160 87  90 165 90  94 172 94  100 184 100  104 190 104  105 193 105  107 195 107  108 198 108  110 201 110  111 203 111  113 207 113  117 214 117  121 221 121  127 232 127  132 242 132  134 246 134  124 227 124  61 111 61  61 112 61  61 112 61  62 113 62  62 113 62  62 114 62  62 114 62  63 115 63  63 115 63  63 116 63  63 116 63  64 117 64  64 117 64  64 118 64  64 118 64  65 118 65  65 119 65  65 119 65  65 119 65  65 120 65  66 120 66  66 120 66  66 121 66  66 121 66  66 121 66  66 121 66  66 121 66  66 122 66  66 122 66  67 122 67  67 122 67  67 122 67  67 122 67  67 122 67  67 122 67  67 122 67  67 122 67  67 122 67  67 122 67  67 122 67  67 122 67  66 122 66  66 122 66  66 121 66  66 121 66  66 121 66  66 121 66  66 121 66  66 120 66  66 120 66  65 120 65  65 119 65  65 119 65  65 119 65  65 118 65  64 118 64  64 118 64  64 117 64  64 117 64  63 116 63  63 116 63  63 115 63  63 115 63  62 114 62  62 114 62  62 113 62  62 113 62  61 112 61  61 112 61  61 111 61  60 111 60  245 110 110  251 142 142  201 91 91  161 73 73  135 62 62  187 91 91  221 108 108  215 100 100  177 84 84  177 82 82  221 113 113  209 97 97  225 112 112  226 112 112  215 99 99  206 102 102  192 100 100  175 80 80  155 70 70  152 69 69  182 90 90  186 93 93  191 98 98  143 65 65  173 81 81  208 112 112  203 112 112  180 87 87  83 39 39  143 65 65  127 58 58  80 80 98  81 81 99  82 82 100  83 83 101  84 84 102  84 84 103  85 85 104  86 86 105  86 86 106  87 87 107  88 88 108  89 89 109  89 89 109  90 90 110  91 91 111  91 91 112  92 92 112  92 92 113  93 93 114  93 93 115  94 94 115  95 95 116  95 95 117  96 96 117  96 96 118  97 97 118  97 97 119  97 97 119  98 98 120  98 98 121  99 99 121  99 99 122  100 100 122  
122 99 99  121 99 99  121 99 99  120 98 98  120 98 98  119 97 97  119 97 97  118 96 96  117 96 96  117 95 95  116 95 95  116 94 94  115 94 94  114 93 93  114 93 93  113 92 92  112 92 92  111 91 91  111 90 90  110 90 90  109 89 89  108 88 88  108 88 88  107 87 87  106 86 86  105 86 86  104 85 85  103 84 84  102 83 83  101 83 83  100 82 82  99 81 81  98 80 80  97 79 79  96 78 78  95 77 77  94 77 77  93 76 76  92 75 75  90 74 74  89 73 73  16 30 16  23 43 23  50 92 50  64 117 64  73 134 73  81 147 81  84 154 84  87 160 87  90 165 90  95 174 95  101 186 101  106 193 106  106 195 106  109 199 109  111 203 111  113 207 113  116 213 116  119 217 119  121 222 121  124 227 124  130 238 130  137 250 137  138 253 138  60 110 60  61 111 61  61 111 61  61 112 61  61 112 61  62 113 62  62 114 62  62 114 62  62 115 62  63 115 63  63 115 63  63 116 63  63 116 63  64 117 64  64 117 64  64 118 64  64 118 64  65 118 65  65 119 65  65 119 65  65 119 65  65 120 65  65 120 65  66 120 66  66 120 66  66 121 66  66 121 66  66 121 66  66 121 66  66 121 66  66 122 66  66 122 66  66 122 66  66 122 66  66 122 66  67 122 67  67 122 67  66 122 66  66 122 66  66 122 66  66 122 66  66 122 66  66 121 66  66 121 66  66 121 66  66 121 66  66 121 66  66 120 66  66 120 66  65 120 65  65 120 65  65 119 65  65 119 65  65 119 65  65 118 65  64 118 64  64 118 64  64 117 64  64 117 64  63 116 63  63 116 63  63 115 63  63 115 63  62 115 62  62 114 62  62 114 62  62 113 62  61 112 61  61 112 61  61 111 61  61 111 61  250 113 113  229 117 117  181 82 82  153 69 69  137 62 62  174 81 81  227 146 146  216 105 105  203 96 96  165 75 75  164 75 75  205 96 96  211 100 100  234 126 126  228 116 116  210 97 97  199 98 98  184 90 90  169 77 77  142 65 65  147 67 67  181 90 90  184 91 91  184 91 91  146 66 66  179 88 88  207 106 106  194 105 105  173 80 80  90 42 42  136 62 62  119 54 54  80 80 98  81 81 99  82 82 100  83 83 101  83 83 102  84 84 103  85 85 104  86 86 105  86 86 106  87 87 107  88 88 108  88 88 108  89 89 109  90 90 110  90 90 111  91 91 111  92 92 112  92 92 113  93 93 114  93 93 114  94 94 115  94 94 116  95 95 116  95 95 117  96 96 117  96 96 118  97 97 119  97 97 119  98 98 120  98 98 120  99 99 121  99 99 121  99 99 122  
122 99 99  121 99 99  121 98 98  120 98 98  120 98 98  119 97 97  118 97 97  118 96 96  117 96 96  117 95 95  116 95 95  115 94 94  115 94 94  114 93 93  113 92 92  113 92 92  112 91 91  111 91 91  110 90 90  110 89 89  109 89 89  108 88 88  107 87 87  106 87 87  106 86 86  105 85 85  104 85 85  103 84 84  102 83 83  101 82 82  100 82 82  99 81 81  98 80 80  97 79 79  96 78 78  95 77 77  94 76 76  93 75 75  91 75 75  90 74 74  89 73 73  88 72 72  36 66 36  43 79 43  68 125 68  76 140 76  82 151 82  87 159 87  90 164 90  92 168 92  98 179 98  104 190 104  107 196 107  107 196 107  108 198 108  111 203 111  115 210 115  119 218 119  122 223 122  125 228 125  127 233 127  132 241 132  139 254 139  139 254 139  136 249 136  60 111 60  61 111 61  61 112 61  61 112 61  61 113 61  62 113 62  62 114 62  62 114 62  63 115 63  63 115 63  63 116 63  63 116 63  64 116 64  64 117 64  64 117 64  64 118 64  64 118 64  65 118 65  65 119 65  65 119 65  65 119 65  65 120 65  65 120 65  66 120 66  66 120 66  66 121 66  66 121 66  66 121 66  66 121 66  66 121 66  66 121 66  66 121 66  66 121 66  66 121 66  66 121 66  66 121 66  66 121 66  66 121 66  66 121 66  66 121 66  66 121 66  66 121 66  66 121 66  66 121 66  66 121 66  66 120 66  66 120 66  65 120 65  65 120 65  65 119 65  65 119 65  65 119 65  65 118 65  64 118 64  64 118 64  64 117 64  64 117 64  64 116 64  63 116 63  63 116 63  63 115 63  63 115 63  62 114 62  62 114 62  62 113 62  61 113 61  61 112 61  61 112 61  61 111 61  60 111 60  216 104 104  174 82 82  156 71 71  171 78 78  161 73 73  198 106 106  237 159 159  211 100 100  183 86 86  165 75 75  200 92 92  197 90 90  247 148 148  243 140 140  223 111 111  205 94 94  192 93 93  177 83 83  161 73 73  127 58 58  148 67 67  180 89 89  182 89 89  178 85 85  142 64 64  177 87 87  205 108 108  185 95 95  168 76 76  114 53 53  128 59 59  115 53 53  80 80 98  81 81 99  82 82 100  82 82 101  83 83 102  84 84 103  85 85 104  85 85 105  86 86 106  87 87 106  87 87 107  88 88 108  89 89 109  89 89 110  90 90 110  91 91 111  91 91 112  92 92 113  92 92 113  93 93 114  94 94 115  94 94 115  95 95 116  95 95 117  96 96 117  96 96 118  97 97 118  97 97 119  98 98 120  98 98 120  98 98 121  99 99 121  99 99 122  
121 99 99  121 99 99  120 98 98  120 98 98  119 97 97  119 97 97  118 96 96  118 96 96  117 95 95  116 95 95  116 94 94  115 94 94  114 93 93  114 93 93  113 92 92  112 92 92  112 91 91  111 91 91  110 90 90  109 89 89  109 89 89  108 88 88  107 87 87  106 87 87  105 86 86  104 85 85  104 84 84  103 84 84  102 83 83  101 82 82  100 81 81  99 80 80  98 80 80  97 79 79  96 78 78  94 77 77  93 76 76  92 75 75  91 74 74  90 73 73  89 72 72  88 71 71  49 90 49  53 98 53  63 116 63  79 144 79  85 155 85  90 164 90  93 170 93  95 173 95  101 184 101  107 196 107  109 200 109  109 199 109  108 197 108  111 202 111  115 211 115  120 219 120  123 225 123  126 230 126  129 235 129  133 242 133  139 254 139  140 255 140  132 242 132  60 110 60  60 111 60  61 111 61  61 112 61  61 112 61  62 113 62  62 113 62  62 114 62  62 114 62  63 115 63  63 115 63  63 116 63  63 116 63  64 116 64  64 117 64  64 117 64  64 118 64  64 118 64  65 118 65  65 119 65  65 119 65  65 119 65  65 119 65  65 120 65  65 120 65  66 120 66  66 120 66  66 121 66  66 121 66  66 121 66  66 121 66  66 121 66  66 121 66  66 121 66  66 121 66  66 121 66  66 121 66  66 121 66  66 121 66  66 121 66  66 121 66  66 121 66  66 121 66  66 120 66  66 120 66  65 120 65  65 120 65  65 119 65  65 119 65  65 119 65  65 119 65  65 118 65  64 118 64  64 118 64  64 117 64  64 117 64  64 116 64  63 116 63  63 116 63  63 115 63  63 115 63  62 114 62  62 114 62  62 113 62  62 113 62  61 112 61  61 112 61  61 111 61  60 111 60  255 188 188  206 102 102  149 68 68  139 63 63  188 87 87  230 150 150  219 130 130  232 152 152  205 95 95  167 76 76  166 75 75  200 93 93  181 82 82  239 126 126  243 142 142  216 105 105  200 92 92  184 88 88  171 78 78  151 68 68  108 50 50  158 72 72  180 88 88  181 88 88  153 69 69  135 61 61  176 86 86  201 106 106  177 86 86  163 74 74  133 61 61  123 56 56  112 52 52  80 80 98  80 80 99  81 81 100  82 82 101  83 83 102  84 84 103  84 84 104  85 85 104  86 86 105  87 87 106  87 87 107  88 88 108  89 89 109  89 89 109  90 90 110  91 91 111  91 91 112  92 92 112  92 92 113  93 93 114  93 93 114  94 94 115  94 94 116  95 95 116  95 95 117  96 96 118  96 96 118  97 97 119  97 97 119  98 98 120  98 98 120  99 99 121  99 99 121  
121 99 99  121 98 98  120 98 98  120 98 98  119 97 97  118 97 97  118 96 96  117 96 96  117 95 95  116 95 95  115 94 94  115 94 94  114 93 93  114 93 93  113 92 92  112 91 91  111 91 91  111 90 90  110 90 90  109 89 89  108 88 88  108 88 88  107 87 87  106 86 86  105 86 86  104 85 85  103 84 84  102 83 83  101 83 83  100 82 82  99 81 81  98 80 80  97 79 79  96 79 79  95 78 78  94 77 77  93 76 76  92 75 75  91 74 74  90 73 73  89 72 72  87 71 71  62 114 62  64 117 64  58 107 58  73 134 73  86 158 86  91 167 91  95 174 95  98 179 98  104 190 104  110 201 110  111 203 111  110 202 110  108 198 108  109 199 109  115 210 115  119 218 119  123 225 123  126 230 126  128 234 128  131 240 131  137 251 137  141 255 141  60 109 60  60 110 60  60 110 60  61 111 61  61 111 61  61 112 61  61 112 61  62 113 62  62 113 62  62 114 62  62 114 62  63 115 63  63 115 63  63 116 63  63 116 63  64 116 64  64 117 64  64 117 64  64 118 64  64 118 64  65 118 65  65 119 65  65 119 65  65 119 65  65 119 65  65 120 65  65 120 65  65 120 65  66 120 66  66 120 66  66 120 66  66 121 66  66 121 66  66 121 66  66 121 66  66 121 66  66 121 66  66 121 66  66 121 66  66 121 66  66 121 66  66 120 66  66 120 66  66 120 66  65 120 65  65 120 65  65 120 65  65 119 65  65 119 65  65 119 65  65 119 65  65 118 65  64 118 64  64 118 64  64 117 64  64 117 64  64 116 64  63 116 63  63 116 63  63 115 63  63 115 63  62 114 62  62 114 62  62 113 62  62 113 62  61 112 61  61 112 61  61 111 61  61 111 61  253 114 114  255 144 144  255 168 168  157 71 71  159 72 72  207 104 104  223 123 123  199 102 102  168 76 76  182 83 83  156 71 71  174 79 79  168 76 76  206 102 102  252 152 152  238 138 138  210 99 99  194 89 89  177 83 83  165 75 75  139 63 63  86 40 40  191 87 87  179 87 87  179 86 86  146 66 66  134 61 61  174 84 84  198 102 102  171 79 79  156 70 70  130 59 59  120 55 55  79 79 96  79 79 97  80 80 98  81 81 99  82 82 100  83 83 101  83 83 102  84 84 103  85 85 104  86 86 105  86 86 106  87 87 107  88 88 108  88 88 108  89 89 109  90 90 110  90 90 111  91 91 111  91 91 112  92 92 113  93 93 114  93 93 114  94 94 115  94 94 115  95 95 116  95 95 117  96 96 117  96 96 118  97 97 118  97 97 119  98 98 120  98 98 120  98 98 121  99 99 121  
121 99 99  120 98 98  120 98 98  119 97 97  119 97 97  118 96 96  118 96 96  117 95 95  116 95 95  116 95 95  115 94 94  115 93 93  114 93 93  113 92 92  113 92 92  112 91 91  111 91 91  110 90 90  110 89 89  109 89 89  108 88 88  107 88 88  106 87 87  106 86 86  105 85 85  104 85 85  103 84 84  102 83 83  101 82 82  100 82 82  99 81 81  98 80 80  97 79 79  96 78 78  95 78 78  94 77 77  93 76 76  92 75 75  91 74 74  89 73 73  88 72 72  73 133 73  73 133 73  67 123 67  60 110 60  68 125 68  82 151 82  90 165 90  93 171 93  95 175 95  101 185 101  108 197 108  110 202 110  109 199 109  108 197 108  106 194 106  109 200 109  116 212 116  121 222 121  124 228 124  128 233 128  131 239 131  134 245 134  138 253 138  140 255 140  60 109 60  60 110 60  60 111 60  61 111 61  61 112 61  61 112 61  61 113 61  62 113 62  62 114 62  62 114 62  62 114 62  63 115 63  63 115 63  63 116 63  63 116 63  64 116 64  64 117 64  64 117 64  64 118 64  64 118 64  64 118 64  65 118 65  65 119 65  65 119 65  65 119 65  65 119 65  65 120 65  65 120 65  65 120 65  66 120 66  66 120 66  66 120 66  66 120 66  66 120 66  66 120 66  66 120 66  66 120 66  66 120 66  66 120 66  66 120 66  66 120 66  65 120 65  65 120 65  65 120 65  65 119 65  65 119 65  65 119 65  65 119 65  65 118 65  64 118 64  64 118 64  64 118 64  64 117 64  64 117 64  64 116 64  63 116 63  63 116 63  63 115 63  63 115 63  62 114 62  62 114 62  62 114 62  62 113 62  61 113 61  61 112 61  61 112 61  61 111 61  60 111 60  60 110 60  248 113 113  255 196 196  144 65 65  177 80 80  217 102 102  192 103 103  150 68 68  175 79 79  159 72 72  157 71 71  185 83 83  140 63 63  241 132 132  253 156 156  230 127 127  204 94 94  187 86 86  171 78 78  156 71 71  126 57 57  129 59 59  218 120 120  178 87 87  176 83 83  138 63 63  132 60 60  173 83 83  196 99 99  165 75 75  141 64 64  126 58 58  117 53 53  78 78 96  79 79 97  80 80 98  81 81 99  82 82 100  82 82 101  83 83 102  84 84 103  85 85 104  85 85 105  86 86 106  87 87 106  88 88 107  88 88 108  89 89 109  89 89 110  90 90 110  91 91 111  91 91 112  92 92 113  92 92 113  93 93 114  93 93 115  94 94 115  95 95 116  95 95 116  95 95 117  96 96 118  96 96 118  97 97 119  97 97 119  98 98 120  98 98 120  99 99 121  
121 98 98  120 98 98  120 97 97  119 97 97  118 97 97  118 96 96  117 96 96  117 95 95  116 95 95  116 94 94  115 94 94  114 93 93  114 93 93  113 92 92  112 92 92  112 91 91  111 90 90  110 90 90  109 89 89  109 89 89  108 88 88  107 87 87  106 87 87  105 86 86  105 85 85  104 85 85  103 84 84  102 83 83  101 82 82  100 81 81  99 81 81  98 80 80  97 79 79  96 78 78  95 77 77  94 76 76  93 76 76  91 75 75  90 74 74  89 73 73  77 140 77  78 142 78  75 138 75  69 126 69  63 115 63  60 110 60  72 133 72  82 151 82  89 163 89  93 171 93  98 180 98  105 193 105  109 200 109  108 197 108  107 196 107  106 193 106  106 193 106  110 201 110  116 213 116  120 219 120  122 224 122  126 230 126  130 237 130  134 245 134  140 255 140  60 109 60  60 110 60  60 110 60  60 111 60  61 111 61  61 112 61  61 112 61  61 113 61  62 113 62  62 114 62  62 114 62  62 114 62  63 115 63  63 115 63  63 116 63  63 116 63  64 116 64  64 117 64  64 117 64  64 117 64  64 118 64  64 118 64  65 118 65  65 119 65  65 119 65  65 119 65  65 119 65  65 119 65  65 120 65  65 120 65  65 120 65  65 120 65  65 120 65  65 120 65  65 120 65  92 92 207  89 89 200  83 83 186  67 67 149  65 120 65  65 120 65  65 120 65  65 119 65  65 119 65  65 119 65  65 119 65  65 119 65  65 118 65  64 118 64  64 118 64  64 117 64  64 117 64  64 117 64  64 116 64  63 116 63  63 116 63  63 115 63  63 115 63  62 114 62  62 114 62  62 114 62  62 113 62  61 113 61  61 112 61  61 112 61  61 111 61  60 111 60  60 110 60  60 110 60  226 102 102  255 194 194  149 68 68  194 89 89  162 73 73  121 55 55  97 45 45  158 72 72  150 68 68  156 71 71  195 91 91  231 138 138  252 147 147  251 154 154  220 115 115  197 90 90  181 83 83  166 75 75  146 66 66  108 50 50  145 66 66  221 125 125  178 86 86  165 75 75  136 62 62  131 60 60  173 82 82  193 96 96  160 72 72  123 56 56  123 56 56  113 52 52  78 78 96  79 79 97  80 80 98  81 81 99  81 81 100  82 82 101  83 83 102  84 84 103  85 85 104  85 85 105  86 86 105  87 87 106  87 87 107  88 88 108  89 89 109  89 89 109  90 90 110  90 90 111  91 91 112  92 92 112  92 92 113  93 93 114  93 93 114  94 94 115  94 94 116  95 95 116  95 95 117  96 96 117  96 96 118  97 97 118  97 97 119  97 97 120  98 98 120  98 98 121  
120 98 98  120 98 98  119 97 97  119 97 97  118 96 96  118 96 96  117 96 96  116 95 95  116 95 95  115 94 94  115 94 94  114 93 93  113 92 92  113 92 92  112 91 91  111 91 91  111 90 90  110 90 90  109 89 89  108 88 88  108 88 88  107 87 87  106 86 86  105 86 86  104 85 85  103 84 84  102 84 84  102 83 83  101 82 82  100 81 81  99 80 80  98 80 80  97 79 79  96 78 78  95 77 77  93 76 76  92 75 75  91 74 74  90 73 73  78 143 78  81 148 81  81 149 81  77 141 77  71 129 71  65 119 65  63 116 63  77 141 77  85 156 85  89 162 89  91 166 91  94 171 94  103 188 103  108 198 108  107 197 107  106 195 106  105 192 105  106 193 106  107 197 107  110 201 110  112 205 112  115 211 115  118 216 118  125 228 125  130 239 130  135 248 135  141 255 141  60 109 60  60 110 60  60 110 60  60 111 60  61 111 61  61 112 61  61 112 61  62 113 62  62 113 62  62 114 62  62 114 62  62 114 62  63 115 63  63 115 63  63 116 63  63 116 63  64 116 64  64 117 64  64 117 64  64 117 64  64 118 64  64 118 64  64 118 64  65 118 65  65 119 65  65 119 65  65 119 65  65 119 65  65 119 65  65 119 65  65 119 65  65 119 65  65 120 65  96 96 214  90 90 202  79 79 176  70 70 157  82 82 183  152 152 172  65 119 65  65 119 65  65 119 65  65 119 65  65 119 65  65 118 65  64 118 64  64 118 64  64 118 64  64 117 64  64 117 64  64 117 64  64 116 64  63 116 63  63 116 63  63 115 63  63 115 63  62 114 62  62 114 62  62 114 62  62 113 62  62 113 62  61 112 61  61 112 61  61 111 61  60 111 60  60 110 60  60 110 60  60 109 60  59 109 59  210 103 103  160 73 73  220 118 118  136 62 62  80 38 38  143 65 65  162 73 73  150 68 68  155 70 70  176 80 80  241 123 123  255 157 157  244 146 146  211 103 103  190 86 86  175 79 79  159 72 72  134 61 61  89 42 42  159 72 72  223 129 129  178 86 86  160 72 72  135 62 62  129 59 59  167 78 78  191 93 93  154 70 70  128 58 58  120 55 55  77 77 95  78 78 96  79 79 97  80 80 98  80 80 99  81 81 100  82 82 101  83 83 102  84 84 102  84 84 103  85 85 104  86 86 105  86 86 106  87 87 107  88 88 108  88 88 108  89 89 109  90 90 110  90 90 111  91 91 111  91 91 112  92 92 113  92 92 113  93 93 114  94 94 115  94 94 115  95 95 116  95 95 116  96 96 117  96 96 118  96 96 118  97 97 119  97 97 119  98 98 120  98 98 120  
120 98 98  119 97 97  119 97 97  118 97 97  118 96 96  117 96 96  117 95 95  116 95 95  116 94 94  115 94 94  114 93 93  114 93 93  113 92 92  112 92 92  112 91 91  111 91 91  110 90 90  110 89 89  109 89 89  108 88 88  107 88 88  106 87 87  106 86 86  105 85 85  104 85 85  103 84 84  102 83 83  101 83 83  100 82 82  99 81 81  98 80 80  97 79 79  96 79 79  95 78 78  94 77 77  93 76 76  92 75 75  91 74 74  72 133 72  82 150 82  83 152 83  83 151 83  80 147 80  74 135 74  68 125 68  62 113 62  75 137 75  85 156 85  90 165 90  92 169 92  92 169 92  97 177 97  102 187 102  100 183 100  99 181 99  100 183 100  102 187 102  105 193 105  109 199 109  111 204 111  113 207 113  114 209 114  121 222 121  127 233 127  133 243 133  137 251 137  138 253 138  60 109 60  60 110 60  60 110 60  61 111 61  61 111 61  61 112 61  61 112 61  62 113 62  62 113 62  62 114 62  62 114 62  62 115 62  63 115 63  63 115 63  63 116 63  63 116 63  63 116 63  64 117 64  64 117 64  64 117 64  64 118 64  71 71 159  69 69 156  54 54 122  65 118 65  65 119 65  65 119 65  65 119 65  65 119 65  65 119 65  92 92 207  93 93 209  90 90 202  80 80 179  71 71 158  74 74 165  76 76 171  66 66 148  65 119 65  65 119 65  65 119 65  65 118 65  65 118 65  64 118 64  64 118 64  64 118 64  64 117 64  64 117 64  64 117 64  63 116 63  63 116 63  63 116 63  63 115 63  63 115 63  62 115 62  62 114 62  62 114 62  62 113 62  62 113 62  61 112 61  61 112 61  61 111 61  61 111 61  60 110 60  60 110 60  60 109 60  59 109 59  59 108 59  162 73 73  186 86 86  198 95 95  123 56 56  82 39 39  189 87 87  166 75 75  143 65 65  157 71 71  248 158 158  246 133 133  255 163 163  234 133 133  202 94 94  184 83 83  168 76 76  150 68 68  121 55 55  125 57 57  192 87 87  225 133 133  178 85 85  154 70 70  134 61 61  128 58 58  162 74 74  189 90 90  150 68 68  125 57 57  116 53 53  77 77 94  78 78 95  79 79 96  79 79 97  80 80 98  81 81 99  82 82 100  83 83 101  83 83 102  84 84 103  85 85 104  85 85 105  86 86 106  87 87 106  88 88 107  88 88 108  89 89 109  89 89 110  90 90 110  91 91 111  91 91 112  92 92 112  92 92 113  93 93 114  93 93 114  94 94 115  94 94 116  95 95 116  95 95 117  96 96 117  96 96 118  97 97 118  97 97 119  97 97 119  98 98 120  
120 98 98  119 97 97  119 97 97  118 96 96  118 96 96  117 95 95  117 95 95  116 95 95  115 94 94  115 94 94  114 93 93  113 93 93  113 92 92  112 91 91  111 91 91  111 90 90  110 90 90  109 89 89  109 89 89  108 88 88  107 87 87  106 87 87  105 86 86  105 85 85  104 85 85  103 84 84  102 83 83  101 82 82  100 82 82  99 81 81  98 80 80  97 79 79  96 78 78  95 78 78  94 77 77  93 76 76  92 75 75  79 144 79  82 150 82  84 154 84  84 154 84  83 153 83  81 149 81  78 142 78  73 133 73  66 121 66  68 125 68  76 139 76  80 147 80  86 157 86  89 163 89  90 165 90  94 172 94  91 167 91  92 169 92  94 172 94  97 178 97  102 187 102  107 195 107  110 201 110  112 205 112  114 208 114  117 215 117  123 225 123  126 231 126  129 236 129  132 242 132  134 246 134  60 110 60  60 110 60  60 111 60  61 111 61  61 111 61  61 112 61  61 112 61  62 113 62  62 113 62  62 114 62  62 114 62  62 114 62  63 115 63  63 115 63  63 116 63  63 116 63  63 116 63  64 117 64  64 117 64  73 73 163  83 83 187  150 150 255  255 255 255  255 255 255  64 118 64  65 118 65  65 118 65  85 85 190  111 111 223  92 92 207  90 90 201  81 81 182  78 78 175  81 81 182  83 83 186  81 81 182  70 70 157  65 118 65  65 118 65  64 118 64  64 118 64  64 118 64  64 118 64  64 117 64  64 117 64  64 117 64  64 117 64  63 116 63  63 116 63  63 116 63  63 115 63  63 115 63  62 114 62  62 114 62  62 114 62  62 113 62  62 113 62  61 112 61  61 112 61  61 111 61  61 111 61  60 111 60  60 110 60  60 110 60  59 109 59  59 108 59  59 108 59  199 93 93  192 88 88  140 63 63  109 50 50  147 67 67  192 89 89  170 77 77  137 62 62  166 75 75  238 112 112  253 145 145  255 163 163  221 117 117  186 84 84  167 75 75  156 71 71  138 63 63  106 49 49  140 64 64  196 91 91  227 136 136  178 85 85  147 67 67  132 60 60  126 58 58  156 71 71  187 88 88  149 68 68  121 56 56  113 52 52  77 77 94  78 78 95  78 78 96  79 79 97  80 80 98  81 81 99  82 82 100  82 82 101  83 83 102  84 84 103  85 85 104  85 85 105  86 86 105  87 87 106  87 87 107  88 88 108  89 89 109  89 89 109  90 90 110  90 90 111  91 91 111  91 91 112  92 92 113  93 93 113  93 93 114  94 94 115  94 94 115  95 95 116  95 95 117  95 95 117  96 96 118  96 96 118  97 97 119  97 97 119  98 98 120  
119 97 97  119 97 97  118 97 97  118 96 96  117 96 96  117 95 95  116 95 95  116 94 94  115 94 94  114 93 93  114 93 93  113 92 92  113 92 92  112 91 91  111 91 91  110 90 90  110 90 90  109 89 89  108 88 88  108 88 88  107 87 87  106 86 86  105 86 86  104 85 85  103 84 84  103 84 84  102 83 83  101 82 82  100 81 81  99 81 81  98 80 80  97 79 79  96 78 78  95 77 77  94 76 76  63 115 63  86 158 86  90 165 90  89 162 89  86 157 86  85 156 85  84 153 84  82 149 82  78 143 78  76 139 76  70 128 70  55 101 55  76 138 76  85 155 85  91 167 91  93 170 93  88 161 88  89 163 89  87 159 87  87 160 87  88 162 88  92 168 92  98 180 98  103 189 103  107 196 107  110 202 110  113 207 113  114 209 114  114 209 114  113 208 113  115 211 115  122 223 122  129 236 129  137 250 137  144 255 144  60 110 60  60 111 60  61 111 61  61 112 61  61 112 61  61 112 61  62 113 62  62 113 62  62 114 62  62 114 62  62 114 62  63 115 63  63 115 63  63 116 63  63 116 63  63 116 63  64 116 64  79 79 177  85 85 190  197 197 255  255 255 255  255 255 255  64 118 64  64 118 64  89 89 201  132 132 235  92 92 207  88 88 198  82 82 184  84 84 188  88 88 198  89 89 199  85 85 190  78 78 175  62 62 140  64 118 64  64 118 64  64 118 64  64 118 64  64 117 64  64 117 64  64 117 64  64 117 64  64 116 64  63 116 63  63 116 63  63 116 63  63 115 63  63 115 63  62 114 62  62 114 62  62 114 62  62 113 62  62 113 62  61 112 61  61 112 61  61 112 61  61 111 61  60 111 60  60 110 60  60 110 60  60 109 60  59 109 59  59 108 59  59 108 59  58 107 58  155 70 70  89 41 41  68 33 33  197 93 93  196 92 92  149 68 68  134 61 61  194 90 90  255 155 155  233 141 141  187 86 86  169 76 76  171 77 77  162 73 73  141 64 64  114 53 53  99 46 46  151 68 68  202 98 98  228 138 138  178 84 84  140 64 64  131 60 60  125 57 57  149 68 68  182 86 86  144 65 65  118 54 54  114 52 52  76 76 94  77 77 95  78 78 96  79 79 97  80 80 98  81 81 99  81 81 100  82 82 101  83 83 102  84 84 103  84 84 103  85 85 104  86 86 105  86 86 106  87 87 107  88 88 108  88 88 108  89 89 109  90 90 110  90 90 110  91 91 111  91 91 112  92 92 113  92 92 113  93 93 114  93 93 114  94 94 115  94 94 116  95 95 116  95 95 117  96 96 117  96 96 118  97 97 118  97 97 119  97 97 119  
119 97 97  119 97 97  118 96 96  118 96 96  117 95 95  116 95 95  116 95 95  115 94 94  115 94 94  114 93 93  114 93 93  113 92 92  112 92 92  112 91 91  111 90 90  110 90 90  109 89 89  109 89 89  108 88 88  107 87 87  106 87 87  106 86 86  105 85 85  104 85 85  103 84 84  102 83 83  101 83 83  100 82 82  99 81 81  99 80 80  98 80 80  97 79 79  96 78 78  94 77 77  66 121 66  86 158 86  92 169 92  95 175 95  94 173 94  92 168 92  88 162 88  84 153 84  81 149 81  78 144 78  77 140 77  73 133 73  55 101 55  60 109 60  71 130 71  79 144 79  78 142 78  80 146 80  86 157 86  83 152 83  83 152 83  83 152 83  86 158 86  93 171 93  99 182 99  104 190 104  108 197 108  110 202 110  112 205 112  114 208 114  115 211 115  115 210 115  120 219 120  128 234 128  136 249 136  146 255 146  60 110 60  60 110 60  60 111 60  61 111 61  61 112 61  61 112 61  61 112 61  62 113 62  62 113 62  62 114 62  62 114 62  62 114 62  63 115 63  63 115 63  63 115 63  63 116 63  13 13 30  83 83 185  86 86 193  163 163 255  255 255 255  255 255 255  64 117 64  92 92 206  132 132 235  93 93 208  90 90 202  83 83 187  88 88 198  92 92 205  92 92 206  88 88 198  82 82 184  73 73 164  45 45 102  64 118 64  64 117 64  64 117 64  64 117 64  64 117 64  64 117 64  64 116 64  63 116 63  63 116 63  63 116 63  63 115 63  63 115 63  63 115 63  62 114 62  62 114 62  62 114 62  62 113 62  62 113 62  61 112 61  61 112 61  61 112 61  61 111 61  60 111 60  60 110 60  60 110 60  60 109 60  59 109 59  59 108 59  59 108 59  58 107 58  58 107 58  58 106 58  197 89 89  192 87 87  236 137 137  200 95 95  138 63 63  132 60 60  235 127 127  187 89 89  171 77 77  168 76 76  177 80 80  178 80 80  142 65 65  120 55 55  120 55 55  119 55 55  159 73 73  209 108 108  228 140 140  174 82 82  135 62 62  130 59 59  124 56 56  141 64 64  167 78 78  132 60 60  117 53 53  75 75 92  76 76 93  77 77 94  78 78 96  79 79 97  80 80 98  80 80 99  81 81 99  82 82 100  83 83 101  83 83 102  84 84 103  85 85 104  85 85 105  86 86 106  87 87 106  87 87 107  88 88 108  89 89 109  89 89 109  90 90 110  90 90 111  91 91 112  92 92 112  92 92 113  93 93 114  93 93 114  94 94 115  94 94 115  95 95 116  95 95 116  95 95 117  96 96 118  96 96 118  97 97 119  97 97 119  
119 97 97  118 96 96  118 96 96  117 96 96  117 95 95  116 95 95  116 94 94  115 94 94  114 93 93  114 93 93  113 92 92  113 92 92  112 91 91  111 91 91  111 90 90  110 90 90  109 89 89  108 88 88  108 88 88  107 87 87  106 87 87  105 86 86  105 85 85  104 85 85  103 84 84  102 83 83  101 82 82  100 82 82  99 81 81  98 80 80  97 79 79  96 78 78  95 78 78  70 128 70  86 157 86  92 168 92  96 175 96  99 180 99  97 178 97  94 173 94  91 167 91  87 159 87  82 150 82  79 145 79  77 142 77  72 132 72  61 112 61  36 66 36  57 105 57  70 129 70  74 136 74  74 135 74  81 149 81  76 140 76  77 142 77  77 141 77  81 149 81  88 161 88  95 174 95  100 184 100  104 191 104  107 197 107  110 202 110  114 208 114  115 211 115  116 212 116  116 212 116  125 228 125  133 243 133  143 255 143  153 255 153  60 110 60  60 110 60  60 111 60  61 111 61  61 112 61  61 112 61  61 112 61  62 113 62  62 113 62  62 114 62  62 114 62  62 114 62  63 115 63  63 115 63  63 115 63  13 13 30  86 86 193  101 101 227  173 173 255  238 238 255  255 255 255  91 91 205  103 103 220  92 92 206  91 91 204  88 88 196  88 88 196  92 92 206  89 89 200  85 85 191  80 80 179  53 53 119  14 14 30  64 117 64  64 117 64  64 117 64  64 117 64  64 117 64  64 116 64  63 116 63  63 116 63  63 116 63  63 116 63  63 115 63  63 115 63  63 115 63  62 114 62  62 114 62  62 114 62  62 113 62  62 113 62  61 112 61  61 112 61  61 112 61  61 111 61  60 111 60  60 110 60  60 110 60  60 109 60  59 109 59  59 108 59  59 108 59  59 107 59  58 107 58  58 106 58  58 106 58  203 91 91  197 89 89  241 143 143  203 99 99  131 60 60  130 59 59  206 107 107  165 75 75  174 79 79  182 83 83  189 87 87  145 66 66  124 57 57  117 54 54  117 54 54  128 58 58  159 73 73  217 121 121  228 140 140  169 79 79  134 61 61  128 59 59  122 56 56  132 60 60  159 72 72  120 55 55  117 54 54  75 75 92  76 76 93  77 77 94  78 78 95  78 78 96  79 79 97  80 80 98  81 81 99  82 82 100  82 82 101  83 83 102  84 84 103  85 85 104  85 85 105  86 86 105  87 87 106  87 87 107  88 88 108  88 88 108  89 89 109  90 90 110  90 90 111  91 91 111  91 91 112  92 92 113  92 92 113  93 93 114  93 93 114  94 94 115  94 94 116  95 95 116  95 95 117  96 96 117  96 96 118  96 96 118  97 97 119  
118 97 97  118 96 96  117 96 96  117 95 95  116 95 95  116 95 95  115 94 94  115 94 94  114 93 93  114 93 93  113 92 92  112 92 92  112 91 91  111 91 91  110 90 90  110 89 89  109 89 89  108 88 88  107 88 88  107 87 87  106 86 86  105 86 86  104 85 85  103 84 84  103 84 84  102 83 83  101 82 82  100 81 81  99 81 81  98 80 80  97 79 79  96 78 78  65 118 65  81 149 81  91 166 91  94 173 94  97 178 97  100 182 100  100 182 100  97 177 97  93 170 93  88 162 88  83 153 83  80 146 80  77 141 77  71 130 71  60 110 60  45 82 45  35 65 35  62 114 62  77 140 77  71 130 71  66 120 66  62 115 62  65 119 65  69 126 69  77 141 77  83 153 83  91 166 91  96 175 96  100 183 100  104 191 104  109 199 109  112 205 112  114 208 114  115 210 115  115 211 115  120 219 120  128 233 128  139 255 139  150 255 150  163 255 163  60 110 60  60 110 60  60 111 60  61 111 61  61 112 61  61 112 61  61 112 61  62 113 62  62 113 62  62 114 62  62 114 62  62 114 62  85 85 191  91 91 203  92 92 206  93 93 210  94 94 211  92 92 206  88 88 198  90 90 202  95 95 213  91 91 205  86 86 193  85 85 191  85 85 191  82 82 183  74 74 165  67 67 149  41 41 91  13 13 30  64 117 64  64 117 64  64 117 64  64 117 64  64 117 64  64 116 64  63 116 63  63 116 63  63 116 63  63 116 63  63 115 63  63 115 63  63 115 63  62 115 62  62 114 62  62 114 62  62 114 62  62 113 62  62 113 62  61 112 61  61 112 61  61 112 61  61 111 61  60 111 60  60 110 60  60 110 60  60 109 60  59 109 59  59 108 59  59 108 59  59 107 59  58 107 58  58 106 58  58 106 58  57 105 57  211 95 95  202 91 91  242 143 143  171 77 77  125 57 57  151 69 69  179 83 83  190 90 90  196 95 95  200 99 99  165 75 75  127 58 58  115 53 53  123 56 56  123 56 56  135 61 61  162 75 75  224 132 132  227 139 139  167 78 78  133 60 60  127 58 58  121 55 55  123 56 56  151 68 68  120 55 55  118 54 54  75 75 92  76 76 93  77 77 94  77 77 95  78 78 96  79 79 97  80 80 98  81 81 99  81 81 100  82 82 101  83 83 102  84 84 103  84 84 103  85 85 104  86 86 105  86 86 106  87 87 107  88 88 107  88 88 108  89 89 109  89 89 110  90 90 110  91 91 111  91 91 112  92 92 112  92 92 113  93 93 114  93 93 114  94 94 115  94 94 115  95 95 116  95 95 116  95 95 117  96 96 117  96 96 118  97 97 118  
118 96 96  118 96 96  117 96 96  117 95 95  116 95 95  116 94 94  115 94 94  114 93 93  114 93 93  113 92 92  113 92 92  112 91 91  111 91 91  111 90 90  110 90 90  109 89 89  109 89 89  108 88 88  107 87 87  106 87 87  106 86 86  105 85 85  104 85 85  103 84 84  102 83 83  101 83 83  100 82 82  100 81 81  99 80 80  98 80 80  97 79 79  96 78 78  75 138 75  88 160 88  93 170 93  96 175 96  98 179 98  99 181 99  100 183 100  98 180 98  95 173 95  90 165 90  85 155 85  80 146 80  78 143 78  69 127 69  58 106 58  44 81 44  26 48 26  37 69 37  48 87 48  43 79 43  34 63 34  28 51 28  43 79 43  54 98 54  55 101 55  70 128 70  84 155 84  91 166 91  95 175 95  101 185 101  106 194 106  109 200 109  112 205 112  114 208 114  115 210 115  115 211 115  121 222 121  133 244 133  145 255 145  158 255 158  60 109 60  60 110 60  60 110 60  60 111 60  61 111 61  61 112 61  61 112 61  61 112 61  62 113 62  62 113 62  87 87 195  92 92 207  96 96 216  99 99 221  100 100 225  101 101 227  100 100 225  97 97 218  92 92 206  80 80 180  87 87 195  79 79 178  78 78 175  72 72 162  67 67 151  52 52 117  36 36 82  64 117 64  64 117 64  64 116 64  64 116 64  64 116 64  63 116 63  63 116 63  63 116 63  63 116 63  63 116 63  63 116 63  63 115 63  63 115 63  63 115 63  63 115 63  62 114 62  62 114 62  62 114 62  62 113 62  62 113 62  62 113 62  61 112 61  61 112 61  61 112 61  61 111 61  60 111 60  60 110 60  60 110 60  60 109 60  59 109 59  59 108 59  59 108 59  59 107 59  58 107 58  58 106 58  58 106 58  58 105 58  57 105 57  222 100 100  210 95 95  240 138 138  135 62 62  119 54 54  177 80 80  230 135 135  243 151 151  225 129 129  179 81 81  132 60 60  111 51 51  118 54 54  137 62 62  128 58 58  141 64 64  171 80 80  229 139 139  226 137 137  165 76 76  132 60 60  126 57 57  119 55 55  114 52 52  140 64 64  120 55 55  74 74 90  75 75 91  75 75 93  76 76 94  77 77 95  78 78 96  79 79 97  80 80 98  80 80 99  81 81 100  82 82 100  83 83 101  83 83 102  84 84 103  85 85 104  85 85 105  86 86 106  87 87 106  87 87 107  88 88 108  89 89 109  89 89 109  90 90 110  90 90 111  91 91 111  91 91 112  92 92 113  92 92 113  93 93 114  93 93 114  94 94 115  94 94 116  95 95 116  95 95 117  96 96 117  96 96 118  96 96 118  
118 96 96  117 96 96  117 95 95  116 95 95  116 94 94  115 94 94  115 94 94  114 93 93  114 93 93  113 92 92  112 92 92  112 91 91  111 91 91  110 90 90  110 89 89  109 89 89  108 88 88  108 88 88  107 87 87  106 86 86  105 86 86  104 85 85  104 84 84  103 84 84  102 83 83  101 82 82  100 82 82  99 81 81  98 80 80  97 79 79  96 79 79  67 124 67  82 150 82  90 165 90  93 170 93  95 174 95  97 177 97  98 180 98  99 181 99  100 182 100  99 181 99  93 171 93  89 163 89  86 157 86  82 151 82  77 141 77  68 125 68  57 104 57  41 76 41  26 48 26  23 42 23  27 50 27  62 114 62  18 33 18  16 30 16  29 54 29  37 68 37  50 92 50  68 125 68  76 140 76  89 164 89  97 178 97  102 187 102  106 194 106  109 200 109  111 204 111  113 208 113  115 210 115  115 210 115  126 231 126  139 255 139  151 255 151  168 255 168  60 109 60  60 110 60  60 110 60  60 111 60  61 111 61  61 111 61  61 112 61  54 54 121  80 80 181  91 91 205  97 97 217  100 100 223  101 101 227  108 108 232  101 101 225  96 96 214  90 90 202  83 83 185  71 71 160  66 66 147  64 64 144  57 57 128  49 49 110  26 26 60  63 116 63  63 116 63  63 116 63  63 116 63  63 116 63  63 116 63  63 116 63  63 116 63  63 116 63  63 116 63  63 115 63  63 115 63  63 115 63  63 115 63  63 115 63  62 114 62  62 114 62  62 114 62  62 114 62  62 113 62  62 113 62  61 113 61  61 112 61  61 112 61  61 111 61  61 111 61  60 111 60  60 110 60  60 110 60  60 109 60  59 109 59  59 108 59  59 108 59  59 108 59  58 107 58  58 107 58  58 106 58  58 105 58  57 105 57  57 104 57  231 107 107  221 101 101  235 132 132  126 57 57  114 52 52  176 80 80  245 135 135  241 148 148  190 89 89  140 64 64  113 52 52  113 52 52  120 55 55  148 67 67  133 61 61  146 66 66  179 84 84  231 142 142  224 135 135  163 75 75  131 60 60  124 57 57  118 54 54  111 51 51  128 58 58  120 55 55  73 73 90  74 74 91  75 75 92  76 76 93  77 77 94  78 78 95  79 79 96  79 79 97  80 80 98  81 81 99  82 82 100  82 82 101  83 83 102  84 84 103  84 84 104  85 85 104  86 86 105  86 86 106  87 87 107  88 88 108  88 88 108  89 89 109  89 89 110  90 90 110  91 91 111  91 91 112  92 92 112  92 92 113  93 93 114  93 93 114  94 94 115  94 94 115  94 94 116  95 95 116  95 95 117  96 96 117  96 96 118  
118 96 96  117 95 95  117 95 95  116 95 95  115 94 94  115 94 94  114 93 93  114 93 93  113 92 92  113 92 92  112 91 91  111 91 91  111 90 90  110 90 90  109 89 89  109 89 89  108 88 88  107 87 87  106 87 87  106 86 86  105 86 86  104 85 85  103 84 84  102 84 84  102 83 83  101 82 82  100 81 81  99 81 81  98 80 80  97 79 79  96 78 78  74 136 74  86 157 86  90 164 90  93 169 93  94 173 94  96 175 96  97 177 97  98 179 98  100 183 100  100 182 100  98 180 98  94 172 94  90 164 90  83 152 83  77 141 77  69 127 69  62 113 62  50 91 50  40 73 40  42 78 42  45 82 45  53 98 53  16 30 16  16 30 16  16 30 16  16 30 16  33 61 33  49 90 49  63 115 63  82 149 82  93 170 93  99 180 99  103 188 103  106 194 106  109 199 109  111 204 111  113 207 113  113 207 113  121 222 121  134 245 134  148 255 148  160 255 160  59 109 59  60 109 60  60 110 60  60 110 60  60 111 60  61 111 61  61 111 61  64 64 144  84 84 188  93 93 209  99 99 222  104 104 229  130 130 243  101 101 225  94 94 211  89 89 200  88 88 196  75 75 169  78 78 174  65 65 146  49 49 109  17 17 39  63 115 63  63 115 63  63 116 63  63 116 63  63 116 63  63 116 63  63 116 63  63 116 63  63 115 63  63 115 63  63 115 63  63 115 63  63 115 63  63 115 63  63 115 63  62 114 62  62 114 62  62 114 62  62 114 62  62 113 62  62 113 62  62 113 62  61 112 61  61 112 61  61 112 61  61 111 61  61 111 61  60 111 60  60 110 60  60 110 60  60 109 60  59 109 59  59 108 59  59 108 59  59 108 59  58 107 58  58 107 58  58 106 58  58 106 58  57 105 57  57 105 57  57 104 57  227 102 102  229 106 106  231 128 128  119 55 55  117 54 54  237 114 114  247 153 153  200 100 100  157 71 71  120 55 55  114 52 52  114 52 52  138 63 63  158 72 72  137 62 62  151 69 69  187 87 87  228 137 137  222 132 132  160 73 73  130 59 59  123 56 56  117 53 53  110 51 51  115 53 53  121 55 55  73 73 90  74 74 91  75 75 92  76 76 93  77 77 94  78 78 95  78 78 96  79 79 97  80 80 98  81 81 99  81 81 100  82 82 101  83 83 102  84 84 102  84 84 103  85 85 104  86 86 105  86 86 106  87 87 106  87 87 107  88 88 108  89 89 109  89 89 109  90 90 110  90 90 111  91 91 111  91 91 112  92 92 113  92 92 113  93 93 114  93 93 114  94 94 115  94 94 115  95 95 116  95 95 117  95 95 117  96 96 118  
117 96 96  117 95 95  116 95 95  116 94 94  115 94 94  115 93 93  114 93 93  113 93 93  113 92 92  112 92 92  112 91 91  111 91 91  110 90 90  110 89 89  109 89 89  108 88 88  108 88 88  107 87 87  106 87 87  105 86 86  105 85 85  104 85 85  103 84 84  102 83 83  101 83 83  100 82 82  99 81 81  99 80 80  98 80 80  97 79 79  65 120 65  79 144 79  86 157 86  89 162 89  91 167 91  93 170 93  94 172 94  94 173 94  96 177 96  96 176 96  96 175 96  97 178 97  95 175 95  91 166 91  83 151 83  76 139 76  69 127 69  69 126 69  63 115 63  56 103 56  53 97 53  53 97 53  53 98 53  54 98 54  16 30 16  38 69 38  16 30 16  16 30 16  22 40 22  52 96 52  73 133 73  88 161 88  94 172 94  99 180 99  102 188 102  105 193 105  108 197 108  110 201 110  111 203 111  115 211 115  132 242 132  147 255 147  157 255 157  59 108 59  59 109 59  60 109 60  60 110 60  60 110 60  60 111 60  61 111 61  57 57 128  85 85 192  94 94 211  100 100 224  105 105 230  100 100 225  97 97 217  91 91 205  88 88 197  83 83 185  76 76 170  82 82 183  70 70 157  80 80 176  63 115 63  63 115 63  63 115 63  63 115 63  63 115 63  63 115 63  63 115 63  63 115 63  63 115 63  63 115 63  63 115 63  63 115 63  63 115 63  62 114 62  62 114 62  62 114 62  62 114 62  62 114 62  62 113 62  62 113 62  62 113 62  61 113 61  61 112 61  61 112 61  61 112 61  61 111 61  61 111 61  60 111 60  60 110 60  60 110 60  60 109 60  59 109 59  59 108 59  59 108 59  59 108 59  58 107 58  58 107 58  58 106 58  58 106 58  57 105 57  57 105 57  57 104 57  57 104 57  220 99 99  223 100 100  192 89 89  118 54 54  119 55 55  240 131 131  212 114 114  171 78 78  125 57 57  110 50 50  113 52 52  128 58 58  153 70 70  165 75 75  141 64 64  156 71 71  191 90 90  222 128 128  218 128 128  158 72 72  129 59 59  122 56 56  116 53 53  109 50 50  123 56 56  9 13 13  73 73 89  74 74 91  75 75 92  76 76 93  76 76 94  77 77 95  78 78 96  79 79 97  80 80 98  80 80 99  81 81 99  82 82 100  83 83 101  83 83 102  84 84 103  85 85 104  85 85 105  86 86 105  87 87 106  87 87 107  88 88 108  88 88 108  89 89 109  89 89 110  90 90 110  91 91 111  91 91 112  92 92 112  92 92 113  93 93 113  93 93 114  93 93 115  94 94 115  94 94 116  95 95 116  95 95 117  96 96 117  
117 95 95  116 95 95  116 95 95  115 94 94  115 94 94  114 93 93  114 93 93  113 92 92  113 92 92  112 91 91  111 91 91  111 90 90  110 90 90  109 89 89  109 89 89  108 88 88  107 87 87  107 87 87  106 86 86  105 86 86  104 85 85  103 84 84  103 84 84  102 83 83  101 82 82  100 82 82  99 81 81  98 80 80  97 79 79  96 79 79  70 128 70  80 147 80  84 154 84  87 159 87  89 163 89  91 166 91  91 167 91  92 169 92  92 169 92  93 170 93  95 173 95  96 175 96  96 175 96  88 160 88  81 149 81  76 139 76  75 137 75  73 133 73  75 61 61  74 60 60  52 96 52  53 97 53  53 97 53  53 98 53  54 98 54  34 62 34  53 96 53  86 158 86  16 30 16  39 72 39  65 118 65  79 144 79  89 163 89  94 172 94  98 179 98  100 184 100  104 189 104  106 195 106  108 197 108  113 206 113  131 239 131  145 255 145  153 255 153  59 108 59  59 108 59  59 109 59  60 109 60  60 110 60  60 110 60  60 110 60  74 74 166  87 87 194  95 95 212  100 100 224  101 101 226  99 99 222  95 95 213  90 90 202  86 86 194  81 81 183  81 81 182  81 81 182  75 75 169  91 91 198  62 114 62  62 114 62  62 114 62  62 115 62  63 115 63  63 115 63  63 115 63  63 115 63  62 115 62  62 114 62  62 114 62  62 114 62  62 114 62  62 114 62  62 114 62  62 114 62  62 113 62  62 113 62  62 113 62  62 113 62  61 112 61  61 112 61  61 112 61  61 112 61  61 111 61  60 111 60  60 110 60  60 110 60  60 110 60  60 109 60  59 109 59  59 108 59  59 108 59  59 108 59  58 107 58  58 107 58  58 106 58  58 106 58  57 105 57  57 105 57  57 104 57  57 104 57  56 103 56  213 96 96  213 96 96  134 61 61  119 55 55  137 62 62  235 135 135  182 83 83  141 64 64  115 53 53  117 54 54  120 55 55  139 63 63  164 76 76  167 76 76  144 66 66  160 73 73  193 96 96  215 116 116  217 127 127  154 70 70  129 59 59  122 56 56  115 53 53  107 49 49  120 55 55  72 72 88  73 73 89  74 74 90  74 74 91  75 75 92  76 76 93  77 77 94  78 78 95  79 79 96  79 79 97  80 80 98  81 81 99  82 82 100  82 82 101  83 83 102  84 84 103  84 84 103  85 85 104  86 86 105  86 86 106  87 87 107  87 87 107  88 88 108  89 89 109  89 89 109  90 90 110  90 90 111  91 91 111  91 91 112  92 92 113  92 92 113  93 93 114  93 93 114  94 94 115  94 94 115  95 95 116  95 95 116  95 95 117  
117 95 95  116 95 95  116 94 94  115 94 94  114 93 93  114 93 93  113 92 92  113 92 92  112 92 92  112 91 91  111 91 91  110 90 90  110 89 89  109 89 89  108 88 88  108 88 88  107 87 87  106 87 87  105 86 86  105 85 85  104 85 85  103 84 84  102 83 83  101 83 83  101 82 82  100 81 81  99 81 81  98 80 80  97 79 79  43 79 43  71 130 71  79 144 79  82 150 82  85 155 85  87 160 87  88 161 88  88 160 88  89 163 89  90 166 90  92 168 92  93 170 93  94 171 94  92 169 92  86 158 86  82 150 82  80 147 80  78 144 78  79 145 79  75 61 61  73 60 60  52 96 52  53 96 53  53 97 53  53 97 53  53 98 53  23 43 23  51 94 51  79 144 79  16 30 16  16 30 16  49 90 49  67 123 67  81 148 81  89 163 89  92 169 92  95 174 95  101 184 101  105 192 105  108 197 108  109 199 109  128 235 128  143 255 143  149 255 149  59 108 59  59 108 59  59 108 59  59 109 59  60 109 60  60 110 60  60 110 60  73 73 164  87 87 195  94 94 210  99 99 222  100 100 223  97 97 218  93 93 208  89 89 199  85 85 191  88 88 196  87 87 196  87 87 195  81 81 181  108 108 220  62 114 62  62 114 62  62 114 62  62 114 62  62 114 62  62 114 62  62 114 62  62 114 62  62 114 62  62 114 62  62 114 62  62 114 62  62 114 62  62 113 62  62 113 62  62 113 62  62 113 62  62 113 62  61 112 61  61 112 61  61 112 61  61 112 61  61 111 61  61 111 61  60 111 60  60 110 60  60 110 60  60 110 60  60 109 60  59 109 59  59 108 59  59 108 59  59 108 59  58 107 58  58 107 58  58 106 58  58 106 58  57 105 57  57 105 57  57 104 57  57 104 57  56 103 56  56 103 56  205 92 92  199 90 90  114 52 52  138 63 63  230 107 107  213 113 113  160 73 73  120 55 55  112 51 51  119 54 54  146 66 66  143 65 65  157 73 73  167 76 76  147 67 67  162 74 74  197 105 105  209 106 106  216 125 125  153 69 69  127 58 58  120 55 55  113 52 52  106 49 49  116 53 53  72 72 88  72 72 89  73 73 90  74 74 91  75 75 92  76 76 93  77 77 94  78 78 95  78 78 96  79 79 97  80 80 98  81 81 99  81 81 100  82 82 101  83 83 101  83 83 102  84 84 103  85 85 104  85 85 105  86 86 105  87 87 106  87 87 107  88 88 108  88 88 108  89 89 109  89 89 110  90 90 110  91 91 111  91 91 112  92 92 112  92 92 113  92 92 113  93 93 114  93 93 114  94 94 115  94 94 116  95 95 116  95 95 117  
116 95 95  116 94 94  115 94 94  115 94 94  114 93 93  114 93 93  113 92 92  112 92 92  112 91 91  111 91 91  111 90 90  110 90 90  109 89 89  109 89 89  108 88 88  107 88 88  107 87 87  106 86 86  105 86 86  104 85 85  104 84 84  103 84 84  102 83 83  101 82 82  100 82 82  99 81 81  98 80 80  98 80 80  97 79 79  48 89 48  72 131 72  76 140 76  80 146 80  83 152 83  84 154 84  85 155 85  85 156 85  88 161 88  89 163 89  90 165 90  91 167 91  91 166 91  90 165 90  87 159 87  85 155 85  84 153 84  88 161 88  76 62 62  74 61 61  73 60 60  52 95 52  52 96 52  53 96 53  53 97 53  53 98 53  54 98 54  47 87 47  68 124 68  16 30 16  16 30 16  16 30 16  53 97 53  70 127 70  81 148 81  87 159 87  90 165 90  97 178 97  103 189 103  107 197 107  110 201 110  123 226 123  139 254 139  148 255 148  58 107 58  59 107 59  59 108 59  59 108 59  59 109 59  60 109 60  60 109 60  72 72 161  86 86 192  92 92 206  110 110 224  99 99 221  96 96 214  91 91 204  88 88 198  85 85 190  88 88 197  93 93 209  89 89 200  81 81 183  79 79 178  135 135 255  62 113 62  62 113 62  62 113 62  62 114 62  62 114 62  62 114 62  62 114 62  62 113 62  62 113 62  62 113 62  62 113 62  62 113 62  62 113 62  62 113 62  61 113 61  61 112 61  61 112 61  61 112 61  61 112 61  61 111 61  61 111 61  60 111 60  60 111 60  60 110 60  60 110 60  60 109 60  60 109 60  59 109 59  59 108 59  59 108 59  59 107 59  58 107 58  58 107 58  58 106 58  58 106 58  57 105 57  57 105 57  57 104 57  57 104 57  56 103 56  56 103 56  56 102 56  56 102 56  183 83 83  151 69 69  174 79 79  226 112 112  188 88 88  134 61 61  110 51 51  119 54 54  132 60 60  180 92 92  148 67 67  162 77 77  170 77 77  152 69 69  164 75 75  202 115 115  203 97 97  213 122 122  152 69 69  123 56 56  116 53 53  109 50 50  101 47 47  58 29 29  71 71 87  72 72 89  73 73 90  74 74 91  75 75 92  76 76 93  76 76 94  77 77 95  78 78 96  79 79 97  80 80 98  80 80 98  81 81 99  82 82 100  82 82 101  83 83 102  84 84 103  84 84 104  85 85 104  86 86 105  86 86 106  87 87 107  88 88 107  88 88 108  89 89 109  89 89 109  90 90 110  90 90 111  91 91 111  91 91 112  92 92 112  92 92 113  93 93 114  93 93 114  94 94 115  94 94 115  94 94 116  95 95 116  
116 94 94  115 94 94  115 94 94  114 93 93  114 93 93  113 92 92  113 92 92  112 91 91  111 91 91  111 90 90  110 90 90  110 89 89  109 89 89  108 88 88  108 88 88  107 87 87  106 87 87  105 86 86  105 85 85  104 85 85  103 84 84  102 84 84  102 83 83  101 82 82  100 81 81  99 81 81  98 80 80  97 79 79  96 79 79  49 90 49  72 132 72  74 136 74  78 143 78  81 147 81  81 148 81  81 149 81  84 153 84  86 158 86  88 161 88  89 163 89  89 162 89  88 161 88  90 164 90  89 163 89  88 162 88  89 162 89  77 62 62  75 61 61  74 60 60  73 59 59  52 95 52  52 96 52  52 96 52  53 97 53  53 97 53  53 98 53  16 30 16  44 81 44  69 127 69  16 30 16  16 30 16  16 30 16  56 102 56  70 128 70  81 148 81  86 157 86  94 172 94  100 183 100  105 192 105  111 203 111  112 205 112  132 241 132  149 255 149  58 107 58  58 107 58  59 107 59  59 108 59  59 108 59  59 109 59  49 49 111  70 70 157  83 83 186  90 90 201  93 93 208  141 141 239  95 95 213  91 91 203  88 88 197  84 84 188  87 87 194  90 90 202  87 87 196  82 82 185  79 79 177  94 94 212  149 149 255  62 113 62  62 113 62  62 113 62  62 113 62  62 113 62  62 113 62  62 113 62  62 113 62  158 158 255  149 149 255  110 110 244  103 103 230  97 97 217  97 97 217  96 96 215  94 94 210  91 91 203  61 111 61  61 111 61  60 111 60  60 110 60  60 110 60  60 110 60  60 109 60  59 109 59  59 109 59  59 108 59  59 108 59  59 107 59  58 107 58  58 107 58  58 106 58  58 106 58  57 105 57  57 105 57  57 104 57  57 104 57  56 103 56  56 103 56  56 102 56  56 102 56  55 101 55  183 83 83  182 82 82  204 98 98  216 109 109  164 74 74  115 53 53  114 52 52  125 57 57  167 75 75  211 114 114  163 76 76  167 81 81  183 88 88  161 74 74  169 80 80  206 123 123  199 92 92  209 116 116  151 69 69  118 54 54  112 51 51  104 48 48  108 50 50  70 70 86  71 71 87  72 72 88  73 73 89  74 74 90  75 75 91  75 75 92  76 76 93  77 77 94  78 78 95  79 79 96  79 79 97  80 80 98  81 81 99  81 81 100  82 82 101  83 83 102  84 84 102  84 84 103  85 85 104  85 85 105  86 86 105  87 87 106  87 87 107  88 88 108  88 88 108  89 89 109  89 89 110  90 90 110  90 90 111  91 91 111  91 91 112  92 92 113  92 92 113  93 93 114  93 93 114  94 94 115  94 94 115  94 94 116  
115 94 94  115 94 94  114 93 93  114 93 93  113 93 93  113 92 92  112 92 92  112 91 91  111 91 91  111 90 90  110 90 90  109 89 89  109 89 89  108 88 88  107 87 87  107 87 87  106 86 86  105 86 86  104 85 85  104 85 85  103 84 84  102 83 83  101 83 83  100 82 82  100 81 81  99 80 80  98 80 80  97 79 79  96 78 78  50 92 50  73 134 73  74 136 74  75 138 75  77 142 77  78 143 78  78 143 78  82 150 82  85 156 85  87 159 87  87 158 87  86 157 86  90 164 90  90 165 90  89 162 89  85 156 85  78 63 63  76 62 62  75 61 61  74 60 60  73 59 59  52 95 52  52 95 52  52 96 52  52 96 52  53 97 53  53 97 53  53 98 53  54 98 54  16 30 16  58 106 58  181 83 83  242 110 110  227 102 102  57 104 57  71 129 71  80 147 80  87 159 87  93 171 93  101 184 101  107 196 107  110 201 110  121 220 121  137 251 137  58 106 58  58 107 58  58 107 58  59 107 59  59 108 59  59 108 59  50 50 112  66 66 148  78 78 174  81 81 183  86 86 194  92 92 206  93 93 209  90 90 203  87 87 195  83 83 186  84 84 189  84 84 189  82 82 183  80 80 179  83 83 186  88 88 197  102 102 228  108 108 240  150 150 255  255 255 255  148 148 255  147 147 255  255 255 255  134 134 255  107 107 237  100 100 225  95 95 212  96 96 215  97 97 217  97 97 218  97 97 216  96 96 215  95 95 212  93 93 209  90 90 202  85 85 190  60 110 60  60 110 60  60 109 60  60 109 60  59 109 59  59 108 59  59 108 59  59 108 59  59 107 59  58 107 58  58 107 58  58 106 58  58 106 58  57 105 57  57 105 57  57 104 57  57 104 57  56 103 56  56 103 56  56 102 56  56 102 56  55 101 55  55 101 55  149 68 68  200 91 91  228 102 102  198 94 94  133 60 60  109 50 50  122 56 56  164 74 74  203 100 100  215 110 110  195 117 117  171 86 86  167 81 81  172 78 78  178 93 93  208 128 128  196 91 91  203 108 108  153 70 70  114 52 52  107 49 49  100 46 46  102 47 47  70 70 86  71 71 87  72 72 88  73 73 89  73 73 90  74 74 91  75 75 92  76 76 93  77 77 94  77 77 95  78 78 96  79 79 97  80 80 98  80 80 99  81 81 100  82 82 100  83 83 101  83 83 102  84 84 103  85 85 104  85 85 104  86 86 105  86 86 106  87 87 107  87 87 107  88 88 108  89 89 109  89 89 109  90 90 110  90 90 111  91 91 111  91 91 112  92 92 112  92 92 113  93 93 113  93 93 114  93 93 114  94 94 115  94 94 115  
115 94 94  115 93 93  114 93 93  114 93 93  113 92 92  112 92 92  112 91 91  111 91 91  111 90 90  110 90 90  110 89 89  109 89 89  108 88 88  108 88 88  107 87 87  106 87 87  106 86 86  105 85 85  104 85 85  103 84 84  102 84 84  102 83 83  101 82 82  100 82 82  99 81 81  98 80 80  97 79 79  97 79 79  96 78 78  95 77 77  74 135 74  76 139 76  75 137 75  75 137 75  76 139 76  78 143 78  82 150 82  84 153 84  85 155 85  84 154 84  88 161 88  91 166 91  91 166 91  85 155 85  79 145 79  77 63 63  76 62 62  75 61 61  74 60 60  72 59 59  51 94 51  52 95 52  52 95 52  52 96 52  53 96 53  53 97 53  53 97 53  53 98 53  54 98 54  184 83 83  255 136 136  255 143 143  255 118 118  224 101 101  65 119 65  74 136 74  79 145 79  85 156 85  95 173 95  99 182 99  102 186 102  102 187 102  125 229 125  58 106 58  58 106 58  58 106 58  58 107 58  58 107 58  59 108 59  50 50 112  63 63 141  68 68 153  72 72 163  79 79 177  86 86 193  89 89 200  89 89 200  84 84 188  78 78 175  81 81 183  79 79 178  81 81 181  84 84 189  87 87 195  93 93 208  95 95 213  96 96 215  96 96 215  95 95 212  101 101 227  105 105 236  98 98 220  94 94 212  95 95 213  96 96 215  97 97 218  99 99 220  111 111 227  108 108 225  100 100 220  97 97 218  96 96 216  95 95 214  93 93 208  89 89 200  88 88 198  75 75 169  59 109 59  59 109 59  59 108 59  59 108 59  59 108 59  58 107 58  58 107 58  58 106 58  58 106 58  58 106 58  57 105 57  57 105 57  57 104 57  57 104 57  56 103 56  56 103 56  56 102 56  56 102 56  55 101 55  55 101 55  55 100 55  55 100 55  182 82 82  226 102 102  178 81 81  112 52 52  117 54 54  157 71 71  201 101 101  236 140 140  209 98 98  211 132 132  176 91 91  164 79 79  187 93 93  188 101 101  206 128 128  194 92 92  197 99 99  155 70 70  110 51 51  103 47 47  71 34 34  66 32 32  70 70 85  71 71 86  71 71 88  72 72 89  73 73 90  74 74 91  75 75 92  76 76 93  76 76 94  77 77 95  78 78 96  79 79 97  79 79 97  80 80 98  81 81 99  82 82 100  82 82 101  83 83 102  84 84 102  84 84 103  85 85 104  85 85 105  86 86 106  87 87 106  87 87 107  88 88 108  88 88 108  89 89 109  89 89 110  90 90 110  90 90 111  91 91 111  91 91 112  92 92 112  92 92 113  93 93 114  93 93 114  93 93 115  94 94 115  
115 94 94  114 93 93  114 93 93  113 92 92  113 92 92  112 91 91  112 91 91  111 91 91  110 90 90  110 90 90  109 89 89  109 89 89  108 88 88  107 87 87  107 87 87  106 86 86  105 86 86  104 85 85  104 85 85  103 84 84  102 83 83  101 83 83  101 82 82  100 81 81  99 81 81  98 80 80  97 79 79  96 78 78  95 78 78  64 118 64  76 138 76  77 142 77  76 140 76  75 137 75  75 138 75  78 144 78  81 148 81  82 150 82  82 150 82  86 157 86  90 165 90  91 167 91  88 160 88  80 146 80  78 64 64  77 63 63  76 62 62  74 61 61  73 60 60  72 59 59  51 94 51  51 94 51  52 95 52  52 95 52  52 96 52  53 96 53  53 97 53  53 97 53  53 98 53  234 105 105  255 135 135  255 149 149  255 122 122  255 142 142  59 109 59  66 122 66  73 133 73  78 142 78  84 153 84  88 162 88  91 166 91  88 160 88  107 196 107  57 105 57  58 105 58  58 106 58  58 106 58  58 107 58  58 107 58  51 51 114  62 62 140  61 61 137  66 66 148  71 71 159  79 79 177  82 82 185  78 78 175  71 71 158  66 66 148  76 76 170  83 83 186  84 84 188  87 87 196  90 90 202  95 95 213  97 97 216  103 103 220  100 100 219  97 97 217  96 96 215  95 95 212  95 95 213  96 96 214  96 96 216  98 98 218  105 105 223  116 116 229  118 118 230  107 107 223  99 99 219  97 97 217  96 96 215  95 95 213  94 94 211  92 92 206  92 92 207  89 89 200  76 76 170  59 108 59  59 108 59  59 107 59  58 107 58  58 107 58  58 106 58  58 106 58  58 105 58  57 105 57  57 105 57  57 104 57  57 104 57  56 103 56  56 103 56  56 102 56  56 102 56  55 101 55  55 101 55  55 100 55  55 100 55  54 99 54  54 99 54  212 97 97  159 72 72  145 66 66  151 69 69  197 95 95  234 132 132  231 133 133  213 108 108  218 132 132  178 93 93  169 84 84  184 84 84  179 81 81  200 122 122  193 95 95  193 93 93  156 72 72  112 51 51  98 45 45  9 13 13  68 68 84  69 69 85  70 70 86  71 71 87  72 72 88  73 73 89  74 74 90  75 75 91  75 75 92  76 76 93  77 77 94  78 78 95  78 78 96  79 79 97  80 80 98  81 81 99  81 81 100  82 82 101  83 83 101  83 83 102  84 84 103  85 85 104  85 85 104  86 86 105  86 86 106  87 87 107  87 87 107  88 88 108  89 89 109  89 89 109  90 90 110  90 90 110  91 91 111  91 91 112  91 91 112  92 92 113  92 92 113  93 93 114  93 93 114  94 94 115  
114 93 93  114 93 93  113 92 92  113 92 92  112 92 92  112 91 91  111 91 91  111 90 90  110 90 90  109 89 89  109 89 89  108 88 88  108 88 88  107 87 87  106 87 87  105 86 86  105 85 85  104 85 85  103 84 84  103 84 84  102 83 83  101 82 82  100 82 82  99 81 81  98 80 80  98 80 80  97 79 79  96 78 78  16 30 16  73 134 73  71 130 71  73 134 73  75 136 75  75 138 75  75 137 75  77 142 77  79 145 79  80 146 80  84 154 84  89 162 89  92 168 92  90 165 90  87 159 87  79 64 64  78 63 63  77 62 62  75 61 61  74 60 60  73 59 59  72 58 58  51 93 51  51 94 51  51 94 51  52 95 52  52 95 52  52 96 52  53 96 53  53 97 53  53 97 53  230 104 104  255 135 135  255 156 156  255 126 126  251 118 118  218 105 105  64 118 64  73 133 73  79 145 79  82 150 82  84 153 84  84 154 84  81 148 81  99 182 99  57 105 57  57 105 57  57 105 57  58 106 58  58 106 58  58 107 58  35 35 79  60 60 134  57 57 129  58 58 130  61 61 137  68 68 153  69 69 155  64 64 144  59 59 132  54 54 122  63 63 142  84 84 189  86 86 193  89 89 200  93 93 208  94 94 210  96 96 215  122 122 230  128 128 233  128 128 233  102 102 220  95 95 214  95 95 214  96 96 215  96 96 216  97 97 218  97 97 218  97 97 218  97 97 218  97 97 217  96 96 216  96 96 214  95 95 213  94 94 212  94 94 210  92 92 206  90 90 201  88 88 198  85 85 191  73 73 165  59 107 59  58 107 58  58 107 58  58 106 58  58 106 58  57 105 57  57 105 57  57 105 57  57 104 57  57 104 57  56 103 56  56 103 56  56 102 56  56 102 56  55 101 55  55 101 55  55 100 55  55 100 55  54 99 54  54 99 54  196 88 88  202 96 96  171 77 77  168 76 76  165 74 74  220 116 116  244 141 141  221 121 121  213 114 114  201 122 122  181 97 97  173 89 89  176 83 83  173 79 79  189 97 97  193 98 98  190 89 89  158 73 73  117 53 53  89 41 41  87 41 41  68 68 84  69 69 85  70 70 86  71 71 87  72 72 88  73 73 89  73 73 90  74 74 91  75 75 92  76 76 93  77 77 94  77 77 95  78 78 96  79 79 97  80 80 98  80 80 98  81 81 99  82 82 100  82 82 101  83 83 102  84 84 103  84 84 103  85 85 104  85 85 105  86 86 105  87 87 106  87 87 107  88 88 108  88 88 108  89 89 109  89 89 109  90 90 110  90 90 111  91 91 111  91 91 112  92 92 112  92 92 113  92 92 113  93 93 114  93 93 114  
114 93 93  114 93 93  113 92 92  112 92 92  112 91 91  111 91 91  111 90 90  110 90 90  110 89 89  109 89 89  108 88 88  108 88 88  107 87 87  106 87 87  106 86 86  105 86 86  104 85 85  104 85 85  103 84 84  102 83 83  101 83 83  101 82 82  100 81 81  99 81 81  98 80 80  97 79 79  96 79 79  95 78 78  16 30 16  70 128 70  65 119 65  67 123 67  69 127 69  71 130 71  75 137 75  79 146 79  84 153 84  87 159 87  87 159 87  91 166 91  92 168 92  94 172 94  97 178 97  79 64 64  77 63 63  76 62 62  75 61 61  74 60 60  73 59 59  71 58 58  51 93 51  51 93 51  51 94 51  52 95 52  52 95 52  52 96 52  52 96 52  53 97 53  86 41 41  227 102 102  255 136 136  255 168 168  255 133 133  252 116 116  255 147 147  70 129 70  79 145 79  83 152 83  84 154 84  84 154 84  84 153 84  80 146 80  102 187 102  141 255 141  57 104 57  57 105 57  57 105 57  58 106 58  58 106 58  58 106 58  34 34 76  35 35 80  41 41 93  45 45 100  47 47 106  48 48 109  45 45 102  55 55 123  65 65 145  73 73 164  82 82 184  88 88 198  93 93 208  95 95 212  95 95 213  95 95 214  102 102 219  112 112 225  114 114 226  106 106 221  96 96 215  96 96 214  95 95 213  96 96 214  96 96 215  96 96 215  99 99 216  102 102 217  96 96 213  94 94 211  94 94 210  94 94 210  94 94 210  93 93 209  92 92 205  90 90 201  87 87 195  84 84 189  79 79 178  58 107 58  58 106 58  58 106 58  58 106 58  57 105 57  57 105 57  57 104 57  57 104 57  57 104 57  56 103 56  56 103 56  56 102 56  56 102 56  55 101 55  55 101 55  55 100 55  55 100 55  54 100 54  54 99 54  54 99 54  231 104 104  206 100 100  174 79 79  180 81 81  196 91 91  222 107 107  250 145 145  243 146 146  204 105 105  189 98 98  194 116 116  175 92 92  185 85 85  192 90 90  179 81 81  193 101 101  188 87 87  164 76 76  123 56 56  9 13 13  73 35 35  68 68 83  69 69 84  70 70 85  71 71 87  71 71 88  72 72 89  73 73 90  74 74 91  75 75 92  76 76 93  76 76 94  77 77 95  78 78 95  79 79 96  79 79 97  80 80 98  81 81 99  81 81 100  82 82 101  83 83 101  83 83 102  84 84 103  85 85 104  85 85 104  86 86 105  86 86 106  87 87 106  87 87 107  88 88 108  88 88 108  89 89 109  89 89 110  90 90 110  90 90 111  91 91 111  91 91 112  92 92 112  92 92 113  93 93 114  93 93 114  
114 93 93  113 92 92  113 92 92  112 91 91  112 91 91  111 91 91  110 90 90  110 90 90  109 89 89  109 89 89  108 88 88  107 88 88  107 87 87  106 87 87  105 86 86  105 85 85  104 85 85  103 84 84  103 84 84  102 83 83  101 82 82  100 82 82  99 81 81  99 80 80  98 80 80  97 79 79  96 78 78  95 78 78  16 30 16  61 112 61  60 109 60  62 113 62  66 122 66  71 130 71  75 137 75  79 146 79  84 153 84  88 160 88  91 166 91  96 175 96  101 185 101  105 192 105  104 190 104  78 64 64  77 63 63  76 62 62  75 61 61  74 60 60  72 59 59  71 58 58  50 93 50  51 93 51  51 94 51  51 94 51  52 95 52  52 95 52  52 96 52  52 96 52  97 45 45  222 100 100  255 134 134  255 174 174  255 145 145  255 119 119  253 129 129  78 143 78  84 153 84  86 158 86  87 159 87  86 157 86  85 155 85  86 158 86  110 201 110  134 244 134  57 104 57  57 104 57  57 105 57  57 105 57  58 105 58  58 106 58  58 106 58  13 13 30  13 13 30  13 13 30  13 13 30  36 36 82  55 55 124  67 67 150  73 73 165  80 80 180  86 86 192  99 99 208  95 95 214  96 96 215  96 96 215  96 96 216  97 97 216  97 97 216  97 97 217  98 98 217  96 96 215  96 96 215  94 94 211  94 94 211  95 95 211  125 125 226  168 168 252  162 162 247  101 101 211  93 93 207  93 93 209  93 93 209  93 93 209  93 93 208  92 92 206  90 90 202  88 88 198  86 86 192  81 81 182  71 71 160  58 106 58  58 105 58  57 105 57  57 105 57  57 104 57  57 104 57  56 104 56  56 103 56  56 103 56  56 102 56  56 102 56  55 101 55  55 101 55  55 100 55  55 100 55  54 99 54  54 99 54  54 99 54  210 94 94  246 128 128  196 89 89  178 81 81  183 86 86  241 135 135  228 111 111  251 143 143  251 138 138  207 107 107  181 83 83  210 132 132  177 94 94  189 88 88  189 86 86  189 86 86  192 100 100  187 85 85  161 76 76  129 59 59  9 13 13  67 67 82  68 68 83  69 69 84  69 69 85  70 70 86  71 71 87  72 72 88  73 73 89  74 74 90  74 74 91  75 75 92  76 76 93  77 77 94  78 78 95  78 78 96  79 79 97  80 80 98  80 80 99  81 81 99  82 82 100  82 82 101  83 83 102  84 84 103  84 84 103  85 85 104  85 85 105  86 86 105  87 87 106  87 87 107  88 88 107  88 88 108  89 89 109  89 89 109  90 90 110  90 90 110  91 91 111  91 91 112  91 91 112  92 92 113  92 92 113  93 93 114  
113 92 92  113 92 92  112 92 92  112 91 91  111 91 91  111 90 90  110 90 90  109 89 89  109 89 89  108 88 88  108 88 88  107 87 87  106 87 87  106 86 86  105 86 86  104 85 85  104 85 85  103 84 84  102 83 83  101 83 83  101 82 82  100 81 81  99 81 81  98 80 80  97 79 79  96 79 79  96 78 78  95 77 77  94 76 76  51 94 51  54 100 54  61 112 61  67 122 67  71 131 71  75 137 75  80 146 80  84 154 84  90 165 90  98 179 98  104 191 104  109 200 109  112 205 112  113 206 113  109 199 109  77 63 63  76 62 62  74 61 61  73 60 60  72 59 59  71 58 58  50 92 50  51 93 51  51 93 51  51 94 51  51 94 51  52 95 52  52 95 52  52 96 52  106 49 49  217 98 98  252 122 122  255 161 161  255 153 153  255 126 126  252 120 120  248 141 141  89 164 89  94 172 94  94 172 94  90 164 90  81 149 81  83 153 83  109 199 109  124 226 124  56 103 56  57 104 57  57 104 57  57 105 57  57 105 57  57 105 57  58 106 58  58 106 58  41 41 93  44 44 99  13 13 30  51 51 114  71 71 160  72 72 163  76 76 171  83 83 186  88 88 197  142 142 235  96 96 214  96 96 214  96 96 214  96 96 214  95 95 213  95 95 214  96 96 214  96 96 214  95 95 214  95 95 213  95 95 212  95 95 212  95 95 211  130 130 228  108 108 211  95 95 204  91 91 202  100 100 209  98 98 211  94 94 210  94 94 210  94 94 211  93 93 209  92 92 206  90 90 202  87 87 195  82 82 184  74 74 166  59 59 132  57 105 57  57 105 57  57 104 57  57 104 57  56 103 56  56 103 56  56 103 56  56 102 56  55 102 55  55 101 55  55 101 55  55 100 55  55 100 55  54 99 54  54 99 54  54 99 54  53 98 53  238 107 107  255 157 157  186 89 89  175 83 83  175 81 81  226 102 102  232 113 113  226 102 102  209 94 94  243 138 138  178 81 81  162 74 74  179 96 96  191 100 100  188 91 91  187 87 87  181 82 82  184 84 84  161 75 75  131 60 60  9 13 13  66 66 81  67 67 83  68 68 84  69 69 85  70 70 86  71 71 87  72 72 88  73 73 89  73 73 90  74 74 91  75 75 92  76 76 93  76 76 94  77 77 95  78 78 96  79 79 96  79 79 97  80 80 98  81 81 99  81 81 100  82 82 101  83 83 101  83 83 102  84 84 103  85 85 104  85 85 104  86 86 105  86 86 106  87 87 106  87 87 107  88 88 108  88 88 108  89 89 109  89 89 109  90 90 110  90 90 111  91 91 111  91 91 112  92 92 112  92 92 113  92 92 113  
113 92 92  112 92 92  112 91 91  111 91 91  111 90 90  110 90 90  110 89 89  109 89 89  108 88 88  108 88 88  107 87 87  107 87 87  106 86 86  105 86 86  105 85 85  104 85 85  103 84 84  103 84 84  102 83 83  101 82 82  100 82 82  99 81 81  99 80 80  98 80 80  97 79 79  96 78 78  95 78 78  94 77 77  93 76 76  92 75 75  48 89 48  62 113 62  67 123 67  72 131 72  75 138 75  82 149 82  91 166 91  98 180 98  105 191 105  108 198 108  111 203 111  114 208 114  117 215 117  116 213 116  77 62 62  75 61 61  74 60 60  73 59 59  72 58 58  71 57 57  50 92 50  50 92 50  51 93 51  51 93 51  51 94 51  51 94 51  52 95 52  52 95 52  101 47 47  213 96 96  245 113 113  255 146 146  255 155 155  255 136 136  255 119 119  255 146 146  85 155 85  89 164 89  90 164 90  88 162 88  79 145 79  79 144 79  101 186 101  107 196 107  142 255 142  56 103 56  57 104 57  57 104 57  57 104 57  57 105 57  57 105 57  57 105 57  52 52 118  49 49 110  65 65 147  77 77 172  77 77 173  78 78 174  82 82 183  85 85 191  102 102 206  108 108 217  118 118 222  121 121 224  106 106 216  127 127 226  122 122 223  101 101 214  95 95 212  95 95 212  94 94 212  99 99 213  95 95 212  95 95 214  95 95 213  98 98 214  121 121 225  133 133 227  122 122 221  109 109 216  95 95 212  95 95 212  95 95 212  95 95 212  94 94 211  92 92 206  89 89 200  85 85 192  82 82 183  76 76 170  66 66 147  57 104 57  57 104 57  57 104 57  56 103 56  56 103 56  56 102 56  56 102 56  55 102 55  55 101 55  55 101 55  55 100 55  54 100 54  54 99 54  54 99 54  54 99 54  53 98 53  230 104 104  255 168 168  214 102 102  161 77 77  162 75 75  233 132 132  223 100 100  237 111 111  240 113 113  226 110 110  189 89 89  214 119 119  162 75 75  181 98 98  193 111 111  191 104 104  188 95 95  186 89 89  182 87 87  159 72 72  128 58 58  9 13 13  66 66 81  67 67 82  68 68 83  69 69 84  70 70 85  71 71 87  71 71 88  72 72 89  73 73 90  74 74 91  75 75 92  75 75 92  76 76 93  77 77 94  78 78 95  78 78 96  79 79 97  80 80 98  80 80 99  81 81 99  82 82 100  82 82 101  83 83 102  84 84 103  84 84 103  85 85 104  85 85 105  86 86 105  86 86 106  87 87 107  87 87 107  88 88 108  88 88 108  89 89 109  89 89 110  90 90 110  90 90 111  91 91 111  91 91 112  92 92 112  92 92 113  
112 92 92  112 91 91  111 91 91  111 90 90  110 90 90  110 90 90  109 89 89  109 89 89  108 88 88  107 88 88  107 87 87  106 87 87  106 86 86  105 86 86  104 85 85  104 84 84  103 84 84  102 83 83  101 83 83  101 82 82  100 81 81  99 81 81  98 80 80  97 79 79  97 79 79  96 78 78  95 77 77  94 77 77  93 76 76  92 75 75  91 74 74  26 48 26  56 102 56  70 128 70  76 140 76  84 154 84  91 166 91  97 177 97  101 185 101  105 192 105  108 198 108  113 207 113  117 215 117  117 215 117  112 205 112  75 61 61  74 60 60  73 59 59  73 73 73  73 73 73  74 74 74  74 74 74  74 74 74  75 75 75  75 75 75  75 75 75  76 76 76  76 76 76  83 39 39  208 94 94  240 108 108  255 130 130  255 150 150  255 141 141  255 123 123  255 131 131  243 131 131  84 153 84  84 153 84  83 152 83  78 143 78  75 137 75  80 146 80  105 192 105  133 243 133  81 81 81  82 82 82  82 82 82  82 82 82  82 82 82  82 82 82  47 47 105  55 55 124  53 53 120  72 72 161  79 79 177  78 78 175  82 82 183  85 85 191  89 89 198  138 138 229  126 126 223  166 166 247  132 132 226  124 124 222  167 167 248  142 142 232  124 124 222  105 105 213  96 96 210  94 94 209  93 93 208  94 94 211  95 95 214  95 95 214  96 96 214  96 96 214  96 96 214  96 96 215  97 97 216  97 97 216  96 96 215  96 96 214  95 95 214  94 94 210  91 91 205  88 88 198  85 85 190  80 80 180  75 75 169  67 67 150  51 51 114  82 82 82  82 82 82  81 81 81  81 81 81  81 81 81  81 81 81  80 80 80  80 80 80  80 80 80  80 80 80  79 79 79  79 79 79  79 79 79  78 78 78  78 78 78  255 144 144  255 157 157  210 103 103  150 69 69  154 71 71  229 106 106  220 99 99  255 157 157  249 141 141  222 120 120  195 111 111  174 87 87  154 70 70  156 71 71  189 110 110  192 101 101  188 86 86  189 86 86  202 113 113  180 91 91  132 60 60  65 65 80  66 66 81  67 67 82  68 68 83  69 69 84  69 69 85  70 70 86  71 71 87  72 72 88  73 73 89  74 74 90  74 74 91  75 75 92  76 76 93  77 77 94  77 77 95  78 78 96  79 79 97  79 79 97  80 80 98  81 81 99  81 81 100  82 82 101  83 83 101  83 83 102  84 84 103  84 84 104  85 85 104  86 86 105  86 86 106  87 87 106  87 87 107  88 88 107  88 88 108  89 89 109  89 89 109  90 90 110  90 90 110  90 90 111  91 91 111  91 91 112  92 92 112  
112 91 91  112 91 91  111 91 91  111 90 90  110 90 90  109 89 89  109 89 89  108 88 88  108 88 88  107 87 87  106 87 87  106 86 86  105 86 86  105 85 85  104 85 85  103 84 84  102 84 84  102 83 83  101 82 82  100 82 82  99 81 81  99 80 80  98 80 80  97 79 79  96 78 78  95 78 78  94 77 77  94 76 76  93 76 76  92 75 75  91 74 74  29 54 29  58 107 58  67 123 67  72 132 72  79 145 79  87 160 87  92 169 92  97 177 97  101 184 101  104 191 104  111 203 111  114 208 114  115 210 115  112 206 112  99 182 99  79 79 79  80 80 80  80 80 80  80 80 80  81 81 81  81 81 81  81 81 81  82 82 82  82 82 82  83 83 83  83 83 83  83 83 83  59 29 29  201 91 91  234 105 105  255 121 121  255 138 138  255 141 141  255 128 128  255 124 124  255 146 146  79 145 79  79 144 79  79 144 79  75 138 75  73 133 73  85 156 85  105 193 105  125 229 125  89 89 89  89 89 89  90 90 90  90 90 90  90 90 90  90 90 90  44 44 99  57 57 129  62 62 139  73 73 164  79 79 177  81 81 181  85 85 190  87 87 195  88 88 198  93 93 201  101 101 206  92 92 200  88 88 197  100 100 206  100 100 205  92 92 201  93 93 202  92 92 202  92 92 204  92 92 206  92 92 207  94 94 210  95 95 213  98 98 217  103 103 221  110 110 225  102 102 221  98 98 219  97 97 218  98 98 218  96 96 215  95 95 214  94 94 210  92 92 207  90 90 203  87 87 196  84 84 188  79 79 177  74 74 166  67 67 150  52 52 118  90 90 90  89 89 89  89 89 89  89 89 89  89 89 89  88 88 88  88 88 88  88 88 88  87 87 87  87 87 87  87 87 87  86 86 86  86 86 86  86 86 86  85 85 85  255 156 156  246 138 138  204 108 108  143 65 65  196 95 95  228 105 105  216 97 97  238 141 141  236 132 132  216 106 106  184 102 102  134 61 61  146 66 66  179 91 91  194 95 95  193 91 91  194 96 96  193 90 90  196 97 97  212 135 135  134 61 61  85 40 40  66 66 80  66 66 82  67 67 83  68 68 84  69 69 85  70 70 86  71 71 87  72 72 88  72 72 89  73 73 90  74 74 91  75 75 92  76 76 93  76 76 94  77 77 94  78 78 95  78 78 96  79 79 97  80 80 98  80 80 99  81 81 99  82 82 100  82 82 101  83 83 102  84 84 102  84 84 103  85 85 104  85 85 105  86 86 105  86 86 106  87 87 106  87 87 107  88 88 108  88 88 108  89 89 109  89 89 109  90 90 110  90 90 111  91 91 111  91 91 112  91 91 112  
112 91 91  111 91 91  111 90 90  110 90 90  110 89 89  109 89 89  108 88 88  108 88 88  107 88 88  107 87 87  106 87 87  105 86 86  105 85 85  104 85 85  103 84 84  103 84 84  102 83 83  101 83 83  101 82 82  100 81 81  99 81 81  98 80 80  97 79 79  97 79 79  96 78 78  95 77 77  94 77 77  93 76 76  92 75 75  91 74 74  90 74 74  16 30 16  54 98 54  63 116 63  68 125 68  72 131 72  77 141 77  84 154 84  90 165 90  95 174 95  100 183 100  104 191 104  108 197 108  109 200 109  110 201 110  102 187 102  86 86 86  86 86 86  87 87 87  87 87 87  87 87 87  88 88 88  88 88 88  89 89 89  89 89 89  90 90 90  90 90 90  90 90 90  91 91 91  195 88 88  229 103 103  248 114 114  255 126 126  255 133 133  255 128 128  255 123 123  255 133 133  255 137 137  77 142 77  76 140 76  75 138 75  72 132 72  82 150 82  105 192 105  120 219 120  97 97 97  97 97 97  98 98 98  98 98 98  98 98 98  99 99 99  34 34 78  53 53 120  65 65 146  72 72 162  78 78 175  81 81 182  83 83 187  85 85 190  86 86 193  87 87 196  87 87 196  86 86 193  86 86 193  87 87 195  87 87 195  85 85 190  85 85 191  86 86 192  89 89 199  90 90 203  91 91 205  93 93 209  95 95 213  96 96 216  98 98 219  101 101 221  111 111 226  104 104 222  98 98 218  96 96 216  95 95 214  94 94 211  91 91 205  88 88 197  87 87 195  86 86 193  83 83 186  78 78 175  72 72 163  66 66 148  53 53 119  98 98 98  97 97 97  97 97 97  97 97 97  96 96 96  96 96 96  96 96 96  95 95 95  95 95 95  95 95 95  94 94 94  94 94 94  94 94 94  93 93 93  93 93 93  233 121 121  220 110 110  184 101 101  205 111 111  227 103 103  229 104 104  228 104 104  196 92 92  198 91 91  200 96 96  207 113 113  187 103 103  163 74 74  180 85 85  199 120 120  191 90 90  194 95 95  196 96 96  195 90 90  218 137 137  168 76 76  77 36 36  83 83 83  83 83 83  82 82 82  68 68 83  69 69 84  70 70 85  70 70 86  71 71 87  72 72 88  73 73 89  74 74 90  74 74 91  75 75 92  76 76 93  77 77 94  77 77 95  78 78 96  79 79 97  79 79 97  80 80 98  81 81 99  81 81 100  82 82 101  83 83 101  83 83 102  84 84 103  84 84 103  85 85 104  85 85 105  86 86 105  87 87 106  87 87 107  88 88 107  88 88 108  88 88 108  89 89 109  89 89 110  90 90 110  90 90 111  91 91 111  91 91 112  
111 91 91  111 90 90  110 90 90  110 89 89  109 89 89  109 89 89  108 88 88  107 88 88  107 87 87  106 87 87  106 86 86  105 86 86  104 85 85  104 85 85  103 84 84  102 83 83  102 83 83  101 82 82  100 82 82  99 81 81  99 80 80  98 80 80  97 79 79  96 78 78  95 78 78  95 77 77  94 76 76  93 76 76  92 75 75  91 74 74  90 73 73  16 30 16  38 70 38  57 104 57  62 114 62  65 119 65  68 125 68  72 132 72  79 145 79  86 158 86  92 169 92  97 178 97  101 184 101  103 189 103  105 192 105  101 185 101  92 92 92  93 93 93  93 93 93  94 94 94  94 94 94  95 95 95  95 95 95  95 95 95  96 96 96  96 96 96  97 97 97  97 97 97  98 98 98  188 85 85  224 101 101  243 110 110  255 118 118  255 124 124  255 123 123  255 121 121  255 125 125  255 137 137  250 124 124  76 139 76  74 136 74  72 131 72  77 141 77  104 191 104  114 209 114  105 105 105  106 106 106  106 106 106  107 107 107  107 107 107  107 107 107  22 22 50  47 47 106  60 60 135  68 68 152  74 74 165  77 77 174  81 81 181  84 84 188  85 85 192  84 84 189  84 84 189  85 85 190  84 84 189  84 84 189  84 84 189  82 82 184  80 80 180  81 81 181  83 83 187  87 87 194  91 91 204  92 92 206  95 95 212  96 96 216  97 97 218  97 97 217  97 97 216  96 96 215  95 95 213  94 94 211  93 93 208  92 92 205  89 89 199  85 85 190  84 84 189  83 83 186  81 81 183  77 77 172  71 71 159  64 64 145  54 54 121  106 106 106  106 106 106  105 105 105  105 105 105  105 105 105  104 104 104  104 104 104  103 103 103  103 103 103  102 102 102  102 102 102  101 101 101  101 101 101  101 101 101  100 100 100  154 70 70  169 76 76  221 119 119  235 108 108  226 102 102  238 114 114  255 162 162  206 98 98  197 92 92  210 112 112  229 135 135  220 124 124  184 87 87  180 83 83  184 103 103  200 113 113  193 90 90  196 100 100  198 96 96  213 124 124  197 113 113  126 58 58  90 90 90  89 89 89  89 89 89  88 88 88  88 88 88  87 87 87  87 87 87  86 86 86  72 72 88  73 73 89  73 73 90  74 74 91  75 75 92  76 76 93  76 76 94  77 77 95  78 78 95  78 78 96  79 79 97  80 80 98  80 80 99  81 81 99  82 82 100  82 82 101  83 83 102  83 83 102  84 84 103  85 85 104  85 85 104  86 86 105  86 86 106  87 87 106  87 87 107  88 88 107  88 88 108  89 89 109  89 89 109  89 89 110  90 90 110  90 90 111  91 91 111  
111 90 90  110 90 90  110 90 90  109 89 89  109 89 89  108 88 88  108 88 88  107 87 87  106 87 87  106 86 86  105 86 86  105 85 85  104 85 85  103 84 84  103 84 84  102 83 83  101 83 83  100 82 82  100 81 81  99 81 81  98 80 80  97 79 79  97 79 79  96 78 78  95 77 77  94 77 77  93 76 76  92 75 75  90 90 90  90 90 90  91 91 91  91 91 91  16 30 16  51 94 51  57 104 57  60 110 60  62 114 62  66 120 66  69 126 69  75 137 75  83 151 83  88 162 88  93 169 93  97 177 97  99 182 99  96 176 96  99 99 99  99 99 99  100 100 100  100 100 100  101 101 101  101 101 101  102 102 102  102 102 102  103 103 103  103 103 103  104 104 104  104 104 104  105 105 105  181 82 82  219 99 99  238 107 107  249 113 113  255 117 117  255 118 118  255 118 118  255 121 121  255 127 127  255 133 133  255 127 127  74 135 74  70 129 70  74 136 74  103 189 103  114 114 114  114 114 114  115 115 115  115 115 115  116 116 116  116 116 116  117 117 117  117 117 117  41 41 93  54 54 122  63 63 141  68 68 154  73 73 163  77 77 173  80 80 180  81 81 183  80 80 180  80 80 180  81 81 182  82 82 184  82 82 184  82 82 184  79 79 176  75 75 169  74 74 166  76 76 170  82 82 185  88 88 197  90 90 203  93 93 208  94 94 210  115 115 220  175 175 255  132 132 229  94 94 207  92 92 206  91 91 204  90 90 201  88 88 198  85 85 192  82 82 184  83 83 186  82 82 183  79 79 178  74 74 167  69 69 155  63 63 140  53 53 119  36 36 80  115 115 115  114 114 114  114 114 114  113 113 113  113 113 113  112 112 112  111 111 111  111 111 111  110 110 110  110 110 110  109 109 109  109 109 109  108 108 108  108 108 108  107 107 107  189 85 85  243 117 117  223 100 100  236 111 111  247 128 128  255 146 146  246 137 137  230 117 117  226 123 123  228 135 135  213 119 119  190 93 93  180 83 83  173 78 78  224 128 128  208 101 101  199 100 100  201 102 102  206 106 106  217 137 137  159 72 72  59 29 29  95 95 95  95 95 95  94 94 94  94 94 94  93 93 93  93 93 93  92 92 92  92 92 92  91 91 91  91 91 91  90 90 90  90 90 90  89 89 89  76 76 93  77 77 94  77 77 95  78 78 96  79 79 97  79 79 97  80 80 98  81 81 99  81 81 100  82 82 100  83 83 101  83 83 102  84 84 103  84 84 103  85 85 104  85 85 105  86 86 105  86 86 106  87 87 106  87 87 107  88 88 108  88 88 108  89 89 109  89 89 109  90 90 110  90 90 110  90 90 111  
110 90 90  110 90 90  109 89 89  109 89 89  108 88 88  108 88 88  107 87 87  107 87 87  106 86 86  105 86 86  105 85 85  104 85 85  104 84 84  103 84 84  102 83 83  101 83 83  101 82 82  100 82 82  99 81 81  99 80 80  98 80 80  97 79 79  96 78 78  93 93 93  93 93 93  94 94 94  94 94 94  95 95 95  95 95 95  96 96 96  96 96 96  97 97 97  97 97 97  34 63 34  50 91 50  53 97 53  56 103 56  59 109 59  64 117 64  67 122 67  72 132 72  80 146 80  86 157 86  90 165 90  93 170 93  93 170 93  105 105 105  106 106 106  106 106 106  107 107 107  107 107 107  108 108 108  109 109 109  109 109 109  110 110 110  110 110 110  111 111 111  112 112 112  112 112 112  173 78 78  212 96 96  233 105 105  244 110 110  251 113 113  255 115 115  255 116 116  255 118 118  255 122 122  255 126 126  255 130 130  255 130 130  69 126 69  74 135 74  106 194 106  123 123 123  124 124 124  124 124 124  125 125 125  126 126 126  126 126 126  127 127 127  128 128 128  32 32 73  49 49 109  57 57 127  63 63 141  67 67 151  71 71 160  74 74 167  74 74 167  75 75 168  77 77 174  79 79 177  80 80 178  79 79 178  79 79 178  77 77 173  73 73 164  69 69 156  68 68 153  78 78 174  84 84 188  87 87 195  89 89 200  91 91 202  90 90 201  89 89 199  88 88 197  88 88 197  87 87 196  87 87 195  86 86 193  84 84 188  81 81 181  80 80 179  81 81 182  80 80 180  77 77 173  71 71 160  66 66 149  59 59 133  50 50 113  34 34 76  124 124 124  124 124 124  123 123 123  122 122 122  122 122 122  121 121 121  120 120 120  120 120 120  119 119 119  118 118 118  117 117 117  117 117 117  116 116 116  115 115 115  216 97 97  241 113 113  229 104 104  232 106 106  245 123 123  255 147 147  250 142 142  234 121 121  228 117 117  228 122 122  229 126 126  222 123 123  204 104 104  186 88 88  193 95 95  214 118 118  221 114 114  218 114 114  209 112 112  203 97 97  228 148 148  181 86 86  127 58 58  101 101 101  101 101 101  100 100 100  99 99 99  99 99 99  98 98 98  98 98 98  97 97 97  97 97 97  96 96 96  96 96 96  95 95 95  95 95 95  94 94 94  94 94 94  93 93 93  93 93 93  78 78 96  79 79 97  80 80 98  80 80 99  81 81 99  82 82 100  82 82 101  83 83 101  83 83 102  84 84 103  84 84 104  85 85 104  85 85 105  86 86 105  86 86 106  87 87 107  87 87 107  88 88 108  88 88 108  89 89 109  89 89 109  90 90 110  90 90 110  
110 90 90  110 89 89  109 89 89  108 88 88  108 88 88  107 88 88  107 87 87  106 87 87  106 86 86  105 86 86  104 85 85  104 85 85  103 84 84  102 84 84  102 83 83  101 82 82  100 82 82  100 81 81  96 96 96  96 96 96  97 97 97  97 97 97  98 98 98  98 98 98  99 99 99  99 99 99  100 100 100  100 100 100  101 101 101  101 101 101  102 102 102  102 102 102  103 103 103  104 104 104  41 75 41  45 83 45  49 89 49  52 96 52  58 106 58  63 115 63  68 124 68  76 139 76  81 149 81  85 156 85  87 160 87  89 163 89  111 111 111  112 112 112  113 113 113  113 113 113  114 114 114  115 115 115  115 115 115  116 116 116  117 117 117  118 118 118  118 118 118  119 119 119  120 120 120  166 75 75  208 94 94  228 102 102  239 108 108  247 111 111  252 113 113  255 115 115  255 116 116  255 119 119  255 122 122  255 125 125  255 129 129  255 132 132  255 132 132  255 123 123  133 133 133  134 134 134  135 135 135  136 136 136  137 137 137  138 138 138  138 138 138  139 139 139  13 13 30  37 37 83  49 49 110  56 56 125  61 61 137  65 65 145  67 67 150  68 68 152  69 69 155  72 72 162  75 75 168  76 76 170  76 76 170  76 76 171  75 75 169  71 71 159  67 67 150  64 64 143  70 70 157  79 79 178  83 83 187  85 85 191  85 85 191  84 84 189  83 83 186  83 83 187  83 83 186  82 82 185  82 82 183  81 81 182  80 80 179  79 79 177  79 79 178  79 79 178  79 79 176  75 75 168  69 69 154  63 63 142  56 56 126  47 47 106  39 39 87  135 135 135  134 134 134  133 133 133  132 132 132  131 131 131  130 130 130  130 130 130  129 129 129  128 128 128  127 127 127  126 126 126  125 125 125  125 125 125  124 124 124  224 101 101  236 109 109  229 104 104  241 118 118  255 143 143  253 146 146  240 129 129  236 122 122  233 120 120  232 122 122  230 123 123  227 123 123  214 114 114  198 99 99  206 108 108  215 119 119  222 127 127  221 113 113  219 116 116  206 102 102  227 141 141  192 102 102  155 70 70  107 107 107  106 106 106  106 106 106  105 105 105  105 105 105  104 104 104  104 104 104  103 103 103  102 102 102  102 102 102  101 101 101  101 101 101  100 100 100  100 100 100  99 99 99  99 99 99  98 98 98  98 98 98  97 97 97  97 97 97  96 96 96  96 96 96  81 81 100  82 82 100  82 82 101  83 83 102  84 84 102  84 84 103  85 85 104  85 85 104  86 86 105  86 86 106  87 87 106  87 87 107  88 88 107  88 88 108  88 88 108  89 89 109  89 89 110  90 90 110  
110 89 89  109 89 89  109 89 89  108 88 88  108 88 88  107 87 87  106 87 87  106 86 86  105 86 86  105 85 85  104 85 85  103 84 84  103 84 84  98 98 98  99 99 99  99 99 99  100 100 100  100 100 100  101 101 101  101 101 101  102 102 102  102 102 102  103 103 103  103 103 103  104 104 104  104 104 104  105 105 105  106 106 106  106 106 106  107 107 107  107 107 107  108 108 108  108 108 108  109 109 109  16 30 16  36 67 36  44 81 44  51 93 51  53 96 53  58 106 58  61 112 61  72 131 72  77 141 77  81 148 81  84 154 84  85 155 85  118 118 118  119 119 119  119 119 119  120 120 120  121 121 121  122 122 122  122 122 122  123 123 123  124 124 124  125 125 125  126 126 126  127 127 127  128 128 128  157 71 71  202 91 91  224 101 101  235 106 106  243 109 109  249 112 112  253 114 114  255 116 116  255 117 117  255 119 119  255 122 122  255 125 125  255 129 129  255 133 133  255 136 136  255 138 138  255 134 134  147 147 147  148 148 148  149 149 149  150 150 150  151 151 151  152 152 152  153 153 153  18 18 40  37 37 84  48 48 107  53 53 120  58 58 130  61 61 137  62 62 140  64 64 144  67 67 150  69 69 155  71 71 159  71 71 159  71 71 160  72 72 162  69 69 155  66 66 148  62 62 139  58 58 131  70 70 158  78 78 174  78 78 176  79 79 177  78 78 174  80 80 179  81 81 183  81 81 182  80 80 181  80 80 178  78 78 176  78 78 176  78 78 175  78 78 174  77 77 173  76 76 171  70 70 158  63 63 141  60 60 135  54 54 120  46 46 104  52 52 116  147 147 147  145 145 145  144 144 144  143 143 143  142 142 142  141 141 141  140 140 140  139 139 139  138 138 138  136 136 136  135 135 135  134 134 134  133 133 133  216 97 97  235 107 107  225 101 101  237 112 112  250 133 133  255 152 152  249 141 141  243 132 132  237 124 124  233 120 120  232 121 121  231 123 123  229 124 124  222 121 121  210 111 111  218 120 120  224 126 126  226 128 128  225 123 123  220 115 115  219 117 117  218 122 122  210 124 124  174 79 79  127 58 58  112 112 112  112 112 112  111 111 111  110 110 110  110 110 110  109 109 109  108 108 108  108 108 108  107 107 107  107 107 107  106 106 106  106 106 106  105 105 105  104 104 104  104 104 104  103 103 103  103 103 103  102 102 102  102 102 102  101 101 101  101 101 101  100 100 100  100 100 100  99 99 99  99 99 99  98 98 98  84 84 103  84 84 103  85 85 104  85 85 105  86 86 105  86 86 106  87 87 106  87 87 107  88 88 108  88 88 108  89 89 109  89 89 109  89 89 110  
109 89 89  109 89 89  108 88 88  108 88 88  107 87 87  107 87 87  106 86 86  105 86 86  100 100 100  101 101 101  101 101 101  102 102 102  102 102 102  103 103 103  103 103 103  104 104 104  104 104 104  105 105 105  105 105 105  106 106 106  107 107 107  107 107 107  108 108 108  108 108 108  109 109 109  110 110 110  110 110 110  111 111 111  111 111 111  112 112 112  113 113 113  113 113 113  114 114 114  115 115 115  115 115 115  39 71 39  43 80 43  49 89 49  52 95 52  53 97 53  58 106 58  71 129 71  75 138 75  77 141 77  80 147 80  81 148 81  124 124 124  125 125 125  126 126 126  127 127 127  128 128 128  129 129 129  130 130 130  131 131 131  131 131 131  132 132 132  133 133 133  135 135 135  136 136 136  150 68 68  196 88 88  221 99 99  233 105 105  241 108 108  247 111 111  252 113 113  255 115 115  255 117 117  255 119 119  255 121 121  255 122 122  255 125 125  255 128 128  255 132 132  255 136 136  255 141 141  255 144 144  255 142 142  249 117 117  164 164 164  165 165 165  167 167 167  168 168 168  170 170 170  13 13 30  36 36 81  43 43 98  49 49 110  54 54 120  56 56 126  59 59 132  62 62 138  64 64 144  66 66 149  66 66 149  68 68 152  70 70 157  67 67 151  65 65 146  60 60 135  56 56 127  58 58 130  66 66 149  71 71 160  71 71 160  73 73 165  76 76 171  78 78 176  79 79 177  78 78 175  77 77 173  76 76 171  76 76 171  77 77 172  75 75 168  74 74 166  70 70 156  63 63 141  57 57 129  56 56 125  51 51 115  44 44 99  62 62 139  72 72 162  85 85 191  156 156 156  155 155 155  153 153 153  152 152 152  150 150 150  149 149 149  148 148 148  146 146 146  145 145 145  144 144 144  143 143 143  222 100 100  230 104 104  233 108 108  246 128 128  255 149 149  255 152 152  249 141 141  241 130 130  236 124 124  233 120 120  231 120 120  230 122 122  229 124 124  227 124 124  220 121 121  225 126 126  227 126 126  225 122 122  222 115 115  220 111 111  219 112 112  215 111 111  224 139 139  181 84 84  155 70 70  118 118 118  117 117 117  117 117 117  116 116 116  115 115 115  115 115 115  114 114 114  113 113 113  113 113 113  112 112 112  111 111 111  111 111 111  110 110 110  110 110 110  109 109 109  108 108 108  108 108 108  107 107 107  107 107 107  106 106 106  105 105 105  105 105 105  104 104 104  104 104 104  103 103 103  103 103 103  102 102 102  102 102 102  101 101 101  101 101 101  100 100 100  86 86 105  86 86 106  87 87 107  87 87 107  88 88 108  88 88 108  89 89 109  89 89 109  
109 89 89  108 88 88  108 88 88  102 102 102  102 102 102  103 103 103  104 104 104  104 104 104  105 105 105  105 105 105  106 106 106  106 106 106  107 107 107  107 107 107  108 108 108  108 108 108  109 109 109  110 110 110  110 110 110  111 111 111  111 111 111  112 112 112  113 113 113  113 113 113  114 114 114  115 115 115  115 115 115  116 116 116  117 117 117  117 117 117  118 118 118  119 119 119  119 119 119  120 120 120  121 121 121  16 30 16  48 88 48  53 97 53  56 104 56  57 105 57  60 110 60  72 132 72  77 142 77  79 144 79  78 143 78  77 141 77  131 131 131  132 132 132  133 133 133  134 134 134  135 135 135  136 136 136  137 137 137  138 138 138  139 139 139  140 140 140  141 141 141  143 143 143  144 144 144  144 66 66  192 86 86  219 99 99  231 104 104  240 108 108  246 111 111  252 113 113  255 115 115  255 117 117  255 119 119  255 121 121  255 122 122  255 124 124  255 125 125  255 127 127  255 130 130  255 134 134  255 139 139  255 145 145  255 149 149  255 145 145  180 180 180  182 182 182  184 184 184  186 186 186  188 188 188  13 13 30  31 31 71  38 38 86  44 44 99  241 108 108  52 52 118  56 56 125  59 59 132  61 61 138  64 64 143  67 67 150  67 67 151  67 67 150  65 65 146  60 60 134  55 55 123  51 51 115  59 59 132  64 64 144  67 67 150  69 69 156  72 72 162  75 75 167  76 76 170  75 75 168  74 74 166  75 75 168  76 76 170  75 75 168  73 73 165  69 69 155  63 63 141  55 55 125  56 56 125  53 53 120  50 50 114  42 42 95  69 69 156  85 85 191  89 89 200  84 84 187  55 55 124  165 165 165  163 163 163  162 162 162  160 160 160  158 158 158  157 157 157  155 155 155  153 153 153  152 152 152  218 98 98  229 104 104  241 121 121  255 149 149  255 154 154  255 152 152  249 142 142  239 129 129  235 123 123  232 120 120  231 120 120  230 122 122  229 124 124  228 125 125  227 125 125  228 125 125  227 125 125  226 123 123  224 121 121  222 119 119  220 116 116  220 119 119  228 139 139  191 100 100  167 76 76  118 54 54  123 123 123  122 122 122  121 121 121  121 121 121  120 120 120  119 119 119  119 119 119  118 118 118  117 117 117  117 117 117  116 116 116  115 115 115  115 115 115  114 114 114  113 113 113  113 113 113  112 112 112  111 111 111  111 111 111  110 110 110  110 110 110  109 109 109  108 108 108  108 108 108  107 107 107  107 107 107  106 106 106  106 106 106  105 105 105  105 105 105  104 104 104  104 104 104  103 103 103  102 102 102  102 102 102  88 88 108  88 88 108  89 89 109  
105 105 105  105 105 105  106 106 106  106 106 106  107 107 107  107 107 107  108 108 108  108 108 108  109 109 109  110 110 110  110 110 110  111 111 111  111 111 111  112 112 112  112 112 112  113 113 113  114 114 114  114 114 114  115 115 115  116 116 116  116 116 116  117 117 117  117 117 117  118 118 118  119 119 119  120 120 120  120 120 120  121 121 121  122 122 122  122 122 122  123 123 123  124 124 124  125 125 125  125 125 125  126 126 126  127 127 127  54 99 54  61 111 61  63 115 63  64 117 64  67 122 67  74 135 74  79 145 79  80 147 80  80 147 80  80 147 80  137 137 137  138 138 138  139 139 139  140 140 140  142 142 142  143 143 143  144 144 144  145 145 145  146 146 146  148 148 148  149 149 149  151 151 151  152 152 152  142 64 64  190 86 86  218 98 98  230 104 104  239 107 107  246 110 110  252 113 113  255 115 115  255 117 117  255 119 119  255 121 121  255 123 123  255 124 124  255 126 126  255 127 127  255 128 128  255 129 129  255 131 131  255 135 135  255 141 141  255 148 148  255 152 152  255 139 139  200 200 200  202 202 202  204 204 204  207 207 207  13 13 30  247 111 111  255 116 116  255 123 123  252 114 114  45 45 101  49 49 111  55 55 124  62 62 140  65 65 146  66 66 147  66 66 148  65 65 146  61 61 137  54 54 122  49 49 111  53 53 120  62 62 139  65 65 147  66 66 149  68 68 154  71 71 158  72 72 162  72 72 161  72 72 162  73 73 165  74 74 167  72 72 161  68 68 153  63 63 141  56 56 126  53 53 120  54 54 122  52 52 118  50 50 112  40 40 91  75 75 169  86 86 192  86 86 193  80 80 179  61 61 136  177 177 177  175 175 175  173 173 173  171 171 171  169 169 169  167 167 167  165 165 165  163 163 163  161 161 161  222 100 100  233 112 112  252 143 143  255 162 162  255 158 158  252 149 149  245 138 138  238 128 128  233 122 122  232 120 120  230 120 120  230 121 121  229 122 122  228 126 126  225 125 125  223 124 124  223 125 125  224 128 128  225 131 131  226 133 133  227 134 134  227 136 136  225 137 137  199 112 112  169 78 78  147 67 67  101 47 47  128 128 128  127 127 127  126 126 126  125 125 125  125 125 125  124 124 124  123 123 123  122 122 122  122 122 122  121 121 121  120 120 120  120 120 120  119 119 119  118 118 118  117 117 117  117 117 117  116 116 116  116 116 116  115 115 115  114 114 114  114 114 114  113 113 113  112 112 112  112 112 112  111 111 111  111 111 111  110 110 110  110 110 110  109 109 109  108 108 108  108 108 108  107 107 107  107 107 107  106 106 106  106 106 106  105 105 105  105 105 105  
109 109 109  109 109 109  110 110 110  110 110 110  111 111 111  112 112 112  112 112 112  113 113 113  113 113 113  114 114 114  114 114 114  115 115 115  116 116 116  116 116 116  117 117 117  118 118 118  118 118 118  119 119 119  119 119 119  120 120 120  121 121 121  122 122 122  122 122 122  123 123 123  124 124 124  124 124 124  125 125 125  126 126 126  127 127 127  127 127 127  128 128 128  129 129 129  130 130 130  131 131 131  132 132 132  132 132 132  133 133 133  71 130 71  82 150 82  94 171 94  91 166 91  86 158 86  86 157 86  90 164 90  91 167 91  93 171 93  144 144 144  145 145 145  146 146 146  147 147 147  148 148 148  150 150 150  151 151 151  152 152 152  154 154 154  155 155 155  157 157 157  158 158 158  160 160 160  144 65 65  190 86 86  218 98 98  230 103 103  238 107 107  245 110 110  251 113 113  255 115 115  255 117 117  255 119 119  255 122 122  255 124 124  255 126 126  255 128 128  255 130 130  255 132 132  255 132 132  255 132 132  255 131 131  255 132 132  255 137 137  255 145 145  255 151 151  255 145 145  218 218 218  220 220 220  252 114 114  255 120 120  255 129 129  255 139 139  255 149 149  255 133 133  249 113 113  36 36 81  50 50 113  61 61 136  64 64 143  65 65 146  65 65 146  65 65 146  62 62 140  54 54 121  49 49 110  51 51 115  60 60 136  65 65 146  66 66 147  67 67 151  69 69 154  69 69 154  70 70 158  71 71 158  71 71 160  70 70 158  66 66 148  62 62 140  57 57 127  49 49 111  53 53 119  55 55 124  52 52 116  49 49 111  54 54 121  78 78 175  84 84 189  84 84 187  76 76 170  62 62 139  188 188 188  186 186 186  184 184 184  181 181 181  179 179 179  177 177 177  175 175 175  173 173 173  199 90 90  221 100 100  233 118 118  255 157 157  255 156 156  249 147 147  245 140 140  240 133 133  236 127 127  234 124 124  234 123 123  233 122 122  232 120 120  229 124 124  227 126 126  225 125 125  222 124 124  219 123 123  216 120 120  214 120 120  217 125 125  220 131 131  221 133 133  215 129 129  207 127 127  162 73 73  117 54 54  119 55 55  83 39 39  132 132 132  132 132 132  131 131 131  130 130 130  129 129 129  128 128 128  127 127 127  127 127 127  126 126 126  125 125 125  124 124 124  124 124 124  123 123 123  122 122 122  122 122 122  121 121 121  120 120 120  119 119 119  119 119 119  118 118 118  118 118 118  117 117 117  116 116 116  116 116 116  115 115 115  114 114 114  114 114 114  113 113 113  113 113 113  112 112 112  112 112 112  111 111 111  110 110 110  110 110 110  109 109 109  109 109 109  
113 113 113  113 113 113  114 114 114  114 114 114  115 115 115  116 116 116  116 116 116  117 117 117  117 117 117  118 118 118  119 119 119  119 119 119  120 120 120  121 121 121  121 121 121  122 122 122  123 123 123  123 123 123  124 124 124  125 125 125  125 125 125  126 126 126  127 127 127  128 128 128  128 128 128  129 129 129  130 130 130  131 131 131  132 132 132  132 132 132  133 133 133  134 134 134  135 135 135  136 136 136  137 137 137  138 138 138  79 145 79  91 166 91  101 185 101  108 197 108  109 200 109  108 197 108  102 186 102  101 185 101  104 190 104  104 190 104  73 134 73  151 151 151  152 152 152  154 154 154  155 155 155  156 156 156  158 158 158  159 159 159  161 161 161  163 163 163  164 164 164  166 166 166  168 168 168  147 67 67  192 87 87  219 99 99  230 103 103  238 107 107  244 110 110  250 112 112  255 115 115  255 117 117  255 119 119  255 122 122  255 125 125  255 128 128  255 131 131  255 135 135  255 138 138  255 139 139  255 139 139  255 134 134  255 132 132  255 135 135  255 143 143  255 149 149  255 131 131  255 140 140  255 145 145  255 148 148  255 151 151  255 153 153  255 154 154  255 152 152  255 154 154  255 135 135  30 30 67  47 47 106  60 60 136  63 63 142  64 64 144  64 64 144  64 64 144  63 63 141  53 53 120  51 51 115  50 50 112  59 59 132  64 64 144  65 65 146  65 65 147  66 66 147  66 66 148  67 67 151  68 68 153  67 67 150  65 65 147  62 62 140  57 57 129  55 55 123  54 54 121  55 55 124  59 59 132  58 58 131  48 48 108  66 66 148  76 76 170  79 79 178  80 80 179  71 71 158  53 53 120  199 199 199  196 196 196  194 194 194  191 191 191  189 189 189  186 186 186  184 184 184  182 182 182  204 92 92  215 98 98  232 122 122  253 155 155  251 152 152  247 145 145  242 139 139  238 133 133  235 127 127  232 123 123  232 122 122  232 122 122  228 120 120  228 125 125  227 127 127  224 125 125  221 124 124  218 123 123  215 120 120  210 116 116  206 112 112  202 108 108  203 112 112  195 108 108  185 98 98  164 75 75  127 58 58  131 60 60  119 54 54  138 138 138  137 137 137  136 136 136  135 135 135  134 134 134  133 133 133  132 132 132  132 132 132  131 131 131  130 130 130  129 129 129  128 128 128  128 128 128  127 127 127  126 126 126  125 125 125  125 125 125  124 124 124  123 123 123  123 123 123  122 122 122  121 121 121  121 121 121  120 120 120  119 119 119  119 119 119  118 118 118  117 117 117  117 117 117  116 116 116  116 116 116  115 115 115  114 114 114  114 114 114  113 113 113  113 113 113  
117 117 117  117 117 117  118 118 118  118 118 118  119 119 119  120 120 120  120 120 120  121 121 121  122 122 122  122 122 122  123 123 123  124 124 124  124 124 124  125 125 125  126 126 126  126 126 126  127 127 127  128 128 128  128 128 128  129 129 129  130 130 130  131 131 131  131 131 131  132 132 132  133 133 133  134 134 134  135 135 135  136 136 136  136 136 136  137 137 137  138 138 138  139 139 139  140 140 140  141 141 141  90 165 90  95 174 95  101 185 101  109 200 109  112 205 112  112 205 112  112 206 112  111 203 111  108 197 108  105 192 105  106 194 106  107 195 107  105 192 105  157 157 157  158 158 158  160 160 160  161 161 161  163 163 163  164 164 164  166 166 166  168 168 168  169 169 169  171 171 171  173 173 173  175 175 175  154 70 70  197 89 89  220 99 99  229 103 103  237 106 106  243 109 109  248 112 112  253 114 114  255 116 116  255 119 119  255 121 121  255 124 124  255 128 128  255 133 133  255 139 139  212 96 96  222 101 101  232 106 106  240 110 110  248 115 115  255 120 120  255 125 125  255 132 132  255 141 141  255 143 143  255 143 143  255 142 142  255 141 141  255 141 141  255 142 142  255 142 142  255 146 146  255 147 147  255 131 131  51 51 114  64 64 143  63 63 142  64 64 144  64 64 143  63 63 143  63 63 142  58 58 131  54 54 120  52 52 117  57 57 128  63 63 142  64 64 144  64 64 144  64 64 145  66 66 149  68 68 153  65 65 146  63 63 142  61 61 137  58 58 131  58 58 131  57 57 128  57 57 128  54 54 121  58 58 130  53 53 118  49 49 110  67 67 150  71 71 159  74 74 166  74 74 166  59 59 133  32 32 73  208 208 208  205 205 205  202 202 202  200 200 200  197 197 197  194 194 194  192 192 192  190 190 190  209 94 94  211 97 97  229 123 123  244 145 145  247 149 149  243 142 142  239 137 137  236 131 131  233 127 127  231 122 122  230 121 121  227 117 117  227 121 121  228 126 126  226 127 127  223 126 126  220 124 124  217 122 122  213 119 119  209 116 116  205 111 111  198 105 105  191 97 97  183 87 87  173 81 81  160 73 73  152 69 69  141 64 64  126 58 58  121 55 55  142 142 142  141 141 141  140 140 140  139 139 139  138 138 138  137 137 137  136 136 136  136 136 136  135 135 135  134 134 134  133 133 133  132 132 132  131 131 131  131 131 131  130 130 130  129 129 129  128 128 128  128 128 128  127 127 127  126 126 126  126 126 126  125 125 125  124 124 124  124 124 124  123 123 123  122 122 122  122 122 122  121 121 121  120 120 120  120 120 120  119 119 119  118 118 118  118 118 118  117 117 117  117 117 117  
121 121 121  121 121 121  122 122 122  122 122 122  123 123 123  124 124 124  124 124 124  125 125 125  126 126 126  126 126 126  127 127 127  128 128 128  128 128 128  129 129 129  130 130 130  130 130 130  131 131 131  132 132 132  133 133 133  134 134 134  134 134 134  135 135 135  136 136 136  137 137 137  138 138 138  138 138 138  139 139 139  140 140 140  141 141 141  142 142 142  143 143 143  66 120 66  81 148 81  87 160 87  90 165 90  106 193 106  111 204 111  112 205 112  112 205 112  112 204 112  110 201 110  106 194 106  103 189 103  102 187 102  101 185 101  102 187 102  99 181 99  88 162 88  164 164 164  166 166 166  167 167 167  169 169 169  170 170 170  172 172 172  174 174 174  175 175 175  177 177 177  179 179 179  181 181 181  161 73 73  202 91 91  219 99 99  228 102 102  235 106 106  241 108 108  246 111 111  251 113 113  255 115 115  255 117 117  255 120 120  255 124 124  255 129 129  255 136 136  255 144 144  191 86 86  216 97 97  237 106 106  255 115 115  255 122 122  255 128 128  255 133 133  255 137 137  255 136 136  255 137 137  255 138 138  255 137 137  255 136 136  255 136 136  255 135 135  255 135 135  255 134 134  255 137 137  255 136 136  238 122 122  66 66 148  64 64 144  65 65 146  66 66 147  66 66 149  71 71 159  69 69 154  62 62 140  55 55 124  53 53 120  63 63 140  63 63 142  64 64 143  64 64 144  67 67 151  65 65 146  62 62 140  60 60 135  58 58 130  57 57 128  58 58 130  58 58 130  56 56 126  52 52 117  49 49 109  44 44 98  51 51 114  62 62 140  67 67 150  69 69 156  61 61 138  44 44 99  13 13 30  215 215 215  212 212 212  210 210 210  207 207 207  204 204 204  202 202 202  199 199 199  224 101 101  217 98 98  207 96 96  219 112 112  233 132 132  241 142 142  238 137 137  235 133 133  233 129 129  231 125 125  227 119 119  223 114 114  225 117 117  227 122 122  228 127 127  226 128 128  222 126 126  220 124 124  216 122 122  211 118 118  205 113 113  199 107 107  192 99 99  186 91 91  181 85 85  175 80 80  169 76 76  157 71 71  147 67 67  132 60 60  127 58 58  111 51 51  146 146 146  145 145 145  144 144 144  143 143 143  142 142 142  141 141 141  140 140 140  139 139 139  138 138 138  138 138 138  137 137 137  136 136 136  135 135 135  134 134 134  134 134 134  133 133 133  132 132 132  131 131 131  130 130 130  130 130 130  129 129 129  128 128 128  128 128 128  127 127 127  126 126 126  126 126 126  125 125 125  124 124 124  124 124 124  123 123 123  122 122 122  122 122 122  121 121 121  121 121 121  
124 124 124  125 125 125  126 126 126  126 126 126  127 127 127  128 128 128  128 128 128  129 129 129  130 130 130  130 130 130  131 131 131  132 132 132  132 132 132  133 133 133  134 134 134  135 135 135  135 135 135  136 136 136  137 137 137  138 138 138  139 139 139  139 139 139  140 140 140  141 141 141  142 142 142  143 143 143  144 144 144  145 145 145  146 146 146  78 143 78  92 168 92  77 140 77  84 154 84  89 163 89  105 192 105  110 202 110  111 203 111  110 202 110  109 199 109  107 196 107  105 192 105  102 186 102  101 184 101  99 181 99  98 179 98  97 177 97  90 164 90  77 141 77  169 169 169  171 171 171  172 172 172  174 174 174  176 176 176  177 177 177  179 179 179  181 181 181  183 183 183  185 185 185  116 53 53  168 76 76  204 92 92  218 98 98  226 102 102  233 105 105  238 107 107  243 109 109  248 111 111  252 113 113  255 116 116  255 118 118  255 122 122  255 129 129  255 138 138  255 149 149  255 156 156  185 84 84  212 95 95  234 105 105  253 114 114  255 121 121  255 130 130  255 143 143  255 152 152  255 151 151  255 146 146  255 140 140  255 138 138  255 135 135  255 133 133  255 131 131  255 130 130  255 128 128  255 126 126  245 123 123  68 68 152  69 69 155  70 70 156  71 71 159  76 76 171  78 78 175  76 76 171  72 72 162  65 65 146  58 58 130  63 63 143  60 60 135  63 63 141  63 63 142  63 63 142  62 62 140  59 59 134  58 58 129  55 55 124  53 53 119  53 53 118  53 53 120  55 55 123  43 43 96  45 45 100  38 38 86  53 53 120  57 57 129  60 60 135  61 61 138  47 47 105  13 13 30  224 224 224  221 221 221  218 218 218  215 215 215  212 212 212  210 210 210  207 207 207  226 101 101  226 102 102  218 99 99  212 100 100  220 111 111  231 129 129  237 138 138  233 133 133  230 127 127  227 121 121  223 116 116  221 112 112  218 109 109  217 111 111  224 125 125  227 131 131  226 130 130  221 126 126  217 124 124  212 120 120  206 114 114  200 108 108  193 101 101  186 92 92  182 86 86  177 82 82  174 79 79  168 76 76  161 73 73  153 69 69  140 64 64  131 60 60  116 53 53  151 151 151  150 150 150  149 149 149  148 148 148  147 147 147  146 146 146  145 145 145  144 144 144  143 143 143  142 142 142  141 141 141  140 140 140  139 139 139  139 139 139  138 138 138  137 137 137  136 136 136  135 135 135  135 135 135  134 134 134  133 133 133  132 132 132  132 132 132  131 131 131  130 130 130  130 130 130  129 129 129  128 128 128  128 128 128  127 127 127  126 126 126  126 126 126  125 125 125  124 124 124  
128 128 128  129 129 129  129 129 129  130 130 130  131 131 131  131 131 131  132 132 132  133 133 133  133 133 133  134 134 134  135 135 135  136 136 136  136 136 136  137 137 137  138 138 138  139 139 139  139 139 139  140 140 140  141 141 141  142 142 142  143 143 143  144 144 144  144 144 144  145 145 145  146 146 146  147 147 147  148 148 148  71 130 71  100 184 100  108 198 108  94 172 94  80 146 80  84 153 84  106 194 106  108 198 108  109 200 109  108 198 108  105 192 105  102 187 102  100 183 100  93 170 93  89 163 89  86 157 86  82 151 82  78 143 78  74 136 74  67 123 67  173 173 173  174 174 174  176 176 176  177 177 177  179 179 179  181 181 181  182 182 182  184 184 184  186 186 186  188 188 188  190 190 190  133 61 61  176 79 79  205 92 92  216 97 97  224 101 101  230 103 103  235 106 106  240 108 108  244 110 110  248 111 111  251 113 113  255 116 116  255 121 121  255 128 128  255 139 139  255 151 151  255 156 156  146 66 66  178 80 80  205 93 93  229 103 103  247 111 111  255 120 120  255 138 138  255 171 171  255 189 189  255 180 180  255 167 167  255 152 152  255 141 141  255 133 133  255 130 130  255 127 127  255 125 125  255 122 122  249 116 116  92 44 44  73 73 164  75 75 168  79 79 178  83 83 186  82 82 185  82 82 183  79 79 177  75 75 167  68 68 153  68 68 152  53 53 120  57 57 128  60 60 134  60 60 134  59 59 132  58 58 131  56 56 127  49 49 110  55 55 125  46 46 103  46 46 103  38 38 86  43 43 97  41 41 91  31 31 69  49 49 109  51 51 115  54 54 121  45 45 101  13 13 30  230 230 230  227 227 227  224 224 224  222 222 222  219 219 219  217 217 217  214 214 214  212 212 212  192 86 86  221 100 100  220 101 101  224 108 108  232 122 122  243 142 142  251 154 154  246 147 147  221 116 116  218 111 111  217 108 108  216 108 108  213 107 107  209 106 106  217 122 122  228 139 139  228 139 139  222 133 133  218 130 130  212 125 125  204 116 116  194 104 104  187 94 94  182 87 87  178 82 82  174 79 79  170 77 77  167 75 75  161 73 73  153 69 69  143 65 65  133 61 61  120 55 55  104 48 48  154 154 154  153 153 153  152 152 152  151 151 151  150 150 150  149 149 149  148 148 148  147 147 147  146 146 146  145 145 145  144 144 144  144 144 144  143 143 143  142 142 142  141 141 141  140 140 140  139 139 139  139 139 139  138 138 138  137 137 137  136 136 136  136 136 136  135 135 135  134 134 134  133 133 133  133 133 133  132 132 132  131 131 131  131 131 131  130 130 130  129 129 129  129 129 129  128 128 128  
132 132 132  132 132 132  133 133 133  134 134 134  134 134 134  135 135 135  136 136 136  136 136 136  137 137 137  138 138 138  139 139 139  139 139 139  140 140 140  141 141 141  142 142 142  143 143 143  143 143 143  144 144 144  145 145 145  146 146 146  147 147 147  148 148 148  148 148 148  149 149 149  150 150 150  151 151 151  87 159 87  103 189 103  102 186 102  97 177 97  92 168 92  100 184 100  104 190 104  102 187 102  99 181 99  100 183 100  100 184 100  97 177 97  92 168 92  80 147 80  66 122 66  59 108 59  54 100 54  48 88 48  41 75 41  174 174 174  176 176 176  177 177 177  179 179 179  180 180 180  182 182 182  183 183 183  185 185 185  187 187 187  188 188 188  190 190 190  192 192 192  194 194 194  145 66 66  181 82 82  204 92 92  213 96 96  220 99 99  226 102 102  230 103 103  233 105 105  237 107 107  240 108 108  244 110 110  248 113 113  253 118 118  255 125 125  255 137 137  255 147 147  255 148 148  255 136 136  134 61 61  168 76 76  197 89 89  221 99 99  240 108 108  255 117 117  255 148 148  255 202 202  255 230 230  255 220 220  255 197 197  255 170 170  255 147 147  255 133 133  255 127 127  255 123 123  255 121 121  253 114 114  187 95 95  77 77 172  80 80 179  84 84 188  87 87 193  86 86 192  85 85 190  83 83 186  81 81 183  77 77 173  72 72 162  46 46 104  49 49 111  53 53 118  55 55 124  56 56 126  58 58 129  50 50 112  48 48 109  45 45 102  45 45 101  42 42 95  43 43 97  42 42 96  34 34 76  35 35 78  39 39 88  42 42 95  37 37 82  13 13 30  234 234 234  232 232 232  229 229 229  227 227 227  224 224 224  222 222 222  219 219 219  217 217 217  215 215 215  86 40 40  156 71 71  210 96 96  229 117 117  239 126 126  247 141 141  253 152 152  250 148 148  233 129 129  211 103 103  211 103 103  212 107 107  209 107 107  204 105 105  201 105 105  218 132 132  228 148 148  224 140 140  216 132 132  206 121 121  196 108 108  189 97 97  183 89 89  178 83 83  174 79 79  170 77 77  167 75 75  163 74 74  159 72 72  152 69 69  144 65 65  134 61 61  121 55 55  105 49 49  62 30 30  157 157 157  156 156 156  155 155 155  154 154 154  153 153 153  152 152 152  151 151 151  150 150 150  149 149 149  148 148 148  148 148 148  147 147 147  146 146 146  145 145 145  144 144 144  143 143 143  143 143 143  142 142 142  141 141 141  140 140 140  139 139 139  139 139 139  138 138 138  137 137 137  136 136 136  136 136 136  135 135 135  134 134 134  134 134 134  133 133 133  132 132 132  132 132 132  
135 135 135  136 136 136  136 136 136  137 137 137  138 138 138  139 139 139  139 139 139  140 140 140  141 141 141  142 142 142  142 142 142  143 143 143  144 144 144  145 145 145  145 145 145  146 146 146  147 147 147  148 148 148  149 149 149  150 150 150  151 151 151  151 151 151  152 152 152  153 153 153  59 108 59  92 169 92  94 172 94  88 160 88  86 157 86  91 167 91  95 175 95  92 169 92  87 159 87  83 151 83  78 143 78  77 141 77  73 134 73  66 121 66  54 99 54  38 70 38  16 30 16  173 173 173  174 174 174  175 175 175  177 177 177  178 178 178  180 180 180  181 181 181  182 182 182  184 184 184  185 185 185  187 187 187  189 189 189  190 190 190  192 192 192  194 194 194  195 195 195  197 197 197  153 70 70  184 83 83  201 91 91  209 94 94  216 97 97  220 99 99  222 100 100  224 101 101  226 102 102  228 103 103  232 104 104  236 107 107  241 110 110  247 116 116  255 126 126  255 136 136  255 137 137  251 122 122  81 38 38  122 56 56  156 71 71  186 84 84  210 95 95  230 103 103  246 113 113  255 137 137  255 187 187  255 219 219  255 215 215  255 197 197  255 170 170  255 146 146  255 130 130  255 122 122  255 118 118  252 113 113  187 93 93  79 79 178  81 81 181  83 83 187  85 85 190  90 90 202  92 92 205  87 87 195  86 86 193  83 83 185  76 76 170  56 56 126  45 45 102  50 50 113  54 54 121  50 50 112  45 45 102  38 38 85  33 33 74  47 47 106  50 50 112  50 50 113  43 43 97  36 36 81  13 13 30  21 21 47  26 26 59  13 13 30  239 239 239  237 237 237  235 235 235  232 232 232  230 230 230  228 228 228  226 226 226  223 223 223  221 221 221  219 219 219  217 217 217  215 215 215  213 213 213  109 50 50  182 82 82  230 127 127  250 151 151  245 135 135  244 135 135  240 135 135  219 111 111  207 101 101  209 107 107  205 106 106  198 102 102  191 97 97  195 106 106  220 139 139  227 146 146  217 128 128  209 120 120  200 109 109  191 98 98  185 90 90  180 84 84  176 80 80  172 78 78  168 76 76  164 74 74  157 71 71  149 68 68  140 63 63  128 58 58  114 52 52  103 48 48  93 43 43  42 22 22  160 160 160  159 159 159  158 158 158  157 157 157  156 156 156  155 155 155  154 154 154  153 153 153  152 152 152  151 151 151  151 151 151  150 150 150  149 149 149  148 148 148  147 147 147  146 146 146  145 145 145  145 145 145  144 144 144  143 143 143  142 142 142  142 142 142  141 141 141  140 140 140  139 139 139  139 139 139  138 138 138  137 137 137  136 136 136  136 136 136  135 135 135  
139 139 139  139 139 139  140 140 140  141 141 141  141 141 141  142 142 142  143 143 143  144 144 144  144 144 144  145 145 145  146 146 146  147 147 147  147 147 147  148 148 148  149 149 149  150 150 150  151 151 151  152 152 152  152 152 152  153 153 153  154 154 154  155 155 155  156 156 156  51 94 51  78 142 78  71 130 71  61 112 61  74 136 74  74 136 74  69 127 69  65 120 65  37 68 37  16 30 16  167 167 167  16 30 16  16 30 16  170 170 170  172 172 172  173 173 173  174 174 174  175 175 175  176 176 176  178 178 178  179 179 179  180 180 180  182 182 182  183 183 183  184 184 184  186 186 186  187 187 187  189 189 189  190 190 190  192 192 192  193 193 193  195 195 195  197 197 197  198 198 198  122 56 56  158 72 72  185 84 84  197 89 89  205 92 92  209 94 94  211 95 95  212 96 96  214 96 96  217 97 97  219 99 99  222 100 100  225 102 102  229 103 103  234 107 107  240 112 112  246 120 120  249 124 124  238 111 111  225 101 101  62 30 30  109 50 50  143 65 65  172 78 78  198 89 89  217 98 98  233 106 106  248 119 119  255 143 143  255 161 161  255 161 161  255 154 154  255 140 140  255 126 126  255 118 118  254 114 114  249 112 112  184 88 88  82 82 183  81 81 183  79 79 178  81 81 183  88 88 198  90 90 201  90 90 201  156 156 235  87 87 190  80 80 179  74 74 166  67 67 150  58 58 130  54 54 122  48 48 107  45 45 101  42 42 94  47 47 106  53 53 119  56 56 127  58 58 130  50 50 113  13 13 30  13 13 30  13 13 30  242 242 242  240 240 240  238 238 238  236 236 236  234 234 234  232 232 232  230 230 230  228 228 228  226 226 226  224 224 224  222 222 222  220 220 220  218 218 218  216 216 216  214 214 214  212 212 212  43 23 23  138 63 63  195 93 93  235 135 135  237 136 136  233 128 128  228 121 121  212 108 108  205 106 106  199 104 104  202 110 110  206 116 116  209 123 123  212 129 129  228 148 148  221 133 133  211 118 118  204 109 109  195 100 100  187 91 91  183 86 86  179 82 82  175 79 79  168 76 76  160 73 73  152 69 69  143 65 65  134 61 61  122 56 56  114 52 52  105 49 49  96 44 44  54 27 27  164 164 164  163 163 163  162 162 162  161 161 161  160 160 160  159 159 159  158 158 158  157 157 157  156 156 156  155 155 155  154 154 154  153 153 153  152 152 152  152 152 152  151 151 151  150 150 150  149 149 149  148 148 148  147 147 147  147 147 147  146 146 146  145 145 145  144 144 144  144 144 144  143 143 143  142 142 142  141 141 141  141 141 141  140 140 140  139 139 139  139 139 139  
142 142 142  143 143 143  143 143 143  144 144 144  145 145 145  146 146 146  146 146 146  147 147 147  148 148 148  149 149 149  149 149 149  150 150 150  151 151 151  152 152 152  153 153 153  153 153 153  154 154 154  155 155 155  156 156 156  157 157 157  158 158 158  159 159 159  160 160 160  31 57 31  16 30 16  16 30 16  163 163 163  35 64 35  165 165 165  166 166 166  167 167 167  168 168 168  170 170 170  171 171 171  172 172 172  173 173 173  174 174 174  175 175 175  176 176 176  177 177 177  179 179 179  180 180 180  181 181 181  182 182 182  184 184 184  185 185 185  186 186 186  188 188 188  189 189 189  190 190 190  192 192 192  193 193 193  195 195 195  196 196 196  198 198 198  199 199 199  201 201 201  136 62 62  163 74 74  183 82 82  193 87 87  198 89 89  201 91 91  204 92 92  205 92 92  207 93 93  208 94 94  209 94 94  211 95 95  214 96 96  217 98 98  222 100 100  226 103 103  231 106 106  233 109 109  225 103 103  211 95 95  9 13 13  37 21 21  95 44 44  131 60 60  160 72 72  184 83 83  205 92 92  220 99 99  233 107 107  243 116 116  248 121 121  251 123 123  250 120 120  248 115 115  246 111 111  243 109 109  239 107 107  178 81 81  59 36 36  82 82 183  72 72 163  76 76 171  81 81 181  84 84 189  91 91 193  85 85 189  83 83 186  82 82 184  81 81 181  76 76 170  69 69 156  65 65 146  63 63 142  60 60 134  52 52 117  47 47 105  48 48 108  55 55 125  54 54 121  25 25 57  245 245 245  244 244 244  242 242 242  240 240 240  239 239 239  237 237 237  235 235 235  233 233 233  232 232 232  230 230 230  228 228 228  226 226 226  224 224 224  223 223 223  221 221 221  219 219 219  217 217 217  216 216 216  214 214 214  212 212 212  210 210 210  90 42 42  156 71 71  177 80 80  189 87 87  199 93 93  196 91 91  192 92 92  188 94 94  205 117 117  225 139 139  228 140 140  228 142 142  227 142 142  225 140 140  214 120 120  207 109 109  200 101 101  192 94 94  184 87 87  178 81 81  171 77 77  164 74 74  155 70 70  146 66 66  137 63 63  128 58 58  122 56 56  115 53 53  107 49 49  98 45 45  80 38 38  167 167 167  166 166 166  165 165 165  164 164 164  163 163 163  162 162 162  161 161 161  161 161 161  160 160 160  159 159 159  158 158 158  157 157 157  156 156 156  155 155 155  154 154 154  153 153 153  153 153 153  152 152 152  151 151 151  150 150 150  149 149 149  149 149 149  148 148 148  147 147 147  146 146 146  146 146 146  145 145 145  144 144 144  143 143 143  143 143 143  142 142 142  
145 145 145  146 146 146  147 147 147  147 147 147  148 148 148  149 149 149  150 150 150  150 150 150  151 151 151  152 152 152  153 153 153  153 153 153  154 154 154  155 155 155  156 156 156  157 157 157  158 158 158  158 158 158  159 159 159  160 160 160  161 161 161  162 162 162  163 163 163  164 164 164  165 165 165  166 166 166  167 167 167  168 168 168  169 169 169  170 170 170  171 171 171  172 172 172  173 173 173  174 174 174  175 175 175  176 176 176  177 177 177  178 178 178  179 179 179  181 181 181  182 182 182  183 183 183  184 184 184  185 185 185  187 187 187  188 188 188  189 189 189  190 190 190  192 192 192  193 193 193  194 194 194  196 196 196  197 197 197  199 199 199  200 200 200  201 201 201  203 203 203  143 65 65  163 74 74  179 81 81  187 84 84  193 87 87  195 88 88  197 89 89  200 90 90  201 91 91  203 92 92  205 92 92  207 93 93  209 94 94  211 95 95  215 97 97  217 98 98  219 99 99  220 100 100  216 98 98  204 92 92  172 78 78  9 13 13  9 13 13  84 39 39  122 56 56  151 69 69  174 79 79  194 87 87  210 94 94  219 99 99  226 102 102  230 105 105  231 105 105  232 105 105  231 104 104  229 103 103  226 102 102  170 77 77  45 35 35  81 81 183  62 62 138  70 70 156  74 74 166  76 76 170  76 76 171  75 75 168  74 74 165  72 72 162  71 71 159  69 69 156  66 66 147  64 64 143  56 56 125  47 47 106  41 41 93  37 37 84  32 32 73  39 39 87  26 26 58  244 244 244  242 242 242  241 241 241  240 240 240  238 238 238  237 237 237  235 235 235  234 234 234  232 232 232  231 231 231  229 229 229  228 228 228  226 226 226  224 224 224  223 223 223  221 221 221  220 220 220  218 218 218  217 217 217  215 215 215  213 213 213  212 212 212  210 210 210  52 26 26  79 37 37  95 44 44  110 51 51  127 58 58  146 66 66  161 73 73  159 72 72  153 70 70  159 74 74  184 102 102  213 136 136  220 139 139  213 120 120  209 110 110  201 102 102  190 93 93  181 85 85  174 79 79  167 76 76  159 72 72  150 68 68  140 64 64  133 61 61  129 59 59  127 58 58  127 58 58  127 58 58  126 57 57  115 53 53  171 171 171  170 170 170  169 169 169  168 168 168  167 167 167  166 166 166  165 165 165  164 164 164  163 163 163  162 162 162  161 161 161  160 160 160  159 159 159  158 158 158  158 158 158  157 157 157  156 156 156  155 155 155  154 154 154  153 153 153  153 153 153  152 152 152  151 151 151  150 150 150  150 150 150  149 149 149  148 148 148  147 147 147  147 147 147  146 146 146  145 145 145  
148 148 148  149 149 149  150 150 150  150 150 150  151 151 151  152 152 152  153 153 153  154 154 154  154 154 154  155 155 155  156 156 156  157 157 157  158 158 158  158 158 158  159 159 159  160 160 160  161 161 161  162 162 162  163 163 163  163 163 163  164 164 164  165 165 165  166 166 166  167 167 167  168 168 168  169 169 169  170 170 170  171 171 171  172 172 172  173 173 173  174 174 174  175 175 175  176 176 176  177 177 177  178 178 178  179 179 179  180 180 180  181 181 181  182 182 182  183 183 183  185 185 185  186 186 186  187 187 187  188 188 188  189 189 189  190 190 190  192 192 192  193 193 193  194 194 194  195 195 195  197 197 197  198 198 198  199 199 199  201 201 201  202 202 202  203 203 203  118 54 54  148 67 67  160 73 73  173 78 78  182 82 82  187 85 85  191 86 86  193 87 87  195 88 88  196 89 89  199 89 89  200 90 90  202 91 91  204 92 92  205 92 92  207 93 93  209 94 94  212 96 96  212 96 96  209 94 94  199 90 90  168 76 76  107 49 49  9 13 13  9 13 13  71 34 34  112 51 51  141 64 64  165 74 74  181 82 82  192 87 87  201 91 91  209 94 94  213 96 96  214 96 96  213 96 96  212 95 95  210 94 94  161 73 73  30 31 31  76 76 171  45 45 101  47 47 106  61 61 138  63 63 142  63 63 142  62 62 139  61 61 136  57 57 128  51 51 115  46 46 103  46 46 102  45 45 102  41 41 92  35 35 78  30 30 67  24 24 54  16 16 36  13 13 30  242 242 242  241 241 241  240 240 240  239 239 239  238 238 238  236 236 236  235 235 235  234 234 234  232 232 232  231 231 231  230 230 230  228 228 228  227 227 227  226 226 226  224 224 224  223 223 223  221 221 221  220 220 220  219 219 219  217 217 217  216 216 216  214 214 214  213 213 213  212 212 212  210 210 210  209 209 209  207 207 207  206 206 206  205 205 205  65 32 32  82 39 39  97 45 45  110 51 51  122 56 56  125 57 57  127 58 58  145 66 66  161 76 76  179 95 95  190 105 105  186 96 96  172 81 81  160 73 73  147 67 67  132 60 60  125 57 57  129 59 59  132 60 60  135 61 61  137 62 62  138 63 63  130 59 59  120 55 55  9 13 13  174 174 174  173 173 173  172 172 172  171 171 171  170 170 170  169 169 169  168 168 168  167 167 167  166 166 166  165 165 165  164 164 164  163 163 163  163 163 163  162 162 162  161 161 161  160 160 160  159 159 159  158 158 158  158 158 158  157 157 157  156 156 156  155 155 155  154 154 154  154 154 154  153 153 153  152 152 152  151 151 151  150 150 150  150 150 150  149 149 149  148 148 148  
151 151 151  152 152 152  153 153 153  154 154 154  154 154 154  155 155 155  156 156 156  157 157 157  157 157 157  158 158 158  159 159 159  160 160 160  161 161 161  161 161 161  162 162 162  163 163 163  164 164 164  165 165 165  166 166 166  167 167 167  167 167 167  168 168 168  169 169 169  170 170 170  171 171 171  172 172 172  173 173 173  174 174 174  175 175 175  176 176 176  177 177 177  178 178 178  179 179 179  180 180 180  181 181 181  182 182 182  183 183 183  184 184 184  185 185 185  186 186 186  187 187 187  188 188 188  190 190 190  191 191 191  192 192 192  193 193 193  194 194 194  195 195 195  196 196 196  198 198 198  199 199 199  200 200 200  201 201 201  202 202 202  204 204 204  205 205 205  132 60 60  149 68 68  155 70 70  168 76 76  178 80 80  183 83 83  187 84 84  190 86 86  192 86 86  193 87 87  195 88 88  196 88 88  198 89 89  199 90 90  201 91 91  203 92 92  204 92 92  206 93 93  205 92 92  203 91 91  193 87 87  170 77 77  124 57 57  9 13 13  10 14 14  9 13 13  54 27 27  100 46 46  131 60 60  148 67 67  161 73 73  172 78 78  181 82 82  189 85 85  194 87 87  194 87 87  193 87 87  191 86 86  149 68 68  246 246 246  246 246 246  247 247 247  247 247 247  247 247 247  13 13 30  13 13 30  13 13 30  13 13 30  246 246 246  246 246 246  245 245 245  245 245 245  245 245 245  244 244 244  243 243 243  243 243 243  242 242 242  241 241 241  240 240 240  240 240 240  239 239 239  238 238 238  237 237 237  236 236 236  235 235 235  234 234 234  232 232 232  231 231 231  230 230 230  229 229 229  228 228 228  226 226 226  225 225 225  224 224 224  223 223 223  222 222 222  220 220 220  219 219 219  218 218 218  216 216 216  215 215 215  214 214 214  213 213 213  211 211 211  210 210 210  209 209 209  207 207 207  206 206 206  205 205 205  204 204 204  202 202 202  201 201 201  200 200 200  64 31 31  80 38 38  94 44 44  98 46 46  113 52 52  127 58 58  130 59 59  116 53 53  102 47 47  103 47 47  106 49 49  108 50 50  98 46 46  88 41 41  77 36 36  64 31 31  48 25 25  27 17 17  9 13 13  178 178 178  177 177 177  176 176 176  175 175 175  174 174 174  173 173 173  172 172 172  171 171 171  170 170 170  169 169 169  168 168 168  167 167 167  167 167 167  166 166 166  165 165 165  164 164 164  163 163 163  162 162 162  161 161 161  161 161 161  160 160 160  159 159 159  158 158 158  157 157 157  157 157 157  156 156 156  155 155 155  154 154 154  154 154 154  153 153 153  152 152 152  151 151 151  
154 154 154  155 155 155  156 156 156  157 157 157  157 157 157  158 158 158  159 159 159  160 160 160  160 160 160  161 161 161  162 162 162  163 163 163  164 164 164  164 164 164  165 165 165  166 166 166  167 167 167  168 168 168  169 169 169  170 170 170  170 170 170  171 171 171  172 172 172  173 173 173  174 174 174  175 175 175  176 176 176  177 177 177  178 178 178  179 179 179  180 180 180  181 181 181  182 182 182  183 183 183  184 184 184  185 185 185  186 186 186  187 187 187  188 188 188  189 189 189  190 190 190  191 191 191  192 192 192  193 193 193  194 194 194  195 195 195  196 196 196  197 197 197  199 199 199  200 200 200  201 201 201  202 202 202  203 203 203  204 204 204  205 205 205  206 206 206  138 63 63  146 66 66  148 67 67  163 74 74  174 79 79  180 81 81  184 83 83  186 84 84  189 85 85  190 86 86  192 87 87  193 87 87  195 88 88  196 88 88  198 89 89  200 90 90  200 90 90  201 91 91  200 90 90  197 89 89  189 85 85  177 80 80  154 70 70  113 52 52  63 31 31  55 27 27  9 13 13  30 18 18  83 39 39  104 48 48  122 56 56  137 62 62  149 68 68  159 72 72  167 76 76  173 78 78  171 77 77  169 76 76  139 63 63  243 243 243  243 243 243  243 243 243  244 244 244  244 244 244  244 244 244  244 244 244  243 243 243  243 243 243  243 243 243  243 243 243  242 242 242  242 242 242  242 242 242  241 241 241  241 241 241  240 240 240  239 239 239  239 239 239  238 238 238  237 237 237  237 237 237  236 236 236  235 235 235  234 234 234  233 233 233  232 232 232  231 231 231  230 230 230  229 229 229  228 228 228  227 227 227  226 226 226  225 225 225  224 224 224  223 223 223  222 222 222  220 220 220  219 219 219  218 218 218  217 217 217  216 216 216  215 215 215  213 213 213  212 212 212  211 211 211  210 210 210  209 209 209  208 208 208  206 206 206  205 205 205  204 204 204  203 203 203  202 202 202  201 201 201  200 200 200  199 199 199  197 197 197  196 196 196  195 195 195  64 31 31  193 193 193  192 192 192  191 191 191  190 190 190  189 189 189  188 188 188  187 187 187  186 186 186  185 185 185  184 184 184  183 183 183  182 182 182  181 181 181  180 180 180  179 179 179  178 178 178  177 177 177  176 176 176  175 175 175  174 174 174  173 173 173  172 172 172  171 171 171  170 170 170  170 170 170  169 169 169  168 168 168  167 167 167  166 166 166  165 165 165  164 164 164  164 164 164  163 163 163  162 162 162  161 161 161  160 160 160  160 160 160  159 159 159  158 158 158  157 157 157  157 157 157  156 156 156  155 155 155  154 154 154  
157 157 157  158 158 158  159 159 159  159 159 159  160 160 160  161 161 161  162 162 162  163 163 163  163 163 163  164 164 164  165 165 165  166 166 166  167 167 167  167 167 167  168 168 168  169 169 169  170 170 170  171 171 171  172 172 172  172 172 172  173 173 173  174 174 174  175 175 175  176 176 176  177 177 177  178 178 178  179 179 179  180 180 180  180 180 180  181 181 181  182 182 182  183 183 183  184 184 184  185 185 185  186 186 186  187 187 187  188 188 188  189 189 189  190 190 190  191 191 191  192 192 192  193 193 193  194 194 194  195 195 195  196 196 196  197 197 197  198 198 198  199 199 199  200 200 200  201 201 201  203 203 203  204 204 204  205 205 205  206 206 206  207 207 207  117 54 54  140 64 64  138 63 63  139 63 63  159 72 72  170 77 77  177 80 80  181 82 82  184 83 83  186 84 84  188 85 85  189 85 85  191 86 86  192 87 87  194 87 87  195 88 88  196 88 88  197 89 89  198 89 89  196 88 88  193 87 87  186 84 84  174 79 79  162 73 73  150 68 68  142 65 65  134 61 61  128 58 58  9 13 13  9 13 13  19 15 15  63 31 31  88 41 41  106 49 49  122 56 56  134 61 61  143 65 65  151 68 68  149 68 68  129 59 59  241 241 241  241 241 241  241 241 241  241 241 241  241 241 241  241 241 241  241 241 241  241 241 241  241 241 241  241 241 241  240 240 240  240 240 240  240 240 240  239 239 239  239 239 239  238 238 238  238 238 238  237 237 237  237 237 237  236 236 236  236 236 236  235 235 235  234 234 234  234 234 234  233 233 233  232 232 232  231 231 231  230 230 230  229 229 229  228 228 228  228 228 228  227 227 227  226 226 226  225 225 225  224 224 224  223 223 223  222 222 222  221 221 221  220 220 220  219 219 219  218 218 218  216 216 216  215 215 215  214 214 214  213 213 213  212 212 212  211 211 211  210 210 210  209 209 209  208 208 208  207 207 207  206 206 206  205 205 205  204 204 204  203 203 203  201 201 201  200 200 200  199 199 199  198 198 198  197 197 197  196 196 196  195 195 195  194 194 194  193 193 193  192 192 192  191 191 191  190 190 190  189 189 189  188 188 188  187 187 187  186 186 186  185 185 185  184 184 184  183 183 183  182 182 182  181 181 181  180 180 180  180 180 180  179 179 179  178 178 178  177 177 177  176 176 176  175 175 175  174 174 174  173 173 173  172 172 172  172 172 172  171 171 171  170 170 170  169 169 169  168 168 168  167 167 167  167 167 167  166 166 166  165 165 165  164 164 164  163 163 163  163 163 163  162 162 162  161 161 161  160 160 160  159 159 159  159 159 159  158 158 158  157 157 157  
160 160 160  161 161 161  162 162 162  162 162 162  163 163 163  164 164 164  165 165 165  165 165 165  166 166 166  167 167 167  168 168 168  168 168 168  169 169 169  170 170 170  171 171 171  172 172 172  173 173 173  173 173 173  174 174 174  175 175 175  176 176 176  177 177 177  178 178 178  179 179 179  179 179 179  180 180 180  181 181 181  182 182 182  183 183 183  184 184 184  185 185 185  186 186 186  187 187 187  188 188 188  189 189 189  190 190 190  190 190 190  191 191 191  192 192 192  193 193 193  194 194 194  195 195 195  196 196 196  197 197 197  198 198 198  199 199 199  200 200 200  201 201 201  202 202 202  203 203 203  204 204 204  205 205 205  206 206 206  207 207 207  208 208 208  129 59 59  138 63 63  127 58 58  130 59 59  153 69 69  167 76 76  174 79 79  178 81 81  181 82 82  183 83 83  185 83 83  187 84 84  188 85 85  189 85 85  191 86 86  192 87 87  193 87 87  194 88 88  194 87 87  193 87 87  189 85 85  182 82 82  171 77 77  159 72 72  148 67 67  139 63 63  133 60 60  124 57 57  111 51 51  9 13 13  9 13 13  9 13 13  9 13 13  9 13 13  61 30 30  86 40 40  102 47 47  115 53 53  125 57 57  118 54 54  239 239 239  239 239 239  239 239 239  239 239 239  239 239 239  239 239 239  239 239 239  239 239 239  239 239 239  239 239 239  238 238 238  238 238 238  238 238 238  238 238 238  237 237 237  237 237 237  236 236 236  236 236 236  235 235 235  235 235 235  234 234 234  234 234 234  233 233 233  232 232 232  232 232 232  231 231 231  230 230 230  230 230 230  229 229 229  228 228 228  227 227 227  226 226 226  225 225 225  225 225 225  224 224 224  223 223 223  222 222 222  221 221 221  220 220 220  219 219 219  218 218 218  217 217 217  216 216 216  215 215 215  214 214 214  213 213 213  212 212 212  211 211 211  210 210 210  209 209 209  208 208 208  207 207 207  206 206 206  205 205 205  204 204 204  203 203 203  202 202 202  201 201 201  200 200 200  199 199 199  198 198 198  197 197 197  196 196 196  195 195 195  194 194 194  193 193 193  192 192 192  191 191 191  190 190 190  190 190 190  189 189 189  188 188 188  187 187 187  186 186 186  185 185 185  184 184 184  183 183 183  182 182 182  181 181 181  180 180 180  179 179 179  179 179 179  178 178 178  177 177 177  176 176 176  175 175 175  174 174 174  173 173 173  173 173 173  172 172 172  171 171 171  170 170 170  169 169 169  168 168 168  168 168 168  167 167 167  166 166 166  165 165 165  165 165 165  164 164 164  163 163 163  162 162 162  162 162 162  161 161 161  160 160 160  
163 163 163  163 163 163  164 164 164  165 165 165  166 166 166  166 166 166  167 167 167  168 168 168  169 169 169  170 170 170  170 170 170  171 171 171  172 172 172  173 173 173  174 174 174  174 174 174  175 175 175  176 176 176  177 177 177  178 178 178  179 179 179  179 179 179  180 180 180  181 181 181  182 182 182  183 183 183  184 184 184  185 185 185  185 185 185  186 186 186  187 187 187  188 188 188  189 189 189  190 190 190  191 191 191  192 192 192  193 193 193  194 194 194  195 195 195  195 195 195  196 196 196  197 197 197  198 198 198  199 199 199  200 200 200  201 201 201  202 202 202  203 203 203  204 204 204  205 205 205  206 206 206  207 207 207  208 208 208  209 209 209  210 210 210  133 60 60  130 59 59  112 51 51  116 53 53  148 67 67  164 74 74  171 77 77  176 79 79  179 81 81  181 82 82  183 83 83  184 83 83  186 84 84  187 84 84  189 85 85  190 86 86  191 86 86  191 86 86  191 86 86  189 85 85  185 83 83  177 80 80  166 75 75  153 70 70  140 64 64  130 59 59  120 55 55  109 50 50  94 44 44  97 45 45  9 13 13  9 13 13  9 13 13  9 13 13  9 13 13  9 13 13  9 13 13  22 16 16  237 237 237  237 237 237  237 237 237  237 237 237  237 237 237  237 237 237  237 237 237  237 237 237  237 237 237  237 237 237  237 237 237  237 237 237  237 237 237  237 237 237  236 236 236  236 236 236  236 236 236  235 235 235  235 235 235  235 235 235  234 234 234  234 234 234  233 233 233  233 233 233  232 232 232  232 232 232  231 231 231  230 230 230  230 230 230  229 229 229  228 228 228  228 228 228  227 227 227  226 226 226  225 225 225  225 225 225  224 224 224  223 223 223  222 222 222  221 221 221  220 220 220  220 220 220  219 219 219  218 218 218  217 217 217  216 216 216  215 215 215  214 214 214  213 213 213  212 212 212  211 211 211  211 211 211  210 210 210  209 209 209  208 208 208  207 207 207  206 206 206  205 205 205  204 204 204  203 203 203  202 202 202  201 201 201  200 200 200  199 199 199  198 198 198  197 197 197  196 196 196  195 195 195  195 195 195  194 194 194  193 193 193  192 192 192  191 191 191  190 190 190  189 189 189  188 188 188  187 187 187  186 186 186  185 185 185  185 185 185  184 184 184  183 183 183  182 182 182  181 181 181  180 180 180  179 179 179  179 179 179  178 178 178  177 177 177  176 176 176  175 175 175  174 174 174  174 174 174  173 173 173  172 172 172  171 171 171  170 170 170  170 170 170  169 169 169  168 168 168  167 167 167  166 166 166  166 166 166  165 165 165  164 164 164  163 163 163  163 163 163  
165 165 165  166 166 166  167 167 167  168 168 168  168 168 168  169 169 169  170 170 170  171 171 171  171 171 171  172 172 172  173 173 173  174 174 174  175 175 175  175 175 175  176 176 176  177 177 177  178 178 178  179 179 179  179 179 179  180 180 180  181 181 181  182 182 182  183 183 183  184 184 184  184 184 184  185 185 185  186 186 186  187 187 187  188 188 188  189 189 189  190 190 190  190 190 190  191 191 191  192 192 192  193 193 193  194 194 194  195 195 195  196 196 196  197 197 197  197 197 197  198 198 198  199 199 199  200 200 200  201 201 201  202 202 202  203 203 203  204 204 204  205 205 205  206 206 206  206 206 206  207 207 207  208 208 208  209 209 209  210 210 210  117 54 54  132 60 60  117 54 54  91 42 42  100 46 46  141 64 64  160 72 72  169 76 76  173 78 78  176 80 80  179 81 81  181 82 82  182 82 82  184 83 83  185 84 84  187 84 84  188 85 85  189 85 85  189 85 85  188 85 85  186 84 84  181 82 82  172 78 78  161 73 73  146 66 66  129 59 59  116 53 53  104 48 48  91 42 42  78 37 37  96 45 45  118 54 54  12 15 15  124 57 57  106 51 51  235 235 235  235 235 235  235 235 235  235 235 235  236 236 236  236 236 236  236 236 236  236 236 236  236 236 236  236 236 236  236 236 236  236 236 236  236 236 236  236 236 236  236 236 236  236 236 236  236 236 236  236 236 236  235 235 235  235 235 235  235 235 235  235 235 235  234 234 234  234 234 234  233 233 233  233 233 233  233 233 233  232 232 232  232 232 232  231 231 231  231 231 231  230 230 230  229 229 229  229 229 229  228 228 228  228 228 228  227 227 227  226 226 226  226 226 226  225 225 225  224 224 224  223 223 223  223 223 223  222 222 222  221 221 221  220 220 220  219 219 219  219 219 219  218 218 218  217 217 217  216 216 216  215 215 215  214 214 214  214 214 214  213 213 213  212 212 212  211 211 211  210 210 210  209 209 209  208 208 208  207 207 207  206 206 206  206 206 206  205 205 205  204 204 204  203 203 203  202 202 202  201 201 201  200 200 200  199 199 199  198 198 198  197 197 197  197 197 197  196 196 196  195 195 195  194 194 194  193 193 193  192 192 192  191 191 191  190 190 190  190 190 190  189 189 189  188 188 188  187 187 187  186 186 186  185 185 185  184 184 184  184 184 184  183 183 183  182 182 182  181 181 181  180 180 180  179 179 179  179 179 179  178 178 178  177 177 177  176 176 176  175 175 175  175 175 175  174 174 174  173 173 173  172 172 172  171 171 171  171 171 171  170 170 170  169 169 169  168 168 168  168 168 168  167 167 167  166 166 166  165 165 165  
168 168 168  169 169 169  169 169 169  170 170 170  171 171 171  172 172 172  172 172 172  173 173 173  174 174 174  175 175 175  175 175 175  176 176 176  177 177 177  178 178 178  179 179 179  179 179 179  180 180 180  181 181 181  182 182 182  183 183 183  183 183 183  184 184 184  185 185 185  186 186 186  187 187 187  188 188 188  188 188 188  189 189 189  190 190 190  191 191 191  192 192 192  193 193 193  193 193 193  194 194 194  195 195 195  196 196 196  197 197 197  198 198 198  199 199 199  199 199 199  200 200 200  201 201 201  202 202 202  203 203 203  204 204 204  205 205 205  205 205 205  206 206 206  207 207 207  208 208 208  209 209 209  210 210 210  210 210 210  211 211 211  125 57 57  123 56 56  93 43 43  61 30 30  78 37 37  133 60 60  156 71 71  166 75 75  171 77 77  174 79 79  177 80 80  179 81 81  180 81 81  182 82 82  183 83 83  184 83 83  186 84 84  187 84 84  187 84 84  186 84 84  184 83 83  178 80 80  168 76 76  154 70 70  134 61 61  113 52 52  98 45 45  86 40 40  69 33 33  67 32 32  96 45 45  119 55 55  127 58 58  124 57 57  104 49 49  234 234 234  234 234 234  234 234 234  235 235 235  235 235 235  235 235 235  235 235 235  235 235 235  235 235 235  235 235 235  235 235 235  235 235 235  235 235 235  235 235 235  235 235 235  235 235 235  235 235 235  235 235 235  235 235 235  234 234 234  234 234 234  234 234 234  234 234 234  233 233 233  233 233 233  233 233 233  232 232 232  232 232 232  231 231 231  231 231 231  230 230 230  230 230 230  229 229 229  229 229 229  228 228 228  228 228 228  227 227 227  226 226 226  226 226 226  225 225 225  224 224 224  224 224 224  223 223 223  222 222 222  222 222 222  221 221 221  220 220 220  219 219 219  219 219 219  218 218 218  217 217 217  216 216 216  215 215 215  215 215 215  214 214 214  213 213 213  212 212 212  211 211 211  210 210 210  210 210 210  209 209 209  208 208 208  207 207 207  206 206 206  205 205 205  205 205 205  204 204 204  203 203 203  202 202 202  201 201 201  200 200 200  199 199 199  199 199 199  198 198 198  197 197 197  196 196 196  195 195 195  194 194 194  193 193 193  193 193 193  192 192 192  191 191 191  190 190 190  189 189 189  188 188 188  188 188 188  187 187 187  186 186 186  185 185 185  184 184 184  183 183 183  183 183 183  182 182 182  181 181 181  180 180 180  179 179 179  179 179 179  178 178 178  177 177 177  176 176 176  175 175 175  175 175 175  174 174 174  173 173 173  172 172 172  172 172 172  171 171 171  170 170 170  169 169 169  169 169 169  168 168 168  
170 170 170  171 171 171  172 172 172  173 173 173  173 173 173  174 174 174  175 175 175  176 176 176  176 176 176  177 177 177  178 178 178  179 179 179  179 179 179  180 180 180  181 181 181  182 182 182  183 183 183  183 183 183  184 184 184  185 185 185  186 186 186  187 187 187  187 187 187  188 188 188  189 189 189  190 190 190  191 191 191  191 191 191  192 192 192  193 193 193  194 194 194  195 195 195  195 195 195  196 196 196  197 197 197  198 198 198  199 199 199  200 200 200  200 200 200  201 201 201  202 202 202  203 203 203  204 204 204  205 205 205  205 205 205  206 206 206  207 207 207  208 208 208  209 209 209  209 209 209  210 210 210  211 211 211  212 212 212  213 213 213  127 58 58  108 50 50  36 20 20  9 13 13  27 17 17  121 56 56  152 69 69  163 74 74  169 76 76  172 78 78  175 79 79  177 80 80  178 80 80  180 81 81  181 82 82  182 82 82  184 83 83  185 83 83  185 83 83  184 83 83  180 81 81  174 78 78  162 73 73  145 66 66  120 55 55  92 43 43  78 37 37  63 31 31  38 21 21  59 29 29  96 45 45  117 54 54  127 58 58  125 57 57  106 50 50  234 234 234  234 234 234  234 234 234  234 234 234  234 234 234  235 235 235  235 235 235  235 235 235  235 235 235  235 235 235  235 235 235  235 235 235  235 235 235  235 235 235  235 235 235  235 235 235  235 235 235  234 234 234  234 234 234  234 234 234  234 234 234  234 234 234  233 233 233  233 233 233  233 233 233  232 232 232  232 232 232  232 232 232  231 231 231  231 231 231  230 230 230  230 230 230  229 229 229  229 229 229  228 228 228  228 228 228  227 227 227  227 227 227  226 226 226  225 225 225  225 225 225  224 224 224  224 224 224  223 223 223  222 222 222  222 222 222  221 221 221  220 220 220  219 219 219  219 219 219  218 218 218  217 217 217  216 216 216  216 216 216  215 215 215  214 214 214  213 213 213  213 213 213  212 212 212  211 211 211  210 210 210  209 209 209  209 209 209  208 208 208  207 207 207  206 206 206  205 205 205  205 205 205  204 204 204  203 203 203  202 202 202  201 201 201  200 200 200  200 200 200  199 199 199  198 198 198  197 197 197  196 196 196  195 195 195  195 195 195  194 194 194  193 193 193  192 192 192  191 191 191  191 191 191  190 190 190  189 189 189  188 188 188  187 187 187  187 187 187  186 186 186  185 185 185  184 184 184  183 183 183  183 183 183  182 182 182  181 181 181  180 180 180  179 179 179  179 179 179  178 178 178  177 177 177  176 176 176  176 176 176  175 175 175  174 174 174  173 173 173  173 173 173  172 172 172  171 171 171  170 170 170  
173 173 173  174 174 174  174 174 174  175 175 175  176 176 176  176 176 176  177 177 177  178 178 178  179 179 179  179 179 179  180 180 180  181 181 181  182 182 182  183 183 183  183 183 183  184 184 184  185 185 185  186 186 186  186 186 186  187 187 187  188 188 188  189 189 189  190 190 190  190 190 190  191 191 191  192 192 192  193 193 193  193 193 193  194 194 194  195 195 195  196 196 196  197 197 197  197 197 197  198 198 198  199 199 199  200 200 200  201 201 201  201 201 201  202 202 202  203 203 203  204 204 204  205 205 205  205 205 205  206 206 206  207 207 207  208 208 208  209 209 209  209 209 209  210 210 210  211 211 211  212 212 212  212 212 212  213 213 213  116 53 53  119 55 55  66 32 32  9 13 13  9 13 13  9 13 13  109 50 50  148 67 67  160 73 73  166 75 75  170 77 77  173 78 78  175 79 79  176 80 80  178 80 80  179 81 81  181 82 82  182 82 82  183 82 82  182 82 82  181 82 82  177 80 80  169 76 76  157 71 71  135 61 61  100 46 46  62 30 30  49 25 25  25 17 17  9 13 13  49 25 25  91 42 42  114 52 52  126 57 57  125 57 57  107 50 50  233 233 233  234 234 234  234 234 234  234 234 234  234 234 234  234 234 234  234 234 234  235 235 235  235 235 235  235 235 235  235 235 235  235 235 235  235 235 235  235 235 235  235 235 235  234 234 234  234 234 234  234 234 234  234 234 234  234 234 234  234 234 234  233 233 233  233 233 233  233 233 233  233 233 233  232 232 232  232 232 232  232 232 232  231 231 231  231 231 231  230 230 230  230 230 230  230 230 230  229 229 229  229 229 229  228 228 228  228 228 228  227 227 227  227 227 227  226 226 226  225 225 225  225 225 225  224 224 224  224 224 224  223 223 223  222 222 222  222 222 222  221 221 221  220 220 220  220 220 220  219 219 219  218 218 218  218 218 218  217 217 217  216 216 216  215 215 215  215 215 215  214 214 214  213 213 213  212 212 212  212 212 212  211 211 211  210 210 210  209 209 209  209 209 209  208 208 208  207 207 207  206 206 206  205 205 205  205 205 205  204 204 204  203 203 203  202 202 202  201 201 201  201 201 201  200 200 200  199 199 199  198 198 198  197 197 197  197 197 197  196 196 196  195 195 195  194 194 194  193 193 193  193 193 193  192 192 192  191 191 191  190 190 190  190 190 190  189 189 189  188 188 188  187 187 187  186 186 186  186 186 186  185 185 185  184 184 184  183 183 183  183 183 183  182 182 182  181 181 181  180 180 180  179 179 179  179 179 179  178 178 178  177 177 177  176 176 176  176 176 176  175 175 175  174 174 174  174 174 174  173 173 173  
175 175 175  176 176 176  177 177 177  177 177 177  178 178 178  179 179 179  180 180 180  180 180 180  181 181 181  182 182 182  182 182 182  183 183 183  184 184 184  185 185 185  185 185 185  186 186 186  187 187 187  188 188 188  189 189 189  189 189 189  190 190 190  191 191 191  192 192 192  192 192 192  193 193 193  194 194 194  195 195 195  195 195 195  196 196 196  197 197 197  198 198 198  199 199 199  199 199 199  200 200 200  201 201 201  202 202 202  202 202 202  203 203 203  204 204 204  205 205 205  206 206 206  206 206 206  207 207 207  208 208 208  209 209 209  209 209 209  210 210 210  211 211 211  212 212 212  212 212 212  213 213 213  214 214 214  214 214 214  121 55 55  99 46 46  9 13 13  9 13 13  218 218 218  9 13 13  79 38 38  142 65 65  158 71 71  164 74 74  168 76 76  171 77 77  173 78 78  175 79 79  176 80 80  178 80 80  179 81 81  180 81 81  180 81 81  180 81 81  178 81 81  174 78 78  165 75 75  149 67 67  119 54 54  63 31 31  9 13 13  9 13 13  9 13 13  9 13 13  25 17 17  83 39 39  110 51 51  124 57 57  124 57 57  108 50 50  233 233 233  234 234 234  234 234 234  234 234 234  234 234 234  234 234 234  234 234 234  234 234 234  235 235 235  235 235 235  235 235 235  235 235 235  235 235 235  235 235 235  234 234 234  234 234 234  234 234 234  234 234 234  234 234 234  234 234 234  234 234 234  233 233 233  233 233 233  233 233 233  233 233 233  232 232 232  232 232 232  232 232 232  231 231 231  231 231 231  231 231 231  230 230 230  230 230 230  229 229 229  229 229 229  229 229 229  228 228 228  228 228 228  227 227 227  227 227 227  226 226 226  225 225 225  225 225 225  224 224 224  224 224 224  223 223 223  223 223 223  222 222 222  221 221 221  221 221 221  220 220 220  219 219 219  219 219 219  218 218 218  217 217 217  217 217 217  216 216 216  215 215 215  214 214 214  214 214 214  213 213 213  212 212 212  212 212 212  211 211 211  210 210 210  209 209 209  209 209 209  208 208 208  207 207 207  206 206 206  206 206 206  205 205 205  204 204 204  203 203 203  202 202 202  202 202 202  201 201 201  200 200 200  199 199 199  199 199 199  198 198 198  197 197 197  196 196 196  195 195 195  195 195 195  194 194 194  193 193 193  192 192 192  192 192 192  191 191 191  190 190 190  189 189 189  189 189 189  188 188 188  187 187 187  186 186 186  185 185 185  185 185 185  184 184 184  183 183 183  182 182 182  182 182 182  181 181 181  180 180 180  180 180 180  179 179 179  178 178 178  177 177 177  177 177 177  176 176 176  175 175 175  
177 177 177  178 178 178  179 179 179  180 180 180  180 180 180  181 181 181  182 182 182  182 182 182  183 183 183  184 184 184  185 185 185  185 185 185  186 186 186  187 187 187  188 188 188  188 188 188  189 189 189  190 190 190  191 191 191  191 191 191  192 192 192  193 193 193  194 194 194  194 194 194  195 195 195  196 196 196  197 197 197  197 197 197  198 198 198  199 199 199  200 200 200  200 200 200  201 201 201  202 202 202  203 203 203  203 203 203  204 204 204  205 205 205  206 206 206  206 206 206  207 207 207  208 208 208  209 209 209  209 209 209  210 210 210  211 211 211  212 212 212  212 212 212  213 213 213  214 214 214  214 214 214  215 215 215  216 216 216  115 53 53  22 16 16  9 13 13  218 218 218  219 219 219  220 220 220  9 13 13  137 62 62  155 70 70  162 73 73  166 75 75  169 76 76  171 77 77  173 78 78  174 79 79  176 79 79  177 80 80  178 80 80  179 81 81  178 80 80  176 79 79  170 77 77  160 72 72  140 64 64  94 44 44  9 13 13  9 13 13  9 13 13  9 13 13  9 13 13  9 13 13  67 32 32  103 48 48  121 55 55  124 57 57  109 50 50  234 234 234  234 234 234  234 234 234  234 234 234  234 234 234  234 234 234  235 235 235  235 235 235  235 235 235  235 235 235  235 235 235  235 235 235  235 235 235  235 235 235  235 235 235  235 235 235  234 234 234  234 234 234  234 234 234  234 234 234  234 234 234  234 234 234  233 233 233  233 233 233  233 233 233  233 233 233  232 232 232  232 232 232  232 232 232  231 231 231  231 231 231  231 231 231  230 230 230  230 230 230  230 230 230  229 229 229  229 229 229  228 228 228  228 228 228  227 227 227  227 227 227  226 226 226  226 226 226  225 225 225  225 225 225  224 224 224  223 223 223  223 223 223  222 222 222  222 222 222  221 221 221  220 220 220  220 220 220  219 219 219  218 218 218  218 218 218  217 217 217  216 216 216  216 216 216  215 215 215  214 214 214  214 214 214  213 213 213  212 212 212  212 212 212  211 211 211  210 210 210  209 209 209  209 209 209  208 208 208  207 207 207  206 206 206  206 206 206  205 205 205  204 204 204  203 203 203  203 203 203  202 202 202  201 201 201  200 200 200  200 200 200  199 199 199  198 198 198  197 197 197  197 197 197  196 196 196  195 195 195  194 194 194  194 194 194  193 193 193  192 192 192  191 191 191  191 191 191  190 190 190  189 189 189  188 188 188  188 188 188  187 187 187  186 186 186  185 185 185  185 185 185  184 184 184  183 183 183  182 182 182  182 182 182  181 181 181  180 180 180  180 180 180  179 179 179  178 178 178  177 177 177  
180 180 180  180 180 180  181 181 181  182 182 182  182 182 182  183 183 183  184 184 184  185 185 185  185 185 185  186 186 186  187 187 187  188 188 188  188 188 188  189 189 189  190 190 190  190 190 190  191 191 191  192 192 192  193 193 193  193 193 193  194 194 194  195 195 195  196 196 196  196 196 196  197 197 197  198 198 198  199 199 199  199 199 199  200 200 200  201 201 201  202 202 202  202 202 202  203 203 203  204 204 204  204 204 204  205 205 205  206 206 206  207 207 207  207 207 207  208 208 208  209 209 209  210 210 210  210 210 210  211 211 211  212 212 212  212 212 212  213 213 213  214 214 214  214 214 214  215 215 215  216 216 216  216 216 216  113 52 52  91 42 42  9 13 13  219 219 219  220 220 220  220 220 220  221 221 221  9 13 13  130 59 59  152 69 69  160 72 72  164 74 74  167 76 76  169 77 77  171 77 77  173 78 78  174 79 79  175 79 79  176 80 80  177 80 80  176 80 80  173 78 78  166 75 75  153 69 69  125 57 57  30 18 18  9 13 13  9 13 13  9 13 13  9 13 13  9 13 13  9 13 13  34 20 20  93 43 43  117 54 54  123 56 56  109 50 50  234 234 234  234 234 234  234 234 234  234 234 234  235 235 235  235 235 235  235 235 235  235 235 235  235 235 235  235 235 235  235 235 235  235 235 235  235 235 235  235 235 235  235 235 235  235 235 235  235 235 235  235 235 235  234 234 234  234 234 234  234 234 234  234 234 234  234 234 234  234 234 234  233 233 233  233 233 233  233 233 233  233 233 233  232 232 232  232 232 232  232 232 232  231 231 231  231 231 231  230 230 230  230 230 230  230 230 230  229 229 229  229 229 229  228 228 228  228 228 228  227 227 227  227 227 227  226 226 226  226 226 226  225 225 225  225 225 225  224 224 224  224 224 224  223 223 223  223 223 223  222 222 222  221 221 221  221 221 221  220 220 220  220 220 220  219 219 219  218 218 218  218 218 218  217 217 217  216 216 216  216 216 216  215 215 215  214 214 214  214 214 214  213 213 213  212 212 212  212 212 212  211 211 211  210 210 210  210 210 210  209 209 209  208 208 208  207 207 207  207 207 207  206 206 206  205 205 205  204 204 204  204 204 204  203 203 203  202 202 202  202 202 202  201 201 201  200 200 200  199 199 199  199 199 199  198 198 198  197 197 197  196 196 196  196 196 196  195 195 195  194 194 194  193 193 193  193 193 193  192 192 192  191 191 191  190 190 190  190 190 190  189 189 189  188 188 188  188 188 188  187 187 187  186 186 186  185 185 185  185 185 185  184 184 184  183 183 183  182 182 182  182 182 182  181 181 181  180 180 180  180 180 180  
182 182 182  182 182 182  183 183 183  184 184 184  185 185 185  185 185 185  186 186 186  187 187 187  187 187 187  188 188 188  189 189 189  190 190 190  190 190 190  191 191 191  192 192 192  192 192 192  193 193 193  194 194 194  195 195 195  195 195 195  196 196 196  197 197 197  198 198 198  198 198 198  199 199 199  200 200 200  200 200 200  201 201 201  202 202 202  203 203 203  203 203 203  204 204 204  205 205 205  205 205 205  206 206 206  207 207 207  208 208 208  208 208 208  209 209 209  210 210 210  210 210 210  211 211 211  212 212 212  212 212 212  213 213 213  214 214 214  214 214 214  215 215 215  216 216 216  216 216 216  217 217 217  218 218 218  110 51 51  9 13 13  220 220 220  220 220 220  221 221 221  221 221 221  222 222 222  223 223 223  120 55 55  149 67 67  158 71 71  162 73 73  165 75 75  168 76 76  169 77 77  171 77 77  173 78 78  174 79 79  175 79 79  175 79 79  174 79 79  170 77 77  162 73 73  146 66 66  102 47 47  10 14 14  9 13 13  9 13 13  9 13 13  9 13 13  233 233 233  9 13 13  9 13 13  78 37 37  111 51 51  122 56 56  110 51 51  234 234 234  235 235 235  235 235 235  235 235 235  235 235 235  235 235 235  235 235 235  235 235 235  235 235 235  235 235 235  235 235 235  235 235 235  235 235 235  235 235 235  235 235 235  235 235 235  235 235 235  235 235 235  235 235 235  235 235 235  235 235 235  234 234 234  234 234 234  234 234 234  234 234 234  234 234 234  233 233 233  233 233 233  233 233 233  232 232 232  232 232 232  232 232 232  231 231 231  231 231 231  231 231 231  230 230 230  230 230 230  230 230 230  229 229 229  229 229 229  228 228 228  228 228 228  227 227 227  227 227 227  226 226 226  226 226 226  225 225 225  225 225 225  224 224 224  224 224 224  223 223 223  223 223 223  222 222 222  221 221 221  221 221 221  220 220 220  220 220 220  219 219 219  218 218 218  218 218 218  217 217 217  216 216 216  216 216 216  215 215 215  214 214 214  214 214 214  213 213 213  212 212 212  212 212 212  211 211 211  210 210 210  210 210 210  209 209 209  208 208 208  208 208 208  207 207 207  206 206 206  205 205 205  205 205 205  204 204 204  203 203 203  203 203 203  202 202 202  201 201 201  200 200 200  200 200 200  199 199 199  198 198 198  198 198 198  197 197 197  196 196 196  195 195 195  195 195 195  194 194 194  193 193 193  192 192 192  192 192 192  191 191 191  190 190 190  190 190 190  189 189 189  188 188 188  187 187 187  187 187 187  186 186 186  185 185 185  185 185 185  184 184 184  183 183 183  182 182 182  182 182 182  
184 184 184  185 185 185  185 185 185  186 186 186  187 187 187  187 187 187  188 188 188  189 189 189  189 189 189  190 190 190  191 191 191  192 192 192  192 192 192  193 193 193  194 194 194  194 194 194  195 195 195  196 196 196  197 197 197  197 197 197  198 198 198  199 199 199  199 199 199  200 200 200  201 201 201  201 201 201  202 202 202  203 203 203  204 204 204  204 204 204  205 205 205  206 206 206  206 206 206  207 207 207  208 208 208  208 208 208  209 209 209  210 210 210  211 211 211  211 211 211  212 212 212  213 213 213  213 213 213  214 214 214  215 215 215  215 215 215  216 216 216  216 216 216  217 217 217  218 218 218  218 218 218  219 219 219  85 40 40  9 13 13  221 221 221  221 221 221  222 222 222  222 222 222  223 223 223  224 224 224  108 50 50  144 66 66  155 70 70  160 73 73  163 74 74  166 75 75  168 76 76  169 77 77  171 77 77  172 78 78  173 78 78  173 78 78  172 78 78  167 76 76  157 71 71  134 61 61  46 24 24  9 13 13  9 13 13  9 13 13  9 13 13  233 233 233  233 233 233  234 234 234  9 13 13  49 25 25  103 48 48  119 55 55  111 51 51  235 235 235  235 235 235  235 235 235  235 235 235  235 235 235  236 236 236  236 236 236  236 236 236  236 236 236  236 236 236  236 236 236  236 236 236  236 236 236  236 236 236  236 236 236  236 236 236  236 236 236  235 235 235  235 235 235  235 235 235  235 235 235  235 235 235  235 235 235  235 235 235  234 234 234  234 234 234  234 234 234  234 234 234  233 233 233  233 233 233  233 233 233  232 232 232  232 232 232  232 232 232  231 231 231  231 231 231  231 231 231  230 230 230  230 230 230  229 229 229  229 229 229  229 229 229  228 228 228  228 228 228  227 227 227  227 227 227  226 226 226  226 226 226  225 225 225  225 225 225  224 224 224  224 224 224  223 223 223  222 222 222  222 222 222  221 221 221  221 221 221  220 220 220  220 220 220  219 219 219  218 218 218  218 218 218  217 217 217  216 216 216  216 216 216  215 215 215  215 215 215  214 214 214  213 213 213  213 213 213  212 212 212  211 211 211  211 211 211  210 210 210  209 209 209  208 208 208  208 208 208  207 207 207  206 206 206  206 206 206  205 205 205  204 204 204  204 204 204  203 203 203  202 202 202  201 201 201  201 201 201  200 200 200  199 199 199  199 199 199  198 198 198  197 197 197  197 197 197  196 196 196  195 195 195  194 194 194  194 194 194  193 193 193  192 192 192  192 192 192  191 191 191  190 190 190  189 189 189  189 189 189  188 188 188  187 187 187  187 187 187  186 186 186  185 185 185  185 185 185  184 184 184  
186 186 186  187 187 187  187 187 187  188 188 188  189 189 189  189 189 189  190 190 190  191 191 191  191 191 191  192 192 192  193 193 193  193 193 193  194 194 194  195 195 195  196 196 196  196 196 196  197 197 197  198 198 198  198 198 198  199 199 199  200 200 200  200 200 200  201 201 201  202 202 202  203 203 203  203 203 203  204 204 204  205 205 205  205 205 205  206 206 206  207 207 207  207 207 207  208 208 208  209 209 209  209 209 209  210 210 210  211 211 211  211 211 211  212 212 212  213 213 213  213 213 213  214 214 214  215 215 215  215 215 215  216 216 216  217 217 217  217 217 217  218 218 218  218 218 218  219 219 219  220 220 220  102 47 47  9 13 13  221 221 221  222 222 222  222 222 222  223 223 223  224 224 224  224 224 224  225 225 225  75 36 36  140 64 64  153 69 69  158 72 72  162 73 73  164 74 74  166 75 75  168 76 76  169 77 77  171 77 77  171 77 77  171 77 77  169 77 77  164 74 74  151 69 69  120 55 55  9 13 13  9 13 13  9 13 13  10 14 14  233 233 233  234 234 234  234 234 234  234 234 234  234 234 234  9 13 13  90 42 42  116 53 53  111 51 51  235 235 235  236 236 236  236 236 236  236 236 236  236 236 236  236 236 236  236 236 236  236 236 236  236 236 236  236 236 236  236 236 236  236 236 236  236 236 236  236 236 236  236 236 236  236 236 236  236 236 236  236 236 236  236 236 236  236 236 236  236 236 236  235 235 235  235 235 235  235 235 235  235 235 235  235 235 235  234 234 234  234 234 234  234 234 234  234 234 234  233 233 233  233 233 233  233 233 233  232 232 232  232 232 232  232 232 232  231 231 231  231 231 231  231 231 231  230 230 230  230 230 230  229 229 229  229 229 229  229 229 229  228 228 228  228 228 228  227 227 227  227 227 227  226 226 226  226 226 226  225 225 225  225 225 225  224 224 224  224 224 224  223 223 223  222 222 222  222 222 222  221 221 221  221 221 221  220 220 220  220 220 220  219 219 219  218 218 218  218 218 218  217 217 217  217 217 217  216 216 216  215 215 215  215 215 215  214 214 214  213 213 213  213 213 213  212 212 212  211 211 211  211 211 211  210 210 210  209 209 209  209 209 209  208 208 208  207 207 207  207 207 207  206 206 206  205 205 205  205 205 205  204 204 204  203 203 203  203 203 203  202 202 202  201 201 201  200 200 200  200 200 200  199 199 199  198 198 198  198 198 198  197 197 197  196 196 196  196 196 196  195 195 195  194 194 194  193 193 193  193 193 193  192 192 192  191 191 191  191 191 191  190 190 190  189 189 189  189 189 189  188 188 188  187 187 187  187 187 187  186 186 186  
188 188 188  188 188 188  189 189 189  190 190 190  191 191 191  191 191 191  192 192 192  193 193 193  193 193 193  194 194 194  195 195 195  195 195 195  196 196 196  197 197 197  197 197 197  198 198 198  199 199 199  199 199 199  200 200 200  201 201 201  201 201 201  202 202 202  203 203 203  204 204 204  204 204 204  205 205 205  206 206 206  206 206 206  207 207 207  208 208 208  208 208 208  209 209 209  210 210 210  210 210 210  211 211 211  212 212 212  212 212 212  213 213 213  214 214 214  214 214 214  215 215 215  215 215 215  216 216 216  217 217 217  217 217 217  218 218 218  218 218 218  219 219 219  220 220 220  220 220 220  221 221 221  78 37 37  40 22 22  223 223 223  223 223 223  224 224 224  224 224 224  225 225 225  225 225 225  226 226 226  226 226 226  136 62 62  150 68 68  156 71 71  160 72 72  162 74 74  165 74 74  166 75 75  168 76 76  169 76 76  170 77 77  169 77 77  167 75 75  160 72 72  144 66 66  86 40 40  9 13 13  9 13 13  234 234 234  234 234 234  234 234 234  234 234 234  235 235 235  235 235 235  235 235 235  9 13 13  69 33 33  111 51 51  110 51 51  236 236 236  236 236 236  236 236 236  236 236 236  237 237 237  237 237 237  237 237 237  237 237 237  237 237 237  237 237 237  237 237 237  237 237 237  237 237 237  237 237 237  237 237 237  237 237 237  237 237 237  237 237 237  236 236 236  236 236 236  236 236 236  236 236 236  236 236 236  236 236 236  236 236 236  235 235 235  235 235 235  235 235 235  235 235 235  234 234 234  234 234 234  234 234 234  234 234 234  233 233 233  233 233 233  233 233 233  232 232 232  232 232 232  232 232 232  231 231 231  231 231 231  230 230 230  230 230 230  230 230 230  229 229 229  229 229 229  228 228 228  228 228 228  227 227 227  227 227 227  226 226 226  226 226 226  225 225 225  225 225 225  224 224 224  224 224 224  223 223 223  223 223 223  222 222 222  221 221 221  221 221 221  220 220 220  220 220 220  219 219 219  218 218 218  218 218 218  217 217 217  217 217 217  216 216 216  215 215 215  215 215 215  214 214 214  214 214 214  213 213 213  212 212 212  212 212 212  211 211 211  210 210 210  210 210 210  209 209 209  208 208 208  208 208 208  207 207 207  206 206 206  206 206 206  205 205 205  204 204 204  204 204 204  203 203 203  202 202 202  201 201 201  201 201 201  200 200 200  199 199 199  199 199 199  198 198 198  197 197 197  197 197 197  196 196 196  195 195 195  195 195 195  194 194 194  193 193 193  193 193 193  192 192 192  191 191 191  191 191 191  190 190 190  189 189 189  188 188 188  188 188 188  
190 190 190  190 190 190  191 191 191  192 192 192  192 192 192  193 193 193  194 194 194  194 194 194  195 195 195  196 196 196  196 196 196  197 197 197  198 198 198  198 198 198  199 199 199  200 200 200  201 201 201  201 201 201  202 202 202  203 203 203  203 203 203  204 204 204  205 205 205  205 205 205  206 206 206  207 207 207  207 207 207  208 208 208  209 209 209  209 209 209  210 210 210  210 210 210  211 211 211  212 212 212  212 212 212  213 213 213  214 214 214  214 214 214  215 215 215  216 216 216  216 216 216  217 217 217  217 217 217  218 218 218  219 219 219  219 219 219  220 220 220  220 220 220  221 221 221  222 222 222  222 222 222  9 13 13  223 223 223  224 224 224  224 224 224  225 225 225  225 225 225  226 226 226  226 226 226  227 227 227  227 227 227  129 59 59  148 67 67  154 70 70  158 72 72  161 73 73  163 74 74  165 75 75  166 75 75  168 76 76  168 76 76  167 76 76  164 74 74  155 70 70  132 60 60  10 14 14  234 234 234  234 234 234  234 234 234  235 235 235  235 235 235  235 235 235  235 235 235  236 236 236  236 236 236  236 236 236  24 16 16  102 47 47  110 50 50  78 37 37  237 237 237  237 237 237  237 237 237  237 237 237  237 237 237  237 237 237  237 237 237  237 237 237  237 237 237  237 237 237  237 237 237  237 237 237  237 237 237  237 237 237  237 237 237  237 237 237  237 237 237  237 237 237  237 237 237  237 237 237  237 237 237  237 237 237  236 236 236  236 236 236  236 236 236  236 236 236  236 236 236  235 235 235  235 235 235  235 235 235  235 235 235  234 234 234  234 234 234  234 234 234  233 233 233  233 233 233  233 233 233  232 232 232  232 232 232  232 232 232  231 231 231  231 231 231  230 230 230  230 230 230  230 230 230  229 229 229  229 229 229  228 228 228  228 228 228  227 227 227  227 227 227  226 226 226  226 226 226  225 225 225  225 225 225  224 224 224  224 224 224  223 223 223  223 223 223  222 222 222  222 222 222  221 221 221  220 220 220  220 220 220  219 219 219  219 219 219  218 218 218  217 217 217  217 217 217  216 216 216  216 216 216  215 215 215  214 214 214  214 214 214  213 213 213  212 212 212  212 212 212  211 211 211  210 210 210  210 210 210  209 209 209  209 209 209  208 208 208  207 207 207  207 207 207  206 206 206  205 205 205  205 205 205  204 204 204  203 203 203  203 203 203  202 202 202  201 201 201  201 201 201  200 200 200  199 199 199  198 198 198  198 198 198  197 197 197  196 196 196  196 196 196  195 195 195  194 194 194  194 194 194  193 193 193  192 192 192  192 192 192  191 191 191  190 190 190  190 190 190  
192 192 192  192 192 192  193 193 193  194 194 194  194 194 194  195 195 195  196 196 196  196 196 196  197 197 197  198 198 198  198 198 198  199 199 199  200 200 200  200 200 200  201 201 201  202 202 202  202 202 202  203 203 203  204 204 204  204 204 204  205 205 205  206 206 206  206 206 206  207 207 207  207 207 207  208 208 208  209 209 209  209 209 209  210 210 210  211 211 211  211 211 211  212 212 212  213 213 213  213 213 213  214 214 214  215 215 215  215 215 215  216 216 216  216 216 216  217 217 217  218 218 218  218 218 218  219 219 219  219 219 219  220 220 220  220 220 220  221 221 221  222 222 222  222 222 222  223 223 223  62 30 30  224 224 224  224 224 224  225 225 225  225 225 225  226 226 226  226 226 226  227 227 227  227 227 227  228 228 228  228 228 228  121 55 55  144 65 65  152 69 69  156 71 71  159 72 72  162 73 73  163 74 74  165 75 75  166 75 75  166 75 75  165 75 75  161 73 73  150 68 68  114 52 52  234 234 234  235 235 235  235 235 235  235 235 235  235 235 235  236 236 236  236 236 236  236 236 236  236 236 236  237 237 237  237 237 237  9 13 13  89 41 41  108 50 50  75 36 36  238 238 238  238 238 238  238 238 238  238 238 238  238 238 238  238 238 238  238 238 238  238 238 238  238 238 238  238 238 238  238 238 238  238 238 238  238 238 238  238 238 238  238 238 238  238 238 238  238 238 238  238 238 238  238 238 238  238 238 238  237 237 237  237 237 237  237 237 237  237 237 237  237 237 237  237 237 237  236 236 236  236 236 236  236 236 236  236 236 236  235 235 235  235 235 235  235 235 235  235 235 235  234 234 234  234 234 234  234 234 234  233 233 233  233 233 233  233 233 233  232 232 232  232 232 232  231 231 231  231 231 231  231 231 231  230 230 230  230 230 230  229 229 229  229 229 229  228 228 228  228 228 228  227 227 227  227 227 227  226 226 226  226 226 226  225 225 225  225 225 225  224 224 224  224 224 224  223 223 223  223 223 223  222 222 222  222 222 222  221 221 221  220 220 220  220 220 220  219 219 219  219 219 219  218 218 218  218 218 218  217 217 217  216 216 216  216 216 216  215 215 215  215 215 215  214 214 214  213 213 213  213 213 213  212 212 212  211 211 211  211 211 211  210 210 210  209 209 209  209 209 209  208 208 208  207 207 207  207 207 207  206 206 206  206 206 206  205 205 205  204 204 204  204 204 204  203 203 203  202 202 202  202 202 202  201 201 201  200 200 200  200 200 200  199 199 199  198 198 198  198 198 198  197 197 197  196 196 196  196 196 196  195 195 195  194 194 194  194 194 194  193 193 193  192 192 192  192 192 192  
193 193 193  194 194 194  195 195 195  195 195 195  196 196 196  197 197 197  197 197 197  198 198 198  199 199 199  199 199 199  200 200 200  201 201 201  201 201 201  202 202 202  203 203 203  203 203 203  204 204 204  205 205 205  205 205 205  206 206 206  206 206 206  207 207 207  208 208 208  208 208 208  209 209 209  210 210 210  210 210 210  211 211 211  212 212 212  212 212 212  213 213 213  213 213 213  214 214 214  215 215 215  215 215 215  216 216 216  217 217 217  217 217 217  218 218 218  218 218 218  219 219 219  219 219 219  220 220 220  221 221 221  221 221 221  222 222 222  222 222 222  223 223 223  223 223 223  224 224 224  9 13 13  225 225 225  225 225 225  226 226 226  227 227 227  227 227 227  227 227 227  228 228 228  228 228 228  229 229 229  229 229 229  113 52 52  141 64 64  150 68 68  155 70 70  158 71 71  160 72 72  162 73 73  163 74 74  164 74 74  165 74 74  163 74 74  157 71 71  143 65 65  76 36 36  235 235 235  235 235 235  236 236 236  236 236 236  236 236 236  236 236 236  237 237 237  237 237 237  237 237 237  237 237 237  237 237 237  238 238 238  66 32 32  104 48 48  69 33 33  238 238 238  238 238 238  238 238 238  239 239 239  239 239 239  239 239 239  239 239 239  239 239 239  239 239 239  239 239 239  239 239 239  239 239 239  239 239 239  239 239 239  239 239 239  239 239 239  239 239 239  238 238 238  238 238 238  238 238 238  238 238 238  238 238 238  238 238 238  238 238 238  237 237 237  237 237 237  237 237 237  237 237 237  237 237 237  236 236 236  236 236 236  236 236 236  236 236 236  235 235 235  235 235 235  235 235 235  234 234 234  234 234 234  234 234 234  233 233 233  233 233 233  233 233 233  232 232 232  232 232 232  231 231 231  231 231 231  231 231 231  230 230 230  230 230 230  229 229 229  229 229 229  228 228 228  228 228 228  227 227 227  227 227 227  227 227 227  226 226 226  225 225 225  225 225 225  224 224 224  224 224 224  223 223 223  223 223 223  222 222 222  222 222 222  221 221 221  221 221 221  220 220 220  219 219 219  219 219 219  218 218 218  218 218 218  217 217 217  217 217 217  216 216 216  215 215 215  215 215 215  214 214 214  213 213 213  213 213 213  212 212 212  212 212 212  211 211 211  210 210 210  210 210 210  209 209 209  208 208 208  208 208 208  207 207 207  206 206 206  206 206 206  205 205 205  205 205 205  204 204 204  203 203 203  203 203 203  202 202 202  201 201 201  201 201 201  200 200 200  199 199 199  199 199 199  198 198 198  197 197 197  197 197 197  196 196 196  195 195 195  195 195 195  194 194 194  193 193 193  
195 195 195  196 196 196  196 196 196  197 197 197  198 198 198  198 198 198  199 199 199  200 200 200  200 200 200  201 201 201  202 202 202  202 202 202  203 203 203  204 204 204  204 204 204  205 205 205  205 205 205  206 206 206  207 207 207  207 207 207  208 208 208  209 209 209  209 209 209  210 210 210  211 211 211  211 211 211  212 212 212  212 212 212  213 213 213  214 214 214  214 214 214  215 215 215  215 215 215  216 216 216  217 217 217  217 217 217  218 218 218  218 218 218  219 219 219  220 220 220  220 220 220  221 221 221  221 221 221  222 222 222  222 222 222  223 223 223  224 224 224  224 224 224  225 225 225  225 225 225  226 226 226  226 226 226  227 227 227  227 227 227  228 228 228  228 228 228  229 229 229  229 229 229  229 229 229  230 230 230  230 230 230  85 40 40  137 63 63  148 67 67  153 69 69  156 71 71  159 72 72  160 73 73  162 73 73  163 74 74  163 74 74  160 73 73  153 69 69  131 60 60  236 236 236  236 236 236  236 236 236  236 236 236  237 237 237  237 237 237  237 237 237  237 237 237  238 238 238  238 238 238  238 238 238  238 238 238  238 238 238  9 13 13  98 46 46  67 32 32  239 239 239  239 239 239  239 239 239  239 239 239  239 239 239  239 239 239  239 239 239  239 239 239  239 239 239  240 240 240  240 240 240  239 239 239  239 239 239  239 239 239  239 239 239  239 239 239  239 239 239  239 239 239  239 239 239  239 239 239  239 239 239  239 239 239  239 239 239  238 238 238  238 238 238  238 238 238  238 238 238  238 238 238  237 237 237  237 237 237  237 237 237  237 237 237  236 236 236  236 236 236  236 236 236  236 236 236  235 235 235  235 235 235  235 235 235  234 234 234  234 234 234  234 234 234  233 233 233  233 233 233  232 232 232  232 232 232  232 232 232  231 231 231  231 231 231  230 230 230  230 230 230  229 229 229  229 229 229  229 229 229  228 228 228  228 228 228  227 227 227  227 227 227  226 226 226  226 226 226  225 225 225  225 225 225  224 224 224  224 224 224  223 223 223  222 222 222  222 222 222  221 221 221  221 221 221  220 220 220  220 220 220  219 219 219  218 218 218  218 218 218  217 217 217  217 217 217  216 216 216  215 215 215  215 215 215  214 214 214  214 214 214  213 213 213  212 212 212  212 212 212  211 211 211  211 211 211  210 210 210  209 209 209  209 209 209  208 208 208  207 207 207  207 207 207  206 206 206  205 205 205  205 205 205  204 204 204  204 204 204  203 203 203  202 202 202  202 202 202  201 201 201  200 200 200  200 200 200  199 199 199  198 198 198  198 198 198  197 197 197  196 196 196  196 196 196  195 195 195  
197 197 197  197 197 197  198 198 198  199 199 199  199 199 199  200 200 200  201 201 201  201 201 201  202 202 202  203 203 203  203 203 203  204 204 204  205 205 205  205 205 205  206 206 206  206 206 206  207 207 207  208 208 208  208 208 208  209 209 209  210 210 210  210 210 210  211 211 211  211 211 211  212 212 212  213 213 213  213 213 213  214 214 214  214 214 214  215 215 215  216 216 216  216 216 216  217 217 217  217 217 217  218 218 218  219 219 219  219 219 219  220 220 220  220 220 220  221 221 221  221 221 221  222 222 222  223 223 223  223 223 223  224 224 224  224 224 224  225 225 225  225 225 225  226 226 226  226 226 226  227 227 227  227 227 227  228 228 228  228 228 228  229 229 229  229 229 229  230 230 230  230 230 230  230 230 230  231 231 231  231 231 231  232 232 232  133 61 61  145 66 66  151 68 68  154 70 70  157 71 71  159 72 72  160 73 73  161 73 73  161 73 73  158 71 71  149 67 67  111 51 51  236 236 236  237 237 237  237 237 237  237 237 237  237 237 237  238 238 238  238 238 238  238 238 238  238 238 238  239 239 239  239 239 239  239 239 239  239 239 239  9 13 13  84 39 39  63 31 31  240 240 240  240 240 240  240 240 240  240 240 240  240 240 240  240 240 240  240 240 240  240 240 240  240 240 240  240 240 240  240 240 240  240 240 240  240 240 240  240 240 240  240 240 240  240 240 240  240 240 240  240 240 240  240 240 240  240 240 240  240 240 240  239 239 239  239 239 239  239 239 239  239 239 239  239 239 239  239 239 239  238 238 238  238 238 238  238 238 238  238 238 238  237 237 237  237 237 237  237 237 237  237 237 237  236 236 236  236 236 236  236 236 236  235 235 235  235 235 235  235 235 235  234 234 234  234 234 234  234 234 234  233 233 233  233 233 233  233 233 233  232 232 232  232 232 232  231 231 231  231 231 231  230 230 230  230 230 230  230 230 230  229 229 229  229 229 229  228 228 228  228 228 228  227 227 227  227 227 227  226 226 226  226 226 226  225 225 225  225 225 225  224 224 224  224 224 224  223 223 223  223 223 223  222 222 222  221 221 221  221 221 221  220 220 220  220 220 220  219 219 219  219 219 219  218 218 218  217 217 217  217 217 217  216 216 216  216 216 216  215 215 215  214 214 214  214 214 214  213 213 213  213 213 213  212 212 212  211 211 211  211 211 211  210 210 210  210 210 210  209 209 209  208 208 208  208 208 208  207 207 207  206 206 206  206 206 206  205 205 205  205 205 205  204 204 204  203 203 203  203 203 203  202 202 202  201 201 201  201 201 201  200 200 200  199 199 199  199 199 199  198 198 198  197 197 197  197 197 197  
199 199 199  199 199 199  200 200 200  200 200 200  201 201 201  202 202 202  202 202 202  203 203 203  204 204 204  204 204 204  205 205 205  205 205 205  206 206 206  207 207 207  207 207 207  208 208 208  209 209 209  209 209 209  210 210 210  210 210 210  211 211 211  212 212 212  212 212 212  213 213 213  213 213 213  214 214 214  215 215 215  215 215 215  216 216 216  216 216 216  217 217 217  218 218 218  218 218 218  219 219 219  219 219 219  220 220 220  220 220 220  221 221 221  222 222 222  222 222 222  223 223 223  223 223 223  224 224 224  224 224 224  225 225 225  225 225 225  226 226 226  226 226 226  227 227 227  227 227 227  228 228 228  228 228 228  229 229 229  229 229 229  230 230 230  230 230 230  231 231 231  231 231 231  232 232 232  232 232 232  232 232 232  233 233 233  127 58 58  142 65 65  149 68 68  153 69 69  155 70 70  157 71 71  159 72 72  159 72 72  159 72 72  154 70 70  141 64 64  55 28 28  237 237 237  238 238 238  238 238 238  238 238 238  238 238 238  239 239 239  239 239 239  239 239 239  239 239 239  239 239 239  240 240 240  240 240 240  240 240 240  240 240 240  53 27 27  55 28 28  240 240 240  241 241 241  241 241 241  241 241 241  241 241 241  241 241 241  241 241 241  241 241 241  241 241 241  241 241 241  241 241 241  241 241 241  241 241 241  241 241 241  241 241 241  241 241 241  241 241 241  241 241 241  241 241 241  240 240 240  240 240 240  240 240 240  240 240 240  240 240 240  240 240 240  240 240 240  239 239 239  239 239 239  239 239 239  239 239 239  239 239 239  238 238 238  238 238 238  238 238 238  238 238 238  237 237 237  237 237 237  237 237 237  236 236 236  236 236 236  236 236 236  235 235 235  235 235 235  235 235 235  234 234 234  234 234 234  234 234 234  233 233 233  233 233 233  232 232 232  232 232 232  232 232 232  231 231 231  231 231 231  230 230 230  230 230 230  229 229 229  229 229 229  228 228 228  228 228 228  227 227 227  227 227 227  226 226 226  226 226 226  225 225 225  225 225 225  224 224 224  224 224 224  223 223 223  223 223 223  222 222 222  222 222 222  221 221 221  220 220 220  220 220 220  219 219 219  219 219 219  218 218 218  218 218 218  217 217 217  216 216 216  216 216 216  215 215 215  215 215 215  214 214 214  213 213 213  213 213 213  212 212 212  212 212 212  211 211 211  210 210 210  210 210 210  209 209 209  209 209 209  208 208 208  207 207 207  207 207 207  206 206 206  205 205 205  205 205 205  204 204 204  204 204 204  203 203 203  202 202 202  202 202 202  201 201 201  200 200 200  200 200 200  199 199 199  199 199 199  
200 200 200  201 201 201  201 201 201  202 202 202  203 203 203  203 203 203  204 204 204  204 204 204  205 205 205  206 206 206  206 206 206  207 207 207  208 208 208  208 208 208  209 209 209  209 209 209  210 210 210  211 211 211  211 211 211  212 212 212  212 212 212  213 213 213  214 214 214  214 214 214  215 215 215  215 215 215  216 216 216  217 217 217  217 217 217  218 218 218  218 218 218  219 219 219  220 220 220  220 220 220  221 221 221  221 221 221  222 222 222  222 222 222  223 223 223  223 223 223  224 224 224  224 224 224  225 225 225  225 225 225  226 226 226  226 226 226  227 227 227  227 227 227  228 228 228  228 228 228  229 229 229  229 229 229  230 230 230  230 230 230  231 231 231  231 231 231  232 232 232  232 232 232  232 232 232  233 233 233  233 233 233  234 234 234  120 55 55  140 64 64  147 67 67  151 69 69  154 70 70  156 71 71  157 71 71  158 71 71  156 71 71  151 68 68  130 59 59  238 238 238  238 238 238  238 238 238  239 239 239  239 239 239  239 239 239  239 239 239  240 240 240  240 240 240  240 240 240  240 240 240  240 240 240  240 240 240  241 241 241  241 241 241  241 241 241  241 241 241  241 241 241  241 241 241  241 241 241  241 241 241  241 241 241  242 242 242  242 242 242  242 242 242  242 242 242  242 242 242  242 242 242  242 242 242  242 242 242  242 242 242  242 242 242  241 241 241  241 241 241  241 241 241  241 241 241  241 241 241  241 241 241  241 241 241  241 241 241  241 241 241  240 240 240  240 240 240  240 240 240  240 240 240  240 240 240  240 240 240  239 239 239  239 239 239  239 239 239  239 239 239  238 238 238  238 238 238  238 238 238  237 237 237  237 237 237  237 237 237  237 237 237  236 236 236  236 236 236  236 236 236  235 235 235  235 235 235  234 234 234  234 234 234  234 234 234  233 233 233  233 233 233  232 232 232  232 232 232  232 232 232  231 231 231  231 231 231  230 230 230  230 230 230  229 229 229  229 229 229  228 228 228  228 228 228  227 227 227  227 227 227  226 226 226  226 226 226  225 225 225  225 225 225  224 224 224  224 224 224  223 223 223  223 223 223  222 222 222  222 222 222  221 221 221  221 221 221  220 220 220  220 220 220  219 219 219  218 218 218  218 218 218  217 217 217  217 217 217  216 216 216  215 215 215  215 215 215  214 214 214  214 214 214  213 213 213  212 212 212  212 212 212  211 211 211  211 211 211  210 210 210  209 209 209  209 209 209  208 208 208  208 208 208  207 207 207  206 206 206  206 206 206  205 205 205  204 204 204  204 204 204  203 203 203  203 203 203  202 202 202  201 201 201  201 201 201  200 200 200  
202 202 202  202 202 202  203 203 203  204 204 204  204 204 204  205 205 205  205 205 205  206 206 206  207 207 207  207 207 207  208 208 208  208 208 208  209 209 209  210 210 210  210 210 210  211 211 211  211 211 211  212 212 212  213 213 213  213 213 213  214 214 214  214 214 214  215 215 215  216 216 216  216 216 216  217 217 217  217 217 217  218 218 218  219 219 219  219 219 219  220 220 220  220 220 220  221 221 221  221 221 221  222 222 222  222 222 222  223 223 223  223 223 223  224 224 224  225 225 225  225 225 225  226 226 226  226 226 226  227 227 227  227 227 227  228 228 228  228 228 228  229 229 229  229 229 229  230 230 230  230 230 230  230 230 230  231 231 231  231 231 231  232 232 232  232 232 232  233 233 233  233 233 233  233 233 233  234 234 234  234 234 234  235 235 235  110 51 51  137 62 62  145 66 66  150 68 68  152 69 69  154 70 70  156 71 71  156 71 71  154 70 70  146 67 67  104 48 48  239 239 239  239 239 239  239 239 239  239 239 239  240 240 240  240 240 240  240 240 240  240 240 240  240 240 240  241 241 241  241 241 241  241 241 241  241 241 241  241 241 241  241 241 241  242 242 242  242 242 242  242 242 242  242 242 242  242 242 242  242 242 242  242 242 242  242 242 242  242 242 242  242 242 242  242 242 242  242 242 242  242 242 242  242 242 242  242 242 242  242 242 242  242 242 242  242 242 242  242 242 242  242 242 242  242 242 242  242 242 242  242 242 242  242 242 242  241 241 241  241 241 241  241 241 241  241 241 241  241 241 241  241 241 241  240 240 240  240 240 240  240 240 240  240 240 240  240 240 240  239 239 239  239 239 239  239 239 239  239 239 239  238 238 238  238 238 238  238 238 238  237 237 237  237 237 237  237 237 237  236 236 236  236 236 236  236 236 236  235 235 235  235 235 235  235 235 235  234 234 234  234 234 234  233 233 233  233 233 233  233 233 233  232 232 232  232 232 232  231 231 231  231 231 231  230 230 230  230 230 230  230 230 230  229 229 229  229 229 229  228 228 228  228 228 228  227 227 227  227 227 227  226 226 226  226 226 226  225 225 225  225 225 225  224 224 224  223 223 223  223 223 223  222 222 222  222 222 222  221 221 221  221 221 221  220 220 220  220 220 220  219 219 219  219 219 219  218 218 218  217 217 217  217 217 217  216 216 216  216 216 216  215 215 215  214 214 214  214 214 214  213 213 213  213 213 213  212 212 212  211 211 211  211 211 211  210 210 210  210 210 210  209 209 209  208 208 208  208 208 208  207 207 207  207 207 207  206 206 206  205 205 205  205 205 205  204 204 204  204 204 204  203 203 203  202 202 202  202 202 202  
203 203 203  204 204 204  204 204 204  205 205 205  206 206 206  206 206 206  207 207 207  207 207 207  208 208 208  209 209 209  209 209 209  210 210 210  210 210 210  211 211 211  212 212 212  212 212 212  213 213 213  213 213 213  214 214 214  215 215 215  215 215 215  216 216 216  216 216 216  217 217 217  218 218 218  218 218 218  219 219 219  219 219 219  220 220 220  220 220 220  221 221 221  221 221 221  222 222 222  223 223 223  223 223 223  224 224 224  224 224 224  225 225 225  225 225 225  226 226 226  226 226 226  227 227 227  227 227 227  228 228 228  228 228 228  229 229 229  229 229 229  230 230 230  230 230 230  231 231 231  231 231 231  231 231 231  232 232 232  232 232 232  233 233 233  233 233 233  234 234 234  234 234 234  234 234 234  235 235 235  235 235 235  236 236 236  82 38 38  133 60 60  143 65 65  148 67 67  151 68 68  153 69 69  154 70 70  154 70 70  150 68 68  138 63 63  9 13 13  239 239 239  240 240 240  240 240 240  240 240 240  240 240 240  241 241 241  241 241 241  241 241 241  241 241 241  241 241 241  242 242 242  242 242 242  242 242 242  242 242 242  242 242 242  242 242 242  242 242 242  243 243 243  243 243 243  243 243 243  243 243 243  243 243 243  243 243 243  243 243 243  243 243 243  243 243 243  243 243 243  243 243 243  243 243 243  243 243 243  243 243 243  243 243 243  243 243 243  243 243 243  243 243 243  243 243 243  243 243 243  242 242 242  242 242 242  242 242 242  242 242 242  242 242 242  242 242 242  242 242 242  241 241 241  241 241 241  241 241 241  241 241 241  241 241 241  240 240 240  240 240 240  240 240 240  240 240 240  239 239 239  239 239 239  239 239 239  239 239 239  238 238 238  238 238 238  238 238 238  237 237 237  237 237 237  237 237 237  236 236 236  236 236 236  236 236 236  235 235 235  235 235 235  234 234 234  234 234 234  234 234 234  233 233 233  233 233 233  232 232 232  232 232 232  231 231 231  231 231 231  231 231 231  230 230 230  230 230 230  229 229 229  229 229 229  228 228 228  228 228 228  227 227 227  227 227 227  226 226 226  226 226 226  225 225 225  225 225 225  224 224 224  224 224 224  223 223 223  223 223 223  222 222 222  221 221 221  221 221 221  220 220 220  220 220 220  219 219 219  219 219 219  218 218 218  218 218 218  217 217 217  216 216 216  216 216 216  215 215 215  215 215 215  214 214 214  213 213 213  213 213 213  212 212 212  212 212 212  211 211 211  210 210 210  210 210 210  209 209 209  209 209 209  208 208 208  207 207 207  207 207 207  206 206 206  206 206 206  205 205 205  204 204 204  204 204 204  203 203 203  
205 205 205  205 205 205  206 206 206  207 207 207  207 207 207  208 208 208  208 208 208  209 209 209  210 210 210  210 210 210  211 211 211  211 211 211  212 212 212  212 212 212  213 213 213  214 214 214  214 214 214  215 215 215  215 215 215  216 216 216  217 217 217  217 217 217  218 218 218  218 218 218  219 219 219  219 219 219  220 220 220  220 220 220  221 221 221  222 222 222  222 222 222  223 223 223  223 223 223  224 224 224  224 224 224  225 225 225  225 225 225  226 226 226  226 226 226  227 227 227  227 227 227  228 228 228  228 228 228  229 229 229  229 229 229  230 230 230  230 230 230  231 231 231  231 231 231  232 232 232  232 232 232  232 232 232  233 233 233  233 233 233  234 234 234  234 234 234  235 235 235  235 235 235  235 235 235  236 236 236  236 236 236  236 236 236  237 237 237  127 58 58  140 64 64  146 66 66  149 67 67  151 68 68  152 69 69  151 69 69  147 67 67  128 58 58  240 240 240  240 240 240  240 240 240  241 241 241  241 241 241  241 241 241  241 241 241  242 242 242  242 242 242  242 242 242  242 242 242  242 242 242  243 243 243  243 243 243  243 243 243  243 243 243  243 243 243  243 243 243  243 243 243  243 243 243  243 243 243  244 244 244  244 244 244  244 244 244  244 244 244  244 244 244  244 244 244  244 244 244  244 244 244  244 244 244  244 244 244  244 244 244  244 244 244  244 244 244  244 244 244  243 243 243  243 243 243  243 243 243  243 243 243  243 243 243  243 243 243  243 243 243  243 243 243  243 243 243  242 242 242  242 242 242  242 242 242  242 242 242  242 242 242  241 241 241  241 241 241  241 241 241  241 241 241  240 240 240  240 240 240  240 240 240  240 240 240  239 239 239  239 239 239  239 239 239  238 238 238  238 238 238  238 238 238  237 237 237  237 237 237  237 237 237  236 236 236  236 236 236  236 236 236  235 235 235  235 235 235  235 235 235  234 234 234  234 234 234  233 233 233  233 233 233  232 232 232  232 232 232  232 232 232  231 231 231  231 231 231  230 230 230  230 230 230  229 229 229  229 229 229  228 228 228  228 228 228  227 227 227  227 227 227  226 226 226  226 226 226  225 225 225  225 225 225  224 224 224  224 224 224  223 223 223  223 223 223  222 222 222  222 222 222  221 221 221  220 220 220  220 220 220  219 219 219  219 219 219  218 218 218  218 218 218  217 217 217  217 217 217  216 216 216  215 215 215  215 215 215  214 214 214  214 214 214  213 213 213  212 212 212  212 212 212  211 211 211  211 211 211  210 210 210  210 210 210  209 209 209  208 208 208  208 208 208  207 207 207  207 207 207  206 206 206  205 205 205  205 205 205  
206 206 206  207 207 207  207 207 207  208 208 208  209 209 209  209 209 209  210 210 210  210 210 210  211 211 211  211 211 211  212 212 212  213 213 213  213 213 213  214 214 214  214 214 214  215 215 215  216 216 216  216 216 216  217 217 217  217 217 217  218 218 218  218 218 218  219 219 219  219 219 219  220 220 220  221 221 221  221 221 221  222 222 222  222 222 222  223 223 223  223 223 223  224 224 224  224 224 224  225 225 225  225 225 225  226 226 226  226 226 226  227 227 227  227 227 227  228 228 228  228 228 228  229 229 229  229 229 229  230 230 230  230 230 230  231 231 231  231 231 231  232 232 232  232 232 232  233 233 233  233 233 233  233 233 233  234 234 234  234 234 234  235 235 235  235 235 235  235 235 235  236 236 236  236 236 236  237 237 237  237 237 237  237 237 237  238 238 238  123 56 56  138 63 63  144 65 65  147 67 67  149 68 68  150 68 68  148 67 67  142 65 65  94 44 44  241 241 241  241 241 241  241 241 241  241 241 241  242 242 242  242 242 242  242 242 242  242 242 242  243 243 243  243 243 243  243 243 243  243 243 243  243 243 243  243 243 243  244 244 244  244 244 244  244 244 244  244 244 244  244 244 244  244 244 244  244 244 244  244 244 244  244 244 244  244 244 244  244 244 244  244 244 244  244 244 244  244 244 244  244 244 244  244 244 244  244 244 244  244 244 244  244 244 244  244 244 244  244 244 244  244 244 244  244 244 244  244 244 244  244 244 244  244 244 244  244 244 244  244 244 244  243 243 243  243 243 243  243 243 243  243 243 243  243 243 243  243 243 243  242 242 242  242 242 242  242 242 242  242 242 242  241 241 241  241 241 241  241 241 241  241 241 241  240 240 240  240 240 240  240 240 240  240 240 240  239 239 239  239 239 239  239 239 239  238 238 238  238 238 238  238 238 238  237 237 237  237 237 237  237 237 237  236 236 236  236 236 236  235 235 235  235 235 235  235 235 235  234 234 234  234 234 234  233 233 233  233 233 233  233 233 233  232 232 232  232 232 232  231 231 231  231 231 231  230 230 230  230 230 230  229 229 229  229 229 229  228 228 228  228 228 228  227 227 227  227 227 227  226 226 226  226 226 226  225 225 225  225 225 225  224 224 224  224 224 224  223 223 223  223 223 223  222 222 222  222 222 222  221 221 221  221 221 221  220 220 220  219 219 219  219 219 219  218 218 218  218 218 218  217 217 217  217 217 217  216 216 216  216 216 216  215 215 215  214 214 214  214 214 214  213 213 213  213 213 213  212 212 212  211 211 211  211 211 211  210 210 210  210 210 210  209 209 209  209 209 209  208 208 208  207 207 207  207 207 207  206 206 206  
208 208 208  208 208 208  209 209 209  209 209 209  210 210 210  211 211 211  211 211 211  212 212 212  212 212 212  213 213 213  213 213 213  214 214 214  215 215 215  215 215 215  216 216 216  216 216 216  217 217 217  217 217 217  218 218 218  219 219 219  219 219 219  220 220 220  220 220 220  221 221 221  221 221 221  222 222 222  222 222 222  223 223 223  223 223 223  224 224 224  224 224 224  225 225 225  225 225 225  226 226 226  227 227 227  227 227 227  228 228 228  228 228 228  228 228 228  229 229 229  229 229 229  230 230 230  230 230 230  231 231 231  231 231 231  232 232 232  232 232 232  233 233 233  233 233 233  234 234 234  234 234 234  234 234 234  235 235 235  235 235 235  236 236 236  236 236 236  236 236 236  237 237 237  237 237 237  237 237 237  238 238 238  238 238 238  239 239 239  111 51 51  134 61 61  142 64 64  145 66 66  147 67 67  148 67 67  146 66 66  133 61 61  241 241 241  241 241 241  242 242 242  242 242 242  242 242 242  242 242 242  243 243 243  243 243 243  243 243 243  243 243 243  243 243 243  244 244 244  244 244 244  244 244 244  244 244 244  244 244 244  244 244 244  244 244 244  245 245 245  245 245 245  245 245 245  245 245 245  245 245 245  245 245 245  245 245 245  245 245 245  245 245 245  245 245 245  245 245 245  245 245 245  245 245 245  245 245 245  245 245 245  245 245 245  245 245 245  245 245 245  245 245 245  245 245 245  245 245 245  245 245 245  244 244 244  244 244 244  244 244 244  244 244 244  244 244 244  244 244 244  244 244 244  243 243 243  243 243 243  243 243 243  243 243 243  243 243 243  242 242 242  242 242 242  242 242 242  242 242 242  241 241 241  241 241 241  241 241 241  241 241 241  240 240 240  240 240 240  240 240 240  239 239 239  239 239 239  239 239 239  239 239 239  238 238 238  238 238 238  237 237 237  237 237 237  237 237 237  236 236 236  236 236 236  236 236 236  235 235 235  235 235 235  234 234 234  234 234 234  234 234 234  233 233 233  233 233 233  232 232 232  232 232 232  231 231 231  231 231 231  230 230 230  230 230 230  229 229 229  229 229 229  228 228 228  228 228 228  228 228 228  227 227 227  227 227 227  226 226 226  225 225 225  225 225 225  224 224 224  224 224 224  223 223 223  223 223 223  222 222 222  222 222 222  221 221 221  221 221 221  220 220 220  220 220 220  219 219 219  219 219 219  218 218 218  217 217 217  217 217 217  216 216 216  216 216 216  215 215 215  215 215 215  214 214 214  213 213 213  213 213 213  212 212 212  212 212 212  211 211 211  211 211 211  210 210 210  209 209 209  209 209 209  208 208 208  208 208 208  
209 209 209  210 210 210  210 210 210  211 211 211  211 211 211  212 212 212  212 212 212  213 213 213  214 214 214  214 214 214  215 215 215  215 215 215  216 216 216  216 216 216  217 217 217  218 218 218  218 218 218  219 219 219  219 219 219  220 220 220  220 220 220  221 221 221  221 221 221  222 222 222  222 222 222  223 223 223  223 223 223  224 224 224  225 225 225  225 225 225  226 226 226  226 226 226  227 227 227  227 227 227  228 228 228  228 228 228  229 229 229  229 229 229  230 230 230  230 230 230  230 230 230  231 231 231  231 231 231  232 232 232  232 232 232  233 233 233  233 233 233  234 234 234  234 234 234  234 234 234  235 235 235  235 235 235  236 236 236  236 236 236  236 236 236  237 237 237  237 237 237  238 238 238  238 238 238  238 238 238  239 239 239  239 239 239  239 239 239  86 40 40  129 59 59  138 63 63  143 65 65  145 66 66  145 66 66  143 65 65  117 54 54  242 242 242  242 242 242  242 242 242  243 243 243  243 243 243  243 243 243  243 243 243  244 244 244  244 244 244  244 244 244  244 244 244  244 244 244  244 244 244  245 245 245  245 245 245  245 245 245  245 245 245  245 245 245  245 245 245  245 245 245  245 245 245  245 245 245  246 246 246  246 246 246  246 246 246  246 246 246  246 246 246  246 246 246  246 246 246  246 246 246  246 246 246  246 246 246  246 246 246  246 246 246  246 246 246  246 246 246  245 245 245  245 245 245  245 245 245  245 245 245  245 245 245  245 245 245  245 245 245  245 245 245  245 245 245  244 244 244  244 244 244  244 244 244  244 244 244  244 244 244  244 244 244  243 243 243  243 243 243  243 243 243  243 243 243  242 242 242  242 242 242  242 242 242  242 242 242  241 241 241  241 241 241  241 241 241  241 241 241  240 240 240  240 240 240  240 240 240  239 239 239  239 239 239  239 239 239  238 238 238  238 238 238  238 238 238  237 237 237  237 237 237  236 236 236  236 236 236  236 236 236  235 235 235  235 235 235  234 234 234  234 234 234  234 234 234  233 233 233  233 233 233  232 232 232  232 232 232  231 231 231  231 231 231  230 230 230  230 230 230  230 230 230  229 229 229  229 229 229  228 228 228  228 228 228  227 227 227  227 227 227  226 226 226  226 226 226  225 225 225  225 225 225  224 224 224  223 223 223  223 223 223  222 222 222  222 222 222  221 221 221  221 221 221  220 220 220  220 220 220  219 219 219  219 219 219  218 218 218  218 218 218  217 217 217  216 216 216  216 216 216  215 215 215  215 215 215  214 214 214  214 214 214  213 213 213  212 212 212  212 212 212  211 211 211  211 211 211  210 210 210  210 210 210  209 209 209  
210 210 210  211 211 211  211 211 211  212 212 212  213 213 213  213 213 213  214 214 214  214 214 214  215 215 215  215 215 215  216 216 216  217 217 217  217 217 217  218 218 218  218 218 218  219 219 219  219 219 219  220 220 220  220 220 220  221 221 221  221 221 221  222 222 222  223 223 223  223 223 223  224 224 224  224 224 224  225 225 225  225 225 225  226 226 226  226 226 226  227 227 227  227 227 227  228 228 228  228 228 228  229 229 229  229 229 229  230 230 230  230 230 230  231 231 231  231 231 231  231 231 231  232 232 232  232 232 232  233 233 233  233 233 233  234 234 234  234 234 234  235 235 235  235 235 235  235 235 235  236 236 236  236 236 236  237 237 237  237 237 237  237 237 237  238 238 238  238 238 238  238 238 238  239 239 239  239 239 239  239 239 239  240 240 240  240 240 240  240 240 240  125 57 57  135 61 61  140 64 64  142 65 65  142 65 65  135 61 61  60 29 29  243 243 243  243 243 243  243 243 243  243 243 243  244 244 244  244 244 244  244 244 244  244 244 244  244 244 244  245 245 245  245 245 245  245 245 245  245 245 245  245 245 245  245 245 245  246 246 246  246 246 246  246 246 246  246 246 246  246 246 246  246 246 246  246 246 246  246 246 246  246 246 246  246 246 246  246 246 246  246 246 246  246 246 246  246 246 246  246 246 246  246 246 246  246 246 246  246 246 246  246 246 246  246 246 246  246 246 246  246 246 246  246 246 246  246 246 246  246 246 246  246 246 246  246 246 246  246 246 246  245 245 245  245 245 245  245 245 245  245 245 245  245 245 245  245 245 245  244 244 244  244 244 244  244 244 244  244 244 244  244 244 244  243 243 243  243 243 243  243 243 243  243 243 243  242 242 242  242 242 242  242 242 242  242 242 242  241 241 241  241 241 241  241 241 241  240 240 240  240 240 240  240 240 240  239 239 239  239 239 239  239 239 239  238 238 238  238 238 238  238 238 238  237 237 237  237 237 237  237 237 237  236 236 236  236 236 236  235 235 235  235 235 235  235 235 235  234 234 234  234 234 234  233 233 233  233 233 233  232 232 232  232 232 232  231 231 231  231 231 231  231 231 231  230 230 230  230 230 230  229 229 229  229 229 229  228 228 228  228 228 228  227 227 227  227 227 227  226 226 226  226 226 226  225 225 225  225 225 225  224 224 224  224 224 224  223 223 223  223 223 223  222 222 222  221 221 221  221 221 221  220 220 220  220 220 220  219 219 219  219 219 219  218 218 218  218 218 218  217 217 217  217 217 217  216 216 216  215 215 215  215 215 215  214 214 214  214 214 214  213 213 213  213 213 213  212 212 212  211 211 211  211 211 211  210 210 210  
212 212 212  212 212 212  213 213 213  213 213 213  214 214 214  214 214 214  215 215 215  216 216 216  216 216 216  217 217 217  217 217 217  218 218 218  218 218 218  219 219 219  219 219 219  220 220 220  220 220 220  221 221 221  222 222 222  222 222 222  223 223 223  223 223 223  224 224 224  224 224 224  225 225 225  225 225 225  226 226 226  226 226 226  227 227 227  227 227 227  228 228 228  228 228 228  229 229 229  229 229 229  230 230 230  230 230 230  231 231 231  231 231 231  232 232 232  232 232 232  232 232 232  233 233 233  233 233 233  234 234 234  234 234 234  235 235 235  235 235 235  235 235 235  236 236 236  236 236 236  237 237 237  237 237 237  237 237 237  238 238 238  238 238 238  239 239 239  239 239 239  239 239 239  240 240 240  240 240 240  240 240 240  241 241 241  241 241 241  241 241 241  112 51 51  131 60 60  137 62 62  140 64 64  138 63 63  125 57 57  243 243 243  243 243 243  244 244 244  244 244 244  244 244 244  244 244 244  245 245 245  245 245 245  245 245 245  245 245 245  245 245 245  246 246 246  246 246 246  246 246 246  246 246 246  246 246 246  246 246 246  246 246 246  246 246 246  247 247 247  247 247 247  247 247 247  247 247 247  247 247 247  247 247 247  247 247 247  247 247 247  247 247 247  247 247 247  247 247 247  247 247 247  247 247 247  247 247 247  247 247 247  247 247 247  247 247 247  247 247 247  247 247 247  247 247 247  247 247 247  247 247 247  246 246 246  246 246 246  246 246 246  246 246 246  246 246 246  246 246 246  246 246 246  246 246 246  245 245 245  245 245 245  245 245 245  245 245 245  245 245 245  244 244 244  244 244 244  244 244 244  244 244 244  243 243 243  243 243 243  243 243 243  243 243 243  242 242 242  242 242 242  242 242 242  242 242 242  241 241 241  241 241 241  241 241 241  240 240 240  240 240 240  240 240 240  239 239 239  239 239 239  239 239 239  238 238 238  238 238 238  237 237 237  237 237 237  237 237 237  236 236 236  236 236 236  235 235 235  235 235 235  235 235 235  234 234 234  234 234 234  233 233 233  233 233 233  232 232 232  232 232 232  232 232 232  231 231 231  231 231 231  230 230 230  230 230 230  229 229 229  229 229 229  228 228 228  228 228 228  227 227 227  227 227 227  226 226 226  226 226 226  225 225 225  225 225 225  224 224 224  224 224 224  223 223 223  223 223 223  222 222 222  222 222 222  221 221 221  220 220 220  220 220 220  219 219 219  219 219 219  218 218 218  218 218 218  217 217 217  217 217 217  216 216 216  216 216 216  215 215 215  214 214 214  214 214 214  213 213 213  213 213 213  212 212 212  212 212 212  
213 213 213  213 213 213  214 214 214  215 215 215  215 215 215  216 216 216  216 216 216  217 217 217  217 217 217  218 218 218  218 218 218  219 219 219  219 219 219  220 220 220  221 221 221  221 221 221  222 222 222  222 222 222  223 223 223  223 223 223  224 224 224  224 224 224  225 225 225  225 225 225  226 226 226  226 226 226  227 227 227  227 227 227  228 228 228  228 228 228  229 229 229  229 229 229  230 230 230  230 230 230  231 231 231  231 231 231  232 232 232  232 232 232  232 232 232  233 233 233  233 233 233  234 234 234  234 234 234  235 235 235  235 235 235  236 236 236  236 236 236  236 236 236  237 237 237  237 237 237  238 238 238  238 238 238  238 238 238  239 239 239  239 239 239  239 239 239  240 240 240  240 240 240  240 240 240  241 241 241  241 241 241  241 241 241  242 242 242  242 242 242  92 43 43  126 57 57  134 61 61  137 62 62  131 60 60  59 29 29  244 244 244  244 244 244  244 244 244  245 245 245  245 245 245  245 245 245  245 245 245  245 245 245  246 246 246  246 246 246  246 246 246  246 246 246  246 246 246  246 246 246  247 247 247  247 247 247  247 247 247  247 247 247  247 247 247  247 247 247  247 247 247  247 247 247  247 247 247  247 247 247  248 248 248  248 248 248  248 248 248  248 248 248  248 248 248  248 248 248  248 248 248  248 248 248  248 248 248  248 248 248  248 248 248  248 248 248  247 247 247  247 247 247  247 247 247  247 247 247  247 247 247  247 247 247  247 247 247  247 247 247  247 247 247  247 247 247  246 246 246  246 246 246  246 246 246  246 246 246  246 246 246  246 246 246  245 245 245  245 245 245  245 245 245  245 245 245  245 245 245  244 244 244  244 244 244  244 244 244  244 244 244  243 243 243  243 243 243  243 243 243  243 243 243  242 242 242  242 242 242  242 242 242  241 241 241  241 241 241  241 241 241  240 240 240  240 240 240  240 240 240  239 239 239  239 239 239  239 239 239  238 238 238  238 238 238  238 238 238  237 237 237  237 237 237  236 236 236  236 236 236  236 236 236  235 235 235  235 235 235  234 234 234  234 234 234  233 233 233  233 233 233  232 232 232  232 232 232  232 232 232  231 231 231  231 231 231  230 230 230  230 230 230  229 229 229  229 229 229  228 228 228  228 228 228  227 227 227  227 227 227  226 226 226  226 226 226  225 225 225  225 225 225  224 224 224  224 224 224  223 223 223  223 223 223  222 222 222  222 222 222  221 221 221  221 221 221  220 220 220  219 219 219  219 219 219  218 218 218  218 218 218  217 217 217  217 217 217  216 216 216  216 216 216  215 215 215  215 215 215  214 214 214  213 213 213  213 213 213  
214 214 214  215 215 215  215 215 215  216 216 216  216 216 216  217 217 217  217 217 217  218 218 218  218 218 218  219 219 219  220 220 220  220 220 220  221 221 221  221 221 221  222 222 222  222 222 222  223 223 223  223 223 223  224 224 224  224 224 224  225 225 225  225 225 225  226 226 226  226 226 226  227 227 227  227 227 227  228 228 228  228 228 228  229 229 229  229 229 229  230 230 230  230 230 230  231 231 231  231 231 231  232 232 232  232 232 232  233 233 233  233 233 233  233 233 233  234 234 234  234 234 234  235 235 235  235 235 235  236 236 236  236 236 236  236 236 236  237 237 237  237 237 237  238 238 238  238 238 238  238 238 238  239 239 239  239 239 239  239 239 239  240 240 240  240 240 240  240 240 240  241 241 241  241 241 241  241 241 241  242 242 242  242 242 242  242 242 242  243 243 243  243 243 243  243 243 243  244 244 244  244 244 244  244 244 244  244 244 244  245 245 245  245 245 245  245 245 245  245 245 245  246 246 246  246 246 246  246 246 246  246 246 246  246 246 246  246 246 246  247 247 247  247 247 247  247 247 247  247 247 247  247 247 247  247 247 247  247 247 247  248 248 248  248 248 248  248 248 248  248 248 248  248 248 248  248 248 248  248 248 248  248 248 248  248 248 248  248 248 248  248 248 248  248 248 248  248 248 248  248 248 248  248 248 248  248 248 248  248 248 248  248 248 248  248 248 248  248 248 248  248 248 248  248 248 248  248 248 248  248 248 248  248 248 248  248 248 248  247 247 247  247 247 247  247 247 247  247 247 247  247 247 247  247 247 247  247 247 247  246 246 246  246 246 246  246 246 246  246 246 246  246 246 246  246 246 246  245 245 245  245 245 245  245 245 245  245 245 245  244 244 244  244 244 244  244 244 244  244 244 244  243 243 243  243 243 243  243 243 243  242 242 242  242 242 242  242 242 242  241 241 241  241 241 241  241 241 241  240 240 240  240 240 240  240 240 240  239 239 239  239 239 239  239 239 239  238 238 238  238 238 238  238 238 238  237 237 237  237 237 237  236 236 236  236 236 236  236 236 236  235 235 235  235 235 235  234 234 234  234 234 234  233 233 233  233 233 233  233 233 233  232 232 232  232 232 232  231 231 231  231 231 231  230 230 230  230 230 230  229 229 229  229 229 229  228 228 228  228 228 228  227 227 227  227 227 227  226 226 226  226 226 226  225 225 225  225 225 225  224 224 224  224 224 224  223 223 223  223 223 223  222 222 222  222 222 222  221 221 221  221 221 221  220 220 220  220 220 220  219 219 219  218 218 218  218 218 218  217 217 217  217 217 217  216 216 216  216 216 216  215 215 215  215 215 215  214 214 214  
215 215 215  216 216 216  216 216 216  217 217 217  218 218 218  218 218 218  219 219 219  219 219 219  220 220 220  220 220 220  221 221 221  221 221 221  222 222 222  222 222 222  223 223 223  223 223 223  224 224 224  224 224 224  225 225 225  225 225 225  226 226 226  226 226 226  227 227 227  227 227 227  228 228 228  228 228 228  229 229 229  229 229 229  230 230 230  230 230 230  231 231 231  231 231 231  232 232 232  232 232 232  233 233 233  233 233 233  233 233 233  234 234 234  234 234 234  235 235 235  235 235 235  236 236 236  236 236 236  236 236 236  237 237 237  237 237 237  238 238 238  238 238 238  238 238 238  239 239 239  239 239 239  240 240 240  240 240 240  240 240 240  241 241 241  241 241 241  241 241 241  242 242 242  242 242 242  242 242 242  243 243 243  243 243 243  243 243 243  243 243 243  244 244 244  244 244 244  244 244 244  245 245 245  245 245 245  245 245 245  245 245 245  246 246 246  246 246 246  246 246 246  246 246 246  246 246 246  247 247 247  247 247 247  247 247 247  247 247 247  247 247 247  247 247 247  248 248 248  248 248 248  248 248 248  248 248 248  248 248 248  248 248 248  248 248 248  248 248 248  248 248 248  249 249 249  249 249 249  249 249 249  249 249 249  249 249 249  249 249 249  249 249 249  249 249 249  249 249 249  249 249 249  249 249 249  249 249 249  249 249 249  249 249 249  249 249 249  249 249 249  249 249 249  249 249 249  248 248 248  248 248 248  248 248 248  248 248 248  248 248 248  248 248 248  248 248 248  248 248 248  248 248 248  247 247 247  247 247 247  247 247 247  247 247 247  247 247 247  247 247 247  246 246 246  246 246 246  246 246 246  246 246 246  246 246 246  245 245 245  245 245 245  245 245 245  245 245 245  244 244 244  244 244 244  244 244 244  243 243 243  243 243 243  243 243 243  243 243 243  242 242 242  242 242 242  242 242 242  241 241 241  241 241 241  241 241 241  240 240 240  240 240 240  240 240 240  239 239 239  239 239 239  238 238 238  238 238 238  238 238 238  237 237 237  237 237 237  236 236 236  236 236 236  236 236 236  235 235 235  235 235 235  234 234 234  234 234 234  233 233 233  233 233 233  233 233 233  232 232 232  232 232 232  231 231 231  231 231 231  230 230 230  230 230 230  229 229 229  229 229 229  228 228 228  228 228 228  227 227 227  227 227 227  226 226 226  226 226 226  225 225 225  225 225 225  224 224 224  224 224 224  223 223 223  223 223 223  222 222 222  222 222 222  221 221 221  221 221 221  220 220 220  220 220 220  219 219 219  219 219 219  218 218 218  218 218 218  217 217 217  216 216 216  216 216 216  215 215 215  
217 217 217  217 217 217  218 218 218  218 218 218  219 219 219  219 219 219  220 220 220  220 220 220  221 221 221  221 221 221  222 222 222  222 222 222  223 223 223  223 223 223  224 224 224  224 224 224  225 225 225  225 225 225  226 226 226  226 226 226  227 227 227  227 227 227  228 228 228  228 228 228  229 229 229  229 229 229  230 230 230  230 230 230  231 231 231  231 231 231  232 232 232  232 232 232  233 233 233  233 233 233  233 233 233  234 234 234  234 234 234  235 235 235  235 235 235  236 236 236  236 236 236  236 236 236  237 237 237  237 237 237  238 238 238  238 238 238  238 238 238  239 239 239  239 239 239  240 240 240  240 240 240  240 240 240  241 241 241  241 241 241  241 241 241  242 242 242  242 242 242  242 242 242  243 243 243  243 243 243  243 243 243  244 244 244  244 244 244  244 244 244  244 244 244  245 245 245  245 245 245  245 245 245  245 245 245  246 246 246  246 246 246  246 246 246  246 246 246  247 247 247  247 247 247  247 247 247  247 247 247  247 247 247  248 248 248  248 248 248  248 248 248  248 248 248  248 248 248  248 248 248  248 248 248  249 249 249  249 249 249  249 249 249  249 249 249  249 249 249  249 249 249  249 249 249  249 249 249  249 249 249  249 249 249  249 249 249  249 249 249  249 249 249  249 249 249  249 249 249  249 249 249  249 249 249  249 249 249  249 249 249  249 249 249  249 249 249  249 249 249  249 249 249  249 249 249  249 249 249  249 249 249  249 249 249  249 249 249  249 249 249  249 249 249  248 248 248  248 248 248  248 248 248  248 248 248  248 248 248  248 248 248  248 248 248  247 247 247  247 247 247  247 247 247  247 247 247  247 247 247  246 246 246  246 246 246  246 246 246  246 246 246  245 245 245  245 245 245  245 245 245  245 245 245  244 244 244  244 244 244  244 244 244  244 244 244  243 243 243  243 243 243  243 243 243  242 242 242  242 242 242  242 242 242  241 241 241  241 241 241  241 241 241  240 240 240  240 240 240  240 240 240  239 239 239  239 239 239  238 238 238  238 238 238  238 238 238  237 237 237  237 237 237  236 236 236  236 236 236  236 236 236  235 235 235  235 235 235  234 234 234  234 234 234  233 233 233  233 233 233  233 233 233  232 232 232  232 232 232  231 231 231  231 231 231  230 230 230  230 230 230  229 229 229  229 229 229  228 228 228  228 228 228  227 227 227  227 227 227  226 226 226  226 226 226  225 225 225  225 225 225  224 224 224  224 224 224  223 223 223  223 223 223  222 222 222  222 222 222  221 221 221  221 221 221  220 220 220  220 220 220  219 219 219  219 219 219  218 218 218  218 218 218  217 217 217  217 217 217  
218 218 218  218 218 218  219 219 219  219 219 219  220 220 220  220 220 220  221 221 221  221 221 221  222 222 222  222 222 222  223 223 223  223 223 223  224 224 224  224 224 224  225 225 225  225 225 225  226 226 226  226 226 226  227 227 227  227 227 227  228 228 228  228 228 228  229 229 229  229 229 229  230 230 230  230 230 230  231 231 231  231 231 231  232 232 232  232 232 232  233 233 233  233 233 233  233 233 233  234 234 234  234 234 234  235 235 235  235 235 235  236 236 236  236 236 236  236 236 236  237 237 237  237 237 237  238 238 238  238 238 238  238 238 238  239 239 239  239 239 239  240 240 240  240 240 240  240 240 240  241 241 241  241 241 241  241 241 241  242 242 242  242 242 242  242 242 242  243 243 243  243 243 243  243 243 243  244 244 244  244 244 244  244 244 244  245 245 245  245 245 245  245 245 245  245 245 245  246 246 246  246 246 246  246 246 246  246 246 246  247 247 247  247 247 247  247 247 247  247 247 247  247 247 247  248 248 248  248 248 248  248 248 248  248 248 248  248 248 248  248 248 248  249 249 249  249 249 249  249 249 249  249 249 249  249 249 249  249 249 249  249 249 249  249 249 249  250 250 250  250 250 250  250 250 250  250 250 250  250 250 250  250 250 250  250 250 250  250 250 250  250 250 250  250 250 250  250 250 250  250 250 250  250 250 250  250 250 250  250 250 250  250 250 250  250 250 250  250 250 250  250 250 250  250 250 250  250 250 250  250 250 250  249 249 249  249 249 249  249 249 249  249 249 249  249 249 249  249 249 249  249 249 249  249 249 249  248 248 248  248 248 248  248 248 248  248 248 248  248 248 248  248 248 248  247 247 247  247 247 247  247 247 247  247 247 247  247 247 247  246 246 246  246 246 246  246 246 246  246 246 246  245 245 245  245 245 245  245 245 245  245 245 245  244 244 244  244 244 244  244 244 244  243 243 243  243 243 243  243 243 243  242 242 242  242 242 242  242 242 242  241 241 241  241 241 241  241 241 241  240 240 240  240 240 240  240 240 240  239 239 239  239 239 239  238 238 238  238 238 238  238 238 238  237 237 237  237 237 237  236 236 236  236 236 236  236 236 236  235 235 235  235 235 235  234 234 234  234 234 234  233 233 233  233 233 233  233 233 233  232 232 232  232 232 232  231 231 231  231 231 231  230 230 230  230 230 230  229 229 229  229 229 229  228 228 228  228 228 228  227 227 227  227 227 227  226 226 226  226 226 226  225 225 225  225 225 225  224 224 224  224 224 224  223 223 223  223 223 223  222 222 222  222 222 222  221 221 221  221 221 221  220 220 220  220 220 220  219 219 219  219 219 219  218 218 218  218 218 218  
219 219 219  219 219 219  220 220 220  220 220 220  221 221 221  221 221 221  222 222 222  222 222 222  223 223 223  223 223 223  224 224 224  224 224 224  225 225 225  225 225 225  226 226 226  226 226 226  227 227 227  227 227 227  228 228 228  228 228 228  229 229 229  229 229 229  230 230 230  230 230 230  231 231 231  231 231 231  232 232 232  232 232 232  233 233 233  233 233 233  233 233 233  234 234 234  234 234 234  235 235 235  235 235 235  236 236 236  236 236 236  236 236 236  237 237 237  237 237 237  238 238 238  238 238 238  238 238 238  239 239 239  239 239 239  240 240 240  240 240 240  240 240 240  241 241 241  241 241 241  241 241 241  242 242 242  242 242 242  242 242 242  243 243 243  243 243 243  243 243 243  244 244 244  244 244 244  244 244 244  245 245 245  245 245 245  245 245 245  245 245 245  246 246 246  246 246 246  246 246 246  246 246 246  247 247 247  247 247 247  247 247 247  247 247 247  248 248 248  248 248 248  248 248 248  248 248 248  248 248 248  249 249 249  249 249 249  249 249 249  249 249 249  249 249 249  249 249 249  249 249 249  250 250 250  250 250 250  250 250 250  250 250 250  250 250 250  250 250 250  250 250 250  250 250 250  250 250 250  250 250 250  250 250 250  250 250 250  250 250 250  251 251 251  251 251 251  251 251 251  251 251 251  251 251 251  251 251 251  250 250 250  250 250 250  250 250 250  250 250 250  250 250 250  250 250 250  250 250 250  250 250 250  250 250 250  250 250 250  250 250 250  250 250 250  250 250 250  249 249 249  249 249 249  249 249 249  249 249 249  249 249 249  249 249 249  249 249 249  248 248 248  248 248 248  248 248 248  248 248 248  248 248 248  247 247 247  247 247 247  247 247 247  247 247 247  246 246 246  246 246 246  246 246 246  246 246 246  245 245 245  245 245 245  245 245 245  245 245 245  244 244 244  244 244 244  244 244 244  243 243 243  243 243 243  243 243 243  242 242 242  242 242 242  242 242 242  241 241 241  241 241 241  241 241 241  240 240 240  240 240 240  240 240 240  239 239 239  239 239 239  238 238 238  238 238 238  238 238 238  237 237 237  237 237 237  236 236 236  236 236 236  236 236 236  235 235 235  235 235 235  234 234 234  234 234 234  233 233 233  233 233 233  233 233 233  232 232 232  232 232 232  231 231 231  231 231 231  230 230 230  230 230 230  229 229 229  229 229 229  228 228 228  228 228 228  227 227 227  227 227 227  226 226 226  226 226 226  225 225 225  225 225 225  224 224 224  224 224 224  223 223 223  223 223 223  222 222 222  222 222 222  221 221 221  221 221 221  220 220 220  220 220 220  219 219 219  219 219 219  
220 220 220  220 220 220  221 221 221  221 221 221  222 222 222  222 222 222  223 223 223  223 223 223  224 224 224  224 224 224  225 225 225  225 225 225  226 226 226  226 226 226  227 227 227  227 227 227  228 228 228  228 228 228  229 229 229  229 229 229  230 230 230  230 230 230  231 231 231  231 231 231  232 232 232  232 232 232  233 233 233  233 233 233  233 233 233  234 234 234  234 234 234  235 235 235  235 235 235  236 236 236  236 236 236  236 236 236  237 237 237  237 237 237  238 238 238  238 238 238  238 238 238  239 239 239  239 239 239  240 240 240  240 240 240  240 240 240  241 241 241  241 241 241  241 241 241  242 242 242  242 242 242  242 242 242  243 243 243  243 243 243  243 243 243  244 244 244  244 244 244  244 244 244  245 245 245  245 245 245  245 245 245  246 246 246  246 246 246  246 246 246  246 246 246  247 247 247  247 247 247  247 247 247  247 247 247  248 248 248  248 248 248  248 248 248  248 248 248  248 248 248  249 249 249  249 249 249  249 249 249  249 249 249  249 249 249  249 249 249  250 250 250  250 250 250  250 250 250  250 250 250  250 250 250  250 250 250  250 250 250  250 250 250  251 251 251  251 251 251  251 251 251  251 251 251  251 251 251  251 251 251  251 251 251  251 251 251  251 251 251  251 251 251  251 251 251  251 251 251  251 251 251  251 251 251  251 251 251  251 251 251  251 251 251  251 251 251  251 251 251  251 251 251  251 251 251  251 251 251  251 251 251  251 251 251  250 250 250  250 250 250  250 250 250  250 250 250  250 250 250  250 250 250  250 250 250  250 250 250  249 249 249  249 249 249  249 249 249  249 249 249  249 249 249  249 249 249  248 248 248  248 248 248  248 248 248  248 248 248  248 248 248  247 247 247  247 247 247  247 247 247  247 247 247  246 246 246  246 246 246  246 246 246  246 246 246  245 245 245  245 245 245  245 245 245  244 244 244  244 244 244  244 244 244  243 243 243  243 243 243  243 243 243  242 242 242  242 242 242  242 242 242  241 241 241  241 241 241  241 241 241  240 240 240  240 240 240  240 240 240  239 239 239  239 239 239  238 238 238  238 238 238  238 238 238  237 237 237  237 237 237  236 236 236  236 236 236  236 236 236  235 235 235  235 235 235  234 234 234  234 234 234  233 233 233  233 233 233  233 233 233  232 232 232  232 232 232  231 231 231  231 231 231  230 230 230  230 230 230  229 229 229  229 229 229  228 228 228  228 228 228  227 227 227  227 227 227  226 226 226  226 226 226  225 225 225  225 225 225  224 224 224  224 224 224  223 223 223  223 223 223  222 222 222  222 222 222  221 221 221  221 221 221  220 220 220  220 220 220  
221 221 221  221 221 221  222 222 222  222 222 222  223 223 223  223 223 223  224 224 224  224 224 224  225 225 225  225 225 225  226 226 226  226 226 226  227 227 227  227 227 227  228 228 228  228 228 228  229 229 229  229 229 229  230 230 230  230 230 230  231 231 231  231 231 231  232 232 232  232 232 232  233 233 233  233 233 233  233 233 233  234 234 234  234 234 234  235 235 235  235 235 235  236 236 236  236 236 236  236 236 236  237 237 237  237 237 237  238 238 238  238 238 238  238 238 238  239 239 239  239 239 239  240 240 240  240 240 240  240 240 240  241 241 241  241 241 241  241 241 241  242 242 242  242 242 242  242 242 242  243 243 243  243 243 243  243 243 243  244 244 244  244 244 244  244 244 244  245 245 245  245 245 245  245 245 245  246 246 246  246 246 246  246 246 246  246 246 246  247 247 247  247 247 247  247 247 247  247 247 247  248 248 248  248 248 248  248 248 248  248 248 248  249 249 249  249 249 249  249 249 249  249 249 249  249 249 249  250 250 250  250 250 250  250 250 250  250 250 250  250 250 250  250 250 250  250 250 250  251 251 251  251 251 251  251 251 251  251 251 251  251 251 251  251 251 251  251 251 251  251 251 251  251 251 251  251 251 251  251 251 251  251 251 251  251 251 251  252 252 252  252 252 252  252 252 252  252 252 252  252 252 252  252 252 252  252 252 252  252 252 252  251 251 251  251 251 251  251 251 251  251 251 251  251 251 251  251 251 251  251 251 251  251 251 251  251 251 251  251 251 251  251 251 251  251 251 251  251 251 251  250 250 250  250 250 250  250 250 250  250 250 250  250 250 250  250 250 250  250 250 250  249 249 249  249 249 249  249 249 249  249 249 249  249 249 249  248 248 248  248 248 248  248 248 248  248 248 248  247 247 247  247 247 247  247 247 247  247 247 247  246 246 246  246 246 246  246 246 246  246 246 246  245 245 245  245 245 245  245 245 245  244 244 244  244 244 244  244 244 244  243 243 243  243 243 243  243 243 243  242 242 242  242 242 242  242 242 242  241 241 241  241 241 241  241 241 241  240 240 240  240 240 240  240 240 240  239 239 239  239 239 239  238 238 238  238 238 238  238 238 238  237 237 237  237 237 237  236 236 236  236 236 236  236 236 236  235 235 235  235 235 235  234 234 234  234 234 234  233 233 233  233 233 233  233 233 233  232 232 232  232 232 232  231 231 231  231 231 231  230 230 230  230 230 230  229 229 229  229 229 229  228 228 228  228 228 228  227 227 227  227 227 227  226 226 226  226 226 226  225 225 225  225 225 225  224 224 224  224 224 224  223 223 223  223 223 223  222 222 222  222 222 222  221 221 221  221 221 221  
222 222 222  222 222 222  223 223 223  223 223 223  224 224 224  224 224 224  225 225 225  225 225 225  226 226 226  226 226 226  227 227 227  227 227 227  228 228 228  228 228 228  229 229 229  229 229 229  230 230 230  230 230 230  231 231 231  231 231 231  232 232 232  232 232 232  232 232 232  233 233 233  233 233 233  234 234 234  234 234 234  235 235 235  235 235 235  236 236 236  236 236 236  236 236 236  237 237 237  237 237 237  238 238 238  238 238 238  238 238 238  239 239 239  239 239 239  240 240 240  240 240 240  240 240 240  241 241 241  241 241 241  241 241 241  242 242 242  242 242 242  242 242 242  243 243 243  243 243 243  244 244 244  244 244 244  244 244 244  244 244 244  245 245 245  245 245 245  245 245 245  246 246 246  246 246 246  246 246 246  247 247 247  247 247 247  247 247 247  247 247 247  248 248 248  248 248 248  248 248 248  248 248 248  249 249 249  249 249 249  249 249 249  249 249 249  249 249 249  250 250 250  250 250 250  250 250 250  250 250 250  250 250 250  250 250 250  251 251 251  251 251 251  251 251 251  251 251 251  251 251 251  251 251 251  251 251 251  251 251 251  251 251 251  252 252 252  252 252 252  252 252 252  252 252 252  252 252 252  252 252 252  252 252 252  252 252 252  252 252 252  252 252 252  252 252 252  252 252 252  252 252 252  252 252 252  252 252 252  252 252 252  252 252 252  252 252 252  252 252 252  252 252 252  252 252 252  252 252 252  252 252 252  252 252 252  251 251 251  251 251 251  251 251 251  251 251 251  251 251 251  251 251 251  251 251 251  251 251 251  251 251 251  250 250 250  250 250 250  250 250 250  250 250 250  250 250 250  250 250 250  249 249 249  249 249 249  249 249 249  249 249 249  249 249 249  248 248 248  248 248 248  248 248 248  248 248 248  247 247 247  247 247 247  247 247 247  247 247 247  246 246 246  246 246 246  246 246 246  245 245 245  245 245 245  245 245 245  244 244 244  244 244 244  244 244 244  244 244 244  243 243 243  243 243 243  242 242 242  242 242 242  242 242 242  241 241 241  241 241 241  241 241 241  240 240 240  240 240 240  240 240 240  239 239 239  239 239 239  238 238 238  238 238 238  238 238 238  237 237 237  237 237 237  236 236 236  236 236 236  236 236 236  235 235 235  235 235 235  234 234 234  234 234 234  233 233 233  233 233 233  232 232 232  232 232 232  232 232 232  231 231 231  231 231 231  230 230 230  230 230 230  229 229 229  229 229 229  228 228 228  228 228 228  227 227 227  227 227 227  226 226 226  226 226 226  225 225 225  225 225 225  224 224 224  224 224 224  223 223 223  223 223 223  222 222 222  222 222 222  
223 223 223  223 223 223  224 224 224  224 224 224  225 225 225  225 225 225  226 226 226  226 226 226  227 227 227  227 227 227  228 228 228  228 228 228  229 229 229  229 229 229  230 230 230  230 230 230  231 231 231  231 231 231  232 232 232  232 232 232  232 232 232  233 233 233  233 233 233  234 234 234  234 234 234  235 235 235  235 235 235  235 235 235  236 236 236  236 236 236  237 237 237  237 237 237  238 238 238  238 238 238  238 238 238  239 239 239  239 239 239  240 240 240  240 240 240  240 240 240  241 241 241  241 241 241  241 241 241  242 242 242  242 242 242  242 242 242  243 243 243  243 243 243  244 244 244  244 244 244  244 244 244  244 244 244  245 245 245  245 245 245  245 245 245  246 246 246  246 246 246  246 246 246  247 247 247  247 247 247  247 247 247  247 247 247  248 248 248  248 248 248  248 248 248  248 248 248  249 249 249  249 249 249  249 249 249  249 249 249  249 249 249  250 250 250  250 250 250  250 250 250  250 250 250  250 250 250  251 251 251  251 251 251  251 251 251  251 251 251  251 251 251  251 251 251  251 251 251  252 252 252  252 252 252  252 252 252  252 252 252  252 252 252  252 252 252  252 252 252  252 252 252  252 252 252  252 252 252  252 252 252  252 252 252  252 252 252  253 253 253  253 253 253  253 253 253  253 253 253  253 253 253  253 253 253  253 253 253  253 253 253  252 252 252  252 252 252  252 252 252  252 252 252  252 252 252  252 252 252  252 252 252  252 252 252  252 252 252  252 252 252  252 252 252  252 252 252  252 252 252  251 251 251  251 251 251  251 251 251  251 251 251  251 251 251  251 251 251  251 251 251  250 250 250  250 250 250  250 250 250  250 250 250  250 250 250  249 249 249  249 249 249  249 249 249  249 249 249  249 249 249  248 248 248  248 248 248  248 248 248  248 248 248  247 247 247  247 247 247  247 247 247  247 247 247  246 246 246  246 246 246  246 246 246  245 245 245  245 245 245  245 245 245  244 244 244  244 244 244  244 244 244  244 244 244  243 243 243  243 243 243  242 242 242  242 242 242  242 242 242  241 241 241  241 241 241  241 241 241  240 240 240  240 240 240  240 240 240  239 239 239  239 239 239  238 238 238  238 238 238  238 238 238  237 237 237  237 237 237  236 236 236  236 236 236  235 235 235  235 235 235  235 235 235  234 234 234  234 234 234  233 233 233  233 233 233  232 232 232  232 232 232  232 232 232  231 231 231  231 231 231  230 230 230  230 230 230  229 229 229  229 229 229  228 228 228  228 228 228  227 227 227  227 227 227  226 226 226  226 226 226  225 225 225  225 225 225  224 224 224  224 224 224  223 223 223  223 223 223  
224 224 224  224 224 224  225 225 225  225 225 225  226 226 226  226 226 226  227 227 227  227 227 227  228 228 228  228 228 228  229 229 229  229 229 229  230 230 230  230 230 230  231 231 231  231 231 231  231 231 231  232 232 232  232 232 232  233 233 233  233 233 233  234 234 234  234 234 234  235 235 235  235 235 235  235 235 235  236 236 236  236 236 236  237 237 237  237 237 237  238 238 238  238 238 238  238 238 238  239 239 239  239 239 239  240 240 240  240 240 240  240 240 240  241 241 241  241 241 241  241 241 241  242 242 242  242 242 242  242 242 242  243 243 243  243 243 243  243 243 243  244 244 244  244 244 244  244 244 244  245 245 245  245 245 245  245 245 245  246 246 246  246 246 246  246 246 246  247 247 247  247 247 247  247 247 247  247 247 247  248 248 248  248 248 248  248 248 248  248 248 248  249 249 249  249 249 249  249 249 249  249 249 249  250 250 250  250 250 250  250 250 250  250 250 250  250 250 250  251 251 251  251 251 251  251 251 251  251 251 251  251 251 251  251 251 251  252 252 252  252 252 252  252 252 252  252 252 252  252 252 252  252 252 252  252 252 252  252 252 252  252 252 252  253 253 253  253 253 253  253 253 253  253 253 253  253 253 253  253 253 253  253 253 253  253 253 253  253 253 253  253 253 253  253 253 253  253 253 253  253 253 253  253 253 253  253 253 253  253 253 253  253 253 253  253 253 253  253 253 253  253 253 253  253 253 253  253 253 253  253 253 253  253 253 253  252 252 252  252 252 252  252 252 252  252 252 252  252 252 252  252 252 252  252 252 252  252 252 252  252 252 252  251 251 251  251 251 251  251 251 251  251 251 251  251 251 251  251 251 251  250 250 250  250 250 250  250 250 250  250 250 250  250 250 250  249 249 249  249 249 249  249 249 249  249 249 249  248 248 248  248 248 248  248 248 248  248 248 248  247 247 247  247 247 247  247 247 247  247 247 247  246 246 246  246 246 246  246 246 246  245 245 245  245 245 245  245 245 245  244 244 244  244 244 244  244 244 244  243 243 243  243 243 243  243 243 243  242 242 242  242 242 242  242 242 242  241 241 241  241 241 241  241 241 241  240 240 240  240 240 240  240 240 240  239 239 239  239 239 239  238 238 238  238 238 238  238 238 238  237 237 237  237 237 237  236 236 236  236 236 236  235 235 235  235 235 235  235 235 235  234 234 234  234 234 234  233 233 233  233 233 233  232 232 232  232 232 232  231 231 231  231 231 231  231 231 231  230 230 230  230 230 230  229 229 229  229 229 229  228 228 228  228 228 228  227 227 227  227 227 227  226 226 226  226 226 226  225 225 225  225 225 225  224 224 224  224 224 224  
