P3
200 150
255
133 109 109  133 108 108  132 108 108  132 108 108  131 107 107  131 107 107  131 106 106  130 106 106  129 106 106  129 105 105  128 105 105  128 104 104  127 104 104  127 103 103  126 103 103  125 102 102  125 102 102  124 101 101  123 101 101  123 100 100  122 99 99  121 99 99  120 98 98  119 97 97  119 97 97  118 96 96  117 95 95  116 94 94  115 94 94  114 93 93  113 92 92  112 91 91  111 90 90  109 89 89  108 88 88  107 87 87  106 86 86  104 85 85  103 84 84  102 83 83  100 82 82  99 81 81  97 79 79  96 78 78  94 77 77  92 75 75  91 74 74  89 73 73  87 71 71  85 70 70  62 113 62  62 114 62  63 115 63  63 115 63  63 116 63  64 117 64  64 118 64  65 118 65  65 119 65  65 120 65  66 121 66  66 121 66  67 122 67  67 123 67  67 123 67  68 124 68  68 125 68  69 125 69  69 126 69  69 127 69  70 127 70  70 128 70  70 129 70  71 129 71  71 130 71  71 130 71  71 131 71  72 131 72  72 132 72  72 132 72  73 133 73  73 133 73  73 134 73  73 134 73  73 134 73  74 135 74  74 135 74  74 136 74  74 136 74  74 136 74  74 136 74  75 137 75  75 137 75  75 137 75  75 137 75  75 137 75  75 137 75  75 137 75  75 137 75  75 137 75  75 137 75  75 137 75  75 137 75  75 137 75  75 137 75  75 137 75  75 137 75  75 137 75  75 137 75  74 136 74  74 136 74  74 136 74  74 136 74  74 135 74  74 135 74  73 134 73  73 134 73  73 134 73  73 133 73  73 133 73  89 162 89  93 170 93  97 178 97  100 184 100  104 190 104  106 194 106  108 197 108  109 200 109  110 201 110  110 201 110  110 202 110  111 204 111  113 206 113  114 209 114  115 211 115  117 215 117  111 204 111  67 122 67  66 121 66  66 121 66  65 120 65  65 119 65  65 118 65  64 118 64  64 117 64  63 116 63  63 115 63  63 115 63  62 114 62  62 113 62  70 70 85  71 71 87  73 73 89  74 74 91  75 75 92  77 77 94  78 78 96  110 201 110  119 218 119  118 217 118  114 208 114  94 173 94  85 85 104  86 86 106  87 87 107  88 88 108  89 89 109  90 90 111  91 91 112  92 92 113  93 93 114  94 94 115  94 94 116  93 170 93  63 115 63  46 84 46  32 60 32  16 30 16  16 30 16  99 99 122  100 100 123  115 211 115  118 216 118  113 206 113  94 173 94  70 129 70  103 103 127  104 104 127  104 104 128  105 105 128  105 105 129  106 106 129  106 106 130  106 106 131  107 107 131  107 107 131  108 108 132  108 108 132  108 108 133  109 109 133  
133 109 109  133 108 108  132 108 108  132 107 107  131 107 107  131 107 107  130 106 106  130 106 106  129 105 105  129 105 105  128 105 105  128 104 104  127 104 104  126 103 103  126 103 103  125 102 102  124 102 102  124 101 101  123 100 100  122 100 100  122 99 99  121 99 99  120 98 98  119 97 97  118 97 97  117 96 96  117 95 95  116 94 94  115 93 93  114 93 93  113 92 92  111 91 91  110 90 90  109 89 89  108 88 88  107 87 87  106 86 86  104 85 85  103 84 84  101 83 83  100 82 82  99 80 80  97 79 79  96 78 78  94 77 77  92 75 75  91 74 74  89 73 73  87 71 71  85 70 70  62 113 62  62 114 62  63 115 63  63 115 63  63 116 63  64 117 64  64 118 64  65 118 65  65 119 65  65 120 65  66 121 66  66 121 66  67 122 67  67 123 67  67 123 67  68 124 68  68 125 68  68 125 68  69 126 69  69 127 69  70 127 70  70 128 70  70 129 70  71 129 71  71 130 71  71 130 71  71 131 71  72 131 72  72 132 72  72 132 72  72 133 72  73 133 73  73 134 73  73 134 73  73 134 73  74 135 74  74 135 74  74 135 74  74 136 74  74 136 74  74 136 74  75 136 75  75 137 75  75 137 75  75 137 75  75 137 75  75 137 75  75 137 75  75 137 75  75 137 75  75 137 75  75 137 75  75 137 75  75 137 75  75 137 75  75 137 75  75 137 75  75 137 75  75 136 75  74 136 74  74 136 74  74 136 74  74 135 74  74 135 74  74 135 74  73 134 73  73 134 73  73 134 73  73 133 73  72 133 72  72 132 72  89 164 89  94 173 94  99 180 99  102 187 102  105 192 105  107 196 107  109 199 109  110 201 110  110 202 110  110 202 110  111 203 111  111 204 111  112 205 112  113 207 113  114 209 114  115 211 115  117 214 117  109 200 109  66 121 66  65 120 65  65 119 65  65 118 65  64 118 64  64 117 64  63 116 63  63 115 63  63 115 63  62 114 62  62 113 62  70 70 85  71 71 87  73 73 89  74 74 91  75 75 92  77 77 94  104 191 104  120 219 120  121 220 121  121 221 121  118 215 118  109 200 109  96 176 96  71 131 71  87 87 107  88 88 108  89 89 109  90 90 110  91 91 111  92 92 113  93 93 114  93 93 115  88 160 88  57 105 57  50 92 50  41 75 41  29 53 29  16 30 16  99 99 121  99 99 122  100 100 122  118 216 118  117 214 117  107 196 107  87 160 87  103 103 126  103 103 126  104 104 127  104 104 128  105 105 128  105 105 129  105 105 129  106 106 130  106 106 130  107 107 131  107 107 131  107 107 132  108 108 132  108 108 133  109 109 133  
133 108 108  132 108 108  132 108 108  131 107 107  131 107 107  131 106 106  130 106 106  130 106 106  129 105 105  128 105 105  128 104 104  127 104 104  127 103 103  126 103 103  125 102 102  125 102 102  124 101 101  123 101 101  123 100 100  122 100 100  121 99 99  121 98 98  120 98 98  119 97 97  118 96 96  117 96 96  116 95 95  115 94 94  114 93 93  113 92 92  112 92 92  111 91 91  110 90 90  109 89 89  108 88 88  107 87 87  105 86 86  104 85 85  103 84 84  101 83 83  100 81 81  98 80 80  97 79 79  95 78 78  94 77 77  92 75 75  91 74 74  89 72 72  87 71 71  85 70 70  62 113 62  62 114 62  63 115 63  63 115 63  63 116 63  64 117 64  64 118 64  65 118 65  65 119 65  65 120 65  66 121 66  66 121 66  67 122 67  67 123 67  67 123 67  68 124 68  68 125 68  68 125 68  69 126 69  69 127 69  69 127 69  70 128 70  70 129 70  70 129 70  71 130 71  71 130 71  71 131 71  72 131 72  72 132 72  72 132 72  72 133 72  73 133 73  73 134 73  73 134 73  73 134 73  74 135 74  74 135 74  74 135 74  74 136 74  74 136 74  74 136 74  74 136 74  75 137 75  75 137 75  75 137 75  75 137 75  75 137 75  75 137 75  75 137 75  75 137 75  75 137 75  75 137 75  75 137 75  75 137 75  75 137 75  75 137 75  75 137 75  75 137 75  74 136 74  74 136 74  74 136 74  74 136 74  74 135 74  74 135 74  74 135 74  73 134 73  73 134 73  73 134 73  73 133 73  72 133 72  72 132 72  72 132 72  89 164 89  94 173 94  99 181 99  103 188 103  106 194 106  108 198 108  110 201 110  110 202 110  111 203 111  111 203 111  112 204 112  112 205 112  112 205 112  113 206 113  114 209 114  116 211 116  116 213 116  116 213 116  107 196 107  65 119 65  65 118 65  64 118 64  64 117 64  63 116 63  63 115 63  63 115 63  62 114 62  62 113 62  70 70 85  71 71 87  72 72 89  74 74 91  75 75 92  103 188 103  118 216 118  121 221 121  121 222 121  121 222 121  120 220 120  119 217 119  117 214 117  115 211 115  100 182 100  88 88 108  89 89 109  90 90 110  91 91 111  92 92 112  105 192 105  90 165 90  52 96 52  48 89 48  48 88 48  38 70 38  16 30 16  98 98 120  98 98 121  99 99 121  113 207 113  119 217 119  114 209 114  100 183 100  78 143 78  102 102 125  103 103 126  103 103 127  104 104 127  104 104 128  105 105 128  105 105 129  106 106 130  106 106 130  106 106 131  107 107 131  107 107 131  108 108 132  108 108 132  108 108 133  
133 108 108  132 108 108  132 107 107  131 107 107  131 107 107  130 106 106  130 106 106  129 105 105  129 105 105  128 105 105  128 104 104  127 104 104  126 103 103  126 103 103  125 102 102  125 102 102  124 101 101  123 101 101  123 100 100  122 99 99  121 99 99  120 98 98  119 97 97  119 97 97  118 96 96  117 95 95  116 95 95  115 94 94  114 93 93  113 92 92  112 91 91  111 91 91  110 90 90  109 89 89  108 88 88  106 87 87  105 86 86  104 85 85  103 84 84  101 83 83  100 81 81  98 80 80  97 79 79  95 78 78  94 76 76  92 75 75  91 74 74  89 72 72  87 71 71  85 70 70  62 113 62  62 114 62  63 115 63  63 115 63  63 116 63  64 117 64  64 118 64  65 118 65  65 119 65  65 120 65  66 121 66  66 121 66  67 122 67  67 123 67  67 123 67  68 124 68  68 125 68  68 125 68  69 126 69  69 127 69  69 127 69  70 128 70  70 128 70  70 129 70  71 130 71  71 130 71  71 131 71  72 131 72  72 132 72  72 132 72  72 133 72  73 133 73  73 133 73  73 134 73  73 134 73  74 135 74  74 135 74  74 135 74  74 136 74  74 136 74  74 136 74  74 136 74  75 137 75  75 137 75  75 137 75  75 137 75  75 137 75  75 137 75  75 137 75  75 137 75  75 137 75  75 137 75  75 137 75  75 137 75  75 137 75  75 137 75  75 137 75  75 137 75  74 136 74  74 136 74  74 136 74  74 136 74  74 135 74  74 135 74  74 135 74  73 134 73  73 134 73  73 133 73  73 133 73  72 133 72  72 132 72  72 132 72  72 131 72  71 131 71  96 176 96  101 184 101  105 191 105  108 197 108  109 200 109  111 202 111  111 203 111  111 204 111  112 204 112  112 205 112  112 206 112  113 206 113  113 206 113  114 209 114  116 212 116  117 213 117  118 216 118  114 208 114  65 118 65  64 118 64  64 117 64  63 116 63  63 115 63  63 115 63  62 114 62  62 113 62  70 70 85  71 71 87  72 72 89  74 74 91  95 174 95  101 185 101  119 217 119  120 220 120  121 221 121  121 221 121  121 221 121  118 216 118  113 207 113  107 195 107  67 124 67  88 88 108  89 89 109  90 90 110  91 91 111  106 194 106  95 174 95  47 86 47  45 83 45  48 88 48  42 77 42  16 30 16  97 97 119  97 97 119  98 98 120  99 99 121  118 215 118  118 216 118  108 198 108  93 170 93  68 125 68  102 102 125  103 103 126  103 103 126  104 104 127  104 104 128  105 105 128  105 105 129  105 105 129  106 106 130  106 106 130  107 107 131  107 107 131  107 107 132  108 108 132  108 108 133  
132 108 108  132 108 108  131 107 107  131 107 107  131 106 106  130 106 106  130 106 106  129 105 105  128 105 105  128 104 104  127 104 104  127 103 103  126 103 103  126 102 102  125 102 102  124 101 101  124 101 101  123 100 100  122 100 100  122 99 99  121 99 99  120 98 98  119 97 97  118 97 97  118 96 96  117 95 95  116 94 94  115 94 94  114 93 93  113 92 92  112 91 91  111 90 90  110 89 89  109 89 89  107 88 88  106 87 87  105 86 86  104 85 85  102 83 83  101 82 82  100 81 81  98 80 80  97 79 79  95 78 78  94 76 76  92 75 75  90 74 74  89 72 72  87 71 71  85 70 70  62 113 62  62 114 62  63 115 63  63 115 63  63 116 63  64 117 64  64 118 64  65 118 65  65 119 65  65 120 65  66 120 66  66 121 66  67 122 67  67 123 67  67 123 67  68 124 68  68 125 68  68 125 68  69 126 69  69 127 69  69 127 69  70 128 70  70 128 70  70 129 70  71 129 71  71 130 71  71 131 71  72 131 72  72 132 72  72 132 72  72 133 72  73 133 73  73 133 73  73 134 73  73 134 73  73 135 73  74 135 74  74 135 74  74 135 74  74 136 74  74 136 74  74 136 74  74 136 74  75 137 75  75 137 75  75 137 75  75 137 75  75 137 75  75 137 75  75 137 75  75 137 75  75 137 75  75 137 75  75 137 75  75 137 75  75 137 75  75 137 75  74 136 74  74 136 74  74 136 74  74 136 74  74 135 74  74 135 74  74 135 74  73 135 73  73 134 73  73 134 73  73 133 73  73 133 73  72 133 72  72 132 72  72 132 72  72 131 72  71 131 71  71 130 71  98 179 98  105 192 105  109 200 109  110 202 110  111 202 111  111 203 111  111 203 111  112 204 112  112 205 112  112 206 112  113 206 113  113 206 113  113 208 113  115 210 115  116 212 116  117 214 117  118 215 118  116 212 116  64 118 64  64 117 64  63 116 63  63 115 63  63 115 63  62 114 62  62 113 62  70 70 85  71 71 87  72 72 89  74 74 90  117 214 117  121 221 121  118 216 118  120 220 120  120 220 120  120 220 120  120 219 120  117 215 117  113 207 113  105 192 105  93 170 93  88 88 107  89 89 109  89 89 110  107 196 107  99 180 99  41 75 41  41 76 41  44 80 44  45 83 45  20 36 20  96 96 118  97 97 118  97 97 119  98 98 120  83 152 83  119 218 119  115 211 115  99 181 99  83 153 83  101 101 124  102 102 125  102 102 126  103 103 126  103 103 127  104 104 127  104 104 128  105 105 128  105 105 129  106 106 130  106 106 130  106 106 131  107 107 131  107 107 131  108 108 132  108 108 132  
132 108 108  132 107 107  131 107 107  131 107 107  130 106 106  130 106 106  129 105 105  129 105 105  128 105 105  128 104 104  127 104 104  127 103 103  126 103 103  125 102 102  125 102 102  124 101 101  123 101 101  123 100 100  122 100 100  121 99 99  121 98 98  120 98 98  119 97 97  118 96 96  117 96 96  116 95 95  116 94 94  115 93 93  114 93 93  113 92 92  112 91 91  111 90 90  109 89 89  108 88 88  107 87 87  106 86 86  105 85 85  104 84 84  102 83 83  101 82 82  99 81 81  98 80 80  97 79 79  95 78 78  94 76 76  92 75 75  90 74 74  89 72 72  87 71 71  85 70 70  62 113 62  62 114 62  63 115 63  63 115 63  63 116 63  64 117 64  64 118 64  65 118 65  65 119 65  65 120 65  66 120 66  66 121 66  66 122 66  67 123 67  67 123 67  68 124 68  68 125 68  68 125 68  69 126 69  69 126 69  69 127 69  70 128 70  70 128 70  70 129 70  71 129 71  71 130 71  71 130 71  72 131 72  72 131 72  72 132 72  72 132 72  73 133 73  73 133 73  73 134 73  73 134 73  73 134 73  74 135 74  74 135 74  74 135 74  74 136 74  74 136 74  74 136 74  74 136 74  75 136 75  75 137 75  75 137 75  75 137 75  75 137 75  75 137 75  75 137 75  75 137 75  75 137 75  75 137 75  75 137 75  75 137 75  75 137 75  75 136 75  74 136 74  74 136 74  74 136 74  74 136 74  74 135 74  74 135 74  74 135 74  73 134 73  73 134 73  73 134 73  73 133 73  73 133 73  72 132 72  72 132 72  72 131 72  72 131 72  71 130 71  71 130 71  71 129 71  71 130 71  105 192 105  109 199 109  111 203 111  112 204 112  111 204 111  111 204 111  112 205 112  112 206 112  113 206 113  113 207 113  113 207 113  114 209 114  116 212 116  117 213 117  116 213 116  117 214 117  117 213 117  97 177 97  63 116 63  63 115 63  63 115 63  62 114 62  62 113 62  70 70 85  71 71 87  72 72 89  120 219 120  122 222 122  114 208 114  117 213 117  117 214 117  118 216 118  119 218 119  119 218 119  115 210 115  108 197 108  100 183 100  90 164 90  87 87 107  88 88 108  108 198 108  100 183 100  48 88 48  37 68 37  39 71 39  45 83 45  17 32 17  95 95 116  96 96 117  96 96 118  97 97 119  98 98 120  116 213 116  119 217 119  109 199 109  90 164 90  72 132 72  101 101 124  102 102 125  102 102 125  103 103 126  103 103 127  104 104 127  104 104 128  105 105 128  105 105 129  105 105 129  106 106 130  106 106 130  107 107 131  107 107 131  107 107 132  108 108 132  
132 108 108  131 107 107  131 107 107  131 107 107  130 106 106  130 106 106  129 105 105  129 105 105  128 104 104  127 104 104  127 103 103  126 103 103  126 103 103  125 102 102  124 102 102  124 101 101  123 100 100  122 100 100  122 99 99  121 99 99  120 98 98  119 97 97  119 97 97  118 96 96  117 95 95  116 95 95  115 94 94  114 93 93  113 92 92  112 92 92  111 91 91  110 90 90  109 89 89  108 88 88  107 87 87  106 86 86  105 85 85  103 84 84  102 83 83  101 82 82  99 81 81  98 80 80  96 79 79  95 77 77  93 76 76  92 75 75  90 74 74  89 72 72  87 71 71  85 69 69  62 113 62  62 114 62  118 215 118  131 240 131  133 242 133  106 194 106  64 117 64  65 118 65  65 119 65  65 120 65  66 120 66  66 121 66  66 122 66  67 122 67  67 123 67  68 124 68  68 124 68  68 125 68  69 126 69  69 126 69  107 196 107  70 128 70  70 128 70  70 129 70  71 129 71  71 130 71  71 130 71  71 131 71  72 131 72  72 132 72  72 132 72  72 133 72  73 133 73  73 134 73  73 134 73  73 134 73  73 135 73  74 135 74  74 135 74  74 135 74  74 136 74  74 136 74  74 136 74  74 136 74  75 136 75  75 137 75  75 137 75  75 137 75  75 137 75  75 137 75  75 137 75  75 137 75  75 137 75  75 137 75  75 137 75  75 136 75  74 136 74  74 136 74  74 136 74  74 136 74  74 135 74  74 135 74  74 135 74  73 135 73  73 134 73  73 134 73  73 134 73  73 133 73  72 133 72  72 132 72  72 132 72  72 131 72  71 131 71  71 130 71  71 130 71  71 129 71  70 129 70  70 128 70  104 191 104  108 198 108  111 203 111  112 206 112  112 205 112  112 205 112  112 205 112  113 206 113  113 207 113  113 207 113  114 208 114  115 210 115  116 212 116  112 205 112  117 214 117  119 217 119  116 212 116  98 179 98  63 115 63  62 114 62  62 114 62  62 113 62  69 69 85  71 71 87  120 219 120  120 219 120  115 211 115  113 207 113  113 207 113  116 211 116  117 214 117  118 217 118  117 215 117  111 202 111  103 189 103  94 173 94  75 138 75  87 87 107  109 200 109  102 186 102  67 123 67  22 40 22  32 59 32  41 75 41  16 30 16  16 30 16  95 95 116  95 95 117  96 96 118  97 97 119  118 216 118  115 211 115  98 180 98  82 151 82  71 131 71  100 100 123  101 101 124  102 102 124  102 102 125  103 103 126  103 103 126  103 103 127  104 104 127  104 104 128  105 105 129  105 105 129  106 106 130  106 106 130  107 107 131  107 107 131  107 107 131  108 108 132  
114 208 114  131 107 107  131 107 107  130 106 106  130 106 106  129 106 106  129 105 105  128 105 105  128 104 104  127 104 104  127 103 103  126 103 103  125 102 102  125 102 102  124 101 101  124 101 101  123 100 100  122 100 100  121 99 99  121 98 98  120 98 98  119 97 97  118 97 97  118 96 96  117 95 95  116 95 95  115 94 94  114 93 93  113 92 92  112 91 91  111 91 91  110 90 90  109 89 89  108 88 88  107 87 87  106 86 86  104 85 85  103 84 84  102 83 83  101 82 82  99 81 81  98 80 80  96 79 79  95 77 77  93 76 76  92 75 75  90 74 74  89 72 72  87 71 71  85 69 69  62 113 62  119 217 119  128 234 128  130 238 130  130 237 130  122 224 122  64 117 64  64 118 64  65 119 65  65 120 65  66 120 66  66 121 66  66 122 66  67 122 67  67 123 67  68 124 68  68 124 68  68 125 68  111 203 111  141 255 141  161 255 161  165 255 165  149 255 149  70 129 70  71 129 71  71 130 71  71 130 71  71 131 71  72 131 72  72 132 72  72 132 72  72 133 72  73 133 73  73 133 73  73 134 73  73 134 73  73 134 73  74 135 74  74 135 74  74 135 74  74 136 74  74 136 74  74 136 74  74 136 74  74 136 74  74 136 74  75 137 75  75 137 75  75 137 75  75 137 75  75 137 75  75 137 75  75 137 75  75 137 75  74 136 74  74 136 74  74 136 74  74 136 74  74 136 74  74 136 74  74 135 74  74 135 74  74 135 74  73 134 73  73 134 73  73 134 73  73 133 73  73 133 73  72 133 72  72 132 72  72 132 72  72 131 72  71 131 71  71 130 71  71 130 71  71 129 71  70 129 70  70 128 70  70 127 70  98 179 98  107 197 107  111 202 111  113 206 113  113 207 113  113 206 113  112 206 112  113 207 113  113 207 113  113 207 113  114 208 114  115 210 115  114 209 114  118 215 118  117 214 117  115 210 115  114 209 114  99 182 99  62 114 62  62 114 62  62 113 62  69 69 85  71 71 87  116 212 116  116 212 116  113 207 113  112 204 112  110 201 110  116 212 116  119 217 119  120 220 120  114 208 114  106 194 106  97 178 97  82 150 82  16 30 16  110 202 110  103 189 103  75 137 75  16 30 16  16 30 16  38 70 38  35 64 35  16 30 16  94 94 115  95 95 116  95 95 117  96 96 118  116 213 116  109 200 109  94 173 94  82 151 82  72 131 72  100 100 122  100 100 123  101 101 124  101 101 124  102 102 125  102 102 125  103 103 126  103 103 127  104 104 127  104 104 128  105 105 128  105 105 129  106 106 129  106 106 130  106 106 130  107 107 131  107 107 131  107 107 132  
110 201 110  116 213 116  131 107 107  130 106 106  130 106 106  129 105 105  129 105 105  128 104 104  128 104 104  127 104 104  126 103 103  126 103 103  125 102 102  125 102 102  124 101 101  123 101 101  123 100 100  122 99 99  121 99 99  120 98 98  120 98 98  119 97 97  118 96 96  117 96 96  117 95 95  116 94 94  115 94 94  32 59 32  78 143 78  74 135 74  111 90 90  110 90 90  109 89 89  108 88 88  107 87 87  105 86 86  104 85 85  103 84 84  102 83 83  100 82 82  99 81 81  98 80 80  96 78 78  95 77 77  93 76 76  92 75 75  90 73 73  88 72 72  87 71 71  85 69 69  118 217 118  123 224 123  128 235 128  128 234 128  128 234 128  119 218 119  64 117 64  64 118 64  65 119 65  65 119 65  66 120 66  66 121 66  66 122 66  67 122 67  67 123 67  67 124 67  68 124 68  68 125 68  68 125 68  111 203 111  147 255 147  166 255 166  168 255 168  153 255 153  70 129 70  71 130 71  71 130 71  71 131 71  72 131 72  72 132 72  72 132 72  72 132 72  73 133 73  73 133 73  73 134 73  73 134 73  73 134 73  73 135 73  74 135 74  74 135 74  74 135 74  74 136 74  74 136 74  74 136 74  74 136 74  74 136 74  74 136 74  74 136 74  75 136 75  75 136 75  75 136 75  75 136 75  74 136 74  74 136 74  74 136 74  74 136 74  74 136 74  74 136 74  74 136 74  74 135 74  74 135 74  74 135 74  73 135 73  73 134 73  73 134 73  73 134 73  73 133 73  73 133 73  72 132 72  72 132 72  72 132 72  72 131 72  71 131 71  71 130 71  71 130 71  70 129 70  70 128 70  70 128 70  69 127 69  69 127 69  104 191 104  107 197 107  111 202 111  113 206 113  114 208 114  113 206 113  112 206 112  113 207 113  114 208 114  114 208 114  114 208 114  115 210 115  116 212 116  115 210 115  113 207 113  112 205 112  111 203 111  95 173 95  62 114 62  62 113 62  69 69 85  87 160 87  117 213 117  110 201 110  107 196 107  115 210 115  114 209 114  118 216 118  121 221 121  118 216 118  111 204 111  101 185 101  87 159 87  32 59 32  111 204 111  109 199 109  92 168 92  54 99 54  16 30 16  36 66 36  42 76 42  16 30 16  93 93 114  94 94 115  94 94 116  115 211 115  115 211 115  109 200 109  95 173 95  82 151 82  72 131 72  99 99 121  99 99 122  100 100 123  101 101 123  101 101 124  102 102 125  102 102 125  103 103 126  103 103 126  104 104 127  104 104 128  104 104 128  105 105 129  105 105 129  106 106 130  106 106 130  107 107 131  107 107 131  107 107 132  
105 192 105  115 210 115  96 175 96  130 106 106  101 185 101  116 212 116  128 105 105  128 104 104  127 104 104  127 103 103  126 103 103  126 102 102  125 102 102  124 101 101  124 101 101  123 100 100  122 100 100  122 99 99  121 99 99  120 98 98  119 97 97  119 97 97  118 96 96  117 96 96  116 95 95  115 94 94  115 93 93  114 93 93  16 30 16  74 136 74  111 204 111  117 214 117  109 89 89  107 88 88  106 87 87  105 86 86  104 85 85  103 84 84  101 83 83  100 82 82  99 81 81  97 79 79  96 78 78  95 77 77  93 76 76  92 75 75  90 73 73  88 72 72  85 155 85  115 210 115  120 220 120  123 225 123  126 230 126  125 229 125  126 230 126  117 214 117  64 117 64  64 118 64  65 119 65  65 119 65  66 120 66  66 121 66  66 121 66  67 122 67  67 123 67  67 123 67  68 124 68  68 125 68  68 125 68  69 126 69  95 173 95  140 255 140  161 255 161  162 255 162  152 255 152  71 129 71  71 130 71  71 130 71  71 131 71  72 131 72  72 132 72  72 132 72  72 133 72  73 133 73  73 133 73  73 134 73  73 134 73  73 134 73  74 135 74  74 135 74  74 135 74  74 135 74  74 136 74  74 136 74  74 136 74  74 136 74  74 136 74  74 136 74  74 136 74  74 136 74  74 136 74  74 136 74  74 136 74  74 136 74  74 136 74  74 136 74  74 136 74  74 136 74  74 135 74  74 135 74  74 135 74  74 135 74  73 134 73  73 134 73  73 134 73  73 133 73  73 133 73  72 133 72  72 132 72  72 132 72  72 131 72  71 131 71  71 130 71  71 130 71  71 129 71  70 129 70  70 128 70  70 128 70  69 127 69  69 127 69  101 184 101  105 192 105  109 199 109  112 205 112  112 206 112  111 203 111  112 204 112  112 206 112  113 207 113  114 208 114  114 209 114  114 209 114  114 209 114  114 208 114  112 205 112  110 201 110  108 198 108  106 194 106  82 150 82  62 113 62  69 69 85  114 209 114  116 212 116  110 201 110  109 200 109  116 211 116  117 214 117  121 222 121  122 224 122  119 218 119  109 200 109  100 184 100  46 85 46  107 196 107  112 205 112  102 186 102  69 127 69  16 30 16  34 62 34  42 77 42  30 55 30  92 92 113  93 93 114  93 93 115  116 213 116  115 211 115  109 200 109  95 173 95  82 151 82  70 128 70  98 98 120  99 99 121  99 99 122  100 100 122  100 100 123  101 101 124  101 101 124  102 102 125  102 102 126  103 103 126  103 103 127  104 104 127  104 104 128  105 105 128  105 105 129  106 106 129  106 106 130  106 106 130  107 107 131  107 107 131  
98 179 98  110 201 110  102 186 102  130 106 106  106 194 106  116 213 116  128 105 105  128 104 104  127 104 104  127 103 103  126 103 103  125 102 102  125 102 102  124 101 101  123 101 101  123 100 100  122 100 100  121 99 99  121 98 98  120 98 98  119 97 97  118 97 97  118 96 96  117 95 95  116 95 95  115 94 94  114 93 93  113 92 92  16 30 16  16 30 16  107 196 107  118 216 118  118 216 118  105 193 105  106 87 87  105 86 86  104 85 85  103 84 84  101 83 83  100 82 82  99 80 80  97 79 79  96 78 78  94 77 77  93 76 76  91 75 75  90 73 73  82 149 82  109 199 109  118 216 118  122 224 122  124 227 124  122 223 122  122 224 122  124 227 124  115 211 115  64 117 64  64 118 64  65 118 65  65 119 65  65 120 65  66 121 66  66 121 66  67 122 67  67 123 67  67 123 67  68 124 68  68 125 68  68 125 68  69 126 69  69 126 69  76 139 76  120 219 120  147 255 147  152 255 152  146 255 146  71 130 71  71 130 71  71 131 71  72 131 72  72 132 72  72 132 72  72 132 72  73 133 73  73 133 73  73 134 73  73 134 73  73 134 73  73 134 73  74 135 74  74 135 74  74 135 74  74 135 74  74 136 74  74 136 74  74 136 74  74 136 74  74 136 74  74 136 74  74 136 74  74 136 74  74 136 74  74 136 74  74 136 74  74 136 74  74 136 74  74 136 74  74 135 74  74 135 74  74 135 74  74 135 74  73 134 73  73 134 73  73 134 73  73 134 73  73 133 73  73 133 73  72 132 72  72 132 72  72 132 72  72 131 72  71 131 71  71 130 71  71 130 71  71 129 71  70 129 70  70 128 70  70 128 70  69 127 69  69 126 69  97 178 97  102 188 102  107 196 107  111 204 111  110 201 110  111 203 111  112 205 112  113 206 113  113 207 113  113 207 113  114 208 114  114 209 114  115 210 115  114 208 114  112 205 112  110 201 110  106 195 106  104 191 104  96 176 96  61 113 61  69 69 85  120 220 120  117 214 117  110 200 110  111 202 111  116 213 116  120 220 120  123 224 123  122 224 122  120 219 120  112 206 112  99 182 99  80 146 80  114 209 114  108 197 108  82 150 82  31 57 31  31 57 31  41 74 41  34 63 34  91 91 111  92 92 112  118 215 118  117 214 117  112 206 112  109 199 109  95 173 95  82 151 82  68 124 68  97 97 119  98 98 120  98 98 121  99 99 121  100 100 122  100 100 123  101 101 123  101 101 124  102 102 125  102 102 125  103 103 126  103 103 127  104 104 127  104 104 128  105 105 128  105 105 129  105 105 129  106 106 130  106 106 130  107 107 131  107 107 131  
88 161 88  104 190 104  108 197 108  111 204 111  129 105 105  116 212 116  116 211 116  127 104 104  127 103 103  126 103 103  126 103 103  125 102 102  124 102 102  124 101 101  123 101 101  123 100 100  122 99 99  121 99 99  120 98 98  120 98 98  119 97 97  118 96 96  117 96 96  117 95 95  116 94 94  115 94 94  114 93 93  113 92 92  112 91 91  16 30 16  16 30 16  116 212 116  121 222 121  119 217 119  102 187 102  105 85 85  104 84 84  102 83 83  101 82 82  100 81 81  98 80 80  97 79 79  96 78 78  94 77 77  93 76 76  91 74 74  90 73 73  99 181 99  116 212 116  120 220 120  123 225 123  124 226 124  120 220 120  123 224 123  122 223 122  113 206 113  64 117 64  64 118 64  65 118 65  65 119 65  65 120 65  66 120 66  66 121 66  66 122 66  67 122 67  67 123 67  68 124 68  68 124 68  68 125 68  94 172 94  154 255 154  171 255 171  170 255 170  158 255 158  150 255 150  150 255 150  136 249 136  71 130 71  71 131 71  72 131 72  72 131 72  72 132 72  72 132 72  72 133 72  73 133 73  73 133 73  73 134 73  73 134 73  73 134 73  73 135 73  74 135 74  74 135 74  74 135 74  74 135 74  74 136 74  74 136 74  74 136 74  74 136 74  74 136 74  74 136 74  74 136 74  74 136 74  74 136 74  74 136 74  74 136 74  74 136 74  74 135 74  74 135 74  74 135 74  74 135 74  73 135 73  73 134 73  73 134 73  73 134 73  73 133 73  73 133 73  72 133 72  72 132 72  72 132 72  72 131 72  72 131 72  71 131 71  71 130 71  71 130 71  70 129 70  70 129 70  70 128 70  70 127 70  69 127 69  69 126 69  69 126 69  68 125 68  105 193 105  108 198 108  109 200 109  111 202 111  112 205 112  113 207 113  114 208 114  114 208 114  114 208 114  114 209 114  115 209 115  114 209 114  113 207 113  111 203 111  108 197 108  105 192 105  104 191 104  61 113 61  109 199 109  121 222 121  117 214 117  109 200 109  112 205 112  116 212 116  122 223 122  122 224 122  122 224 122  121 221 121  114 208 114  100 184 100  81 149 81  113 206 113  94 172 94  56 102 56  29 53 29  39 72 39  39 71 39  16 30 16  16 30 16  118 216 118  118 216 118  113 207 113  107 196 107  96 175 96  82 151 82  65 119 65  96 96 118  97 97 119  98 98 120  98 98 120  99 99 121  99 99 122  100 100 123  101 101 123  101 101 124  102 102 124  102 102 125  103 103 126  103 103 126  103 103 127  104 104 127  104 104 128  105 105 128  105 105 129  106 106 129  106 106 130  106 106 130  107 107 131  
78 143 78  101 185 101  107 195 107  115 209 115  129 105 105  116 212 116  115 211 115  113 207 113  127 103 103  126 103 103  125 102 102  125 102 102  124 101 101  124 101 101  123 100 100  122 100 100  122 99 99  121 99 99  120 98 98  120 97 97  119 97 97  118 96 96  117 96 96  116 95 95  116 94 94  115 94 94  114 93 93  113 92 92  112 91 91  16 30 16  16 30 16  97 178 97  120 219 120  123 224 123  118 216 118  104 190 104  103 84 84  102 83 83  101 82 82  100 81 81  98 80 80  97 79 79  96 78 78  94 77 77  93 76 76  91 74 74  90 73 73  107 195 107  118 215 118  122 222 122  122 223 122  122 223 122  118 216 118  122 223 122  119 218 119  110 200 110  64 117 64  64 118 64  65 118 65  65 119 65  65 120 65  66 120 66  66 121 66  66 122 66  67 122 67  67 123 67  67 124 67  68 124 68  68 125 68  69 125 69  108 198 108  150 255 150  159 255 159  166 255 166  158 255 158  148 255 148  145 255 145  71 130 71  71 130 71  71 131 71  72 131 72  72 132 72  72 132 72  72 132 72  73 133 73  73 133 73  73 133 73  73 134 73  73 134 73  73 134 73  73 135 73  74 135 74  74 135 74  74 135 74  74 135 74  74 135 74  74 136 74  74 136 74  74 136 74  74 136 74  74 136 74  74 136 74  74 136 74  74 136 74  74 135 74  74 135 74  74 135 74  74 135 74  74 135 74  73 135 73  73 134 73  73 134 73  73 134 73  73 133 73  73 133 73  73 133 73  72 132 72  72 132 72  72 132 72  72 131 72  71 131 71  71 130 71  71 130 71  71 129 71  70 129 70  70 128 70  70 128 70  69 127 69  69 127 69  69 126 69  69 125 69  68 125 68  68 124 68  107 195 107  109 199 109  111 202 111  112 205 112  113 207 113  114 208 114  113 207 113  114 209 114  114 209 114  114 209 114  114 209 114  114 208 114  112 205 112  109 200 109  107 196 107  106 194 106  108 198 108  108 198 108  121 221 121  113 207 113  109 199 109  113 207 113  120 220 120  122 224 122  122 224 122  122 224 122  120 220 120  113 208 113  101 184 101  81 148 81  104 191 104  77 141 77  17 32 17  37 68 37  43 78 43  16 30 16  110 201 110  115 211 115  118 215 118  116 211 116  108 198 108  104 190 104  91 166 91  62 114 62  96 96 117  96 96 118  97 97 119  97 97 120  98 98 120  99 99 121  99 99 122  100 100 122  100 100 123  101 101 124  101 101 124  102 102 125  102 102 125  103 103 126  103 103 127  104 104 127  104 104 128  105 105 128  105 105 129  105 105 129  106 106 130  106 106 130  107 107 131  
67 122 67  108 198 108  103 188 103  112 205 112  116 212 116  116 211 116  115 210 115  113 207 113  126 103 103  126 103 103  125 102 102  125 102 102  124 101 101  123 101 101  123 100 100  122 100 100  121 99 99  121 98 98  120 98 98  119 97 97  119 97 97  118 96 96  117 95 95  116 95 95  115 94 94  114 93 93  114 93 93  113 92 92  112 91 91  111 90 90  16 30 16  16 30 16  106 194 106  121 222 121  124 226 124  118 217 118  106 194 106  102 83 83  101 82 82  99 81 81  98 80 80  97 79 79  95 78 78  94 77 77  93 75 75  91 74 74  90 73 73  112 204 112  120 220 120  120 219 120  120 220 120  120 220 120  117 214 117  120 219 120  117 214 117  63 116 63  64 117 64  64 117 64  64 118 64  65 119 65  65 119 65  66 120 66  66 121 66  66 121 66  67 122 67  67 123 67  67 123 67  68 124 68  68 125 68  68 125 68  69 126 69  109 200 109  145 255 145  156 255 156  162 255 162  155 255 155  147 255 147  138 251 138  71 130 71  71 131 71  72 131 72  72 131 72  72 132 72  72 132 72  72 133 72  73 133 73  73 133 73  73 134 73  73 134 73  73 134 73  73 134 73  73 135 73  74 135 74  74 135 74  74 135 74  74 135 74  74 135 74  74 135 74  74 135 74  74 135 74  74 135 74  74 135 74  74 135 74  74 135 74  74 135 74  74 135 74  74 135 74  74 135 74  73 135 73  73 134 73  73 134 73  73 134 73  73 134 73  73 133 73  73 133 73  72 133 72  72 132 72  72 132 72  72 131 72  72 131 72  71 131 71  71 130 71  71 130 71  71 129 71  70 129 70  70 128 70  70 128 70  69 127 69  69 126 69  69 126 69  68 125 68  68 125 68  101 184 101  103 189 103  107 196 107  111 203 111  114 208 114  115 210 115  115 210 115  115 210 115  114 209 114  114 209 114  114 209 114  114 209 114  114 209 114  113 206 113  111 203 111  110 201 110  108 198 108  117 214 117  107 195 107  119 218 119  113 207 113  110 201 110  119 218 119  120 219 120  121 221 121  122 223 122  121 221 121  118 216 118  112 205 112  99 181 99  80 146 80  89 163 89  21 39 21  38 69 38  42 78 42  113 206 113  114 209 114  117 213 117  116 213 116  113 207 113  110 200 110  106 193 106  99 181 99  86 158 86  95 95 116  95 95 117  96 96 118  97 97 119  97 97 119  98 98 120  98 98 121  99 99 121  100 100 122  100 100 123  101 101 123  101 101 124  102 102 125  102 102 125  103 103 126  103 103 126  104 104 127  104 104 127  104 104 128  105 105 129  105 105 129  106 106 130  106 106 130  106 106 130  
115 211 115  115 209 115  110 202 110  109 199 109  115 210 115  116 211 116  115 211 115  112 206 112  109 200 109  126 102 102  125 102 102  124 102 102  124 101 101  123 100 100  123 100 100  122 99 99  121 99 99  120 98 98  120 98 98  119 97 97  118 96 96  118 96 96  117 95 95  116 95 95  115 94 94  114 93 93  113 92 92  112 92 92  111 91 91  110 90 90  16 30 16  16 30 16  84 155 84  104 190 104  121 221 121  124 227 124  120 219 120  108 197 108  100 82 82  99 81 81  98 80 80  97 79 79  95 78 78  94 77 77  92 75 75  91 74 74  89 73 73  114 209 114  122 223 122  119 217 119  120 219 120  119 217 119  117 215 117  120 220 120  116 212 116  63 116 63  64 117 64  64 117 64  64 118 64  65 119 65  65 119 65  65 120 65  66 121 66  66 121 66  67 122 67  67 123 67  67 123 67  68 124 68  68 125 68  68 125 68  69 126 69  69 126 69  110 201 110  143 255 143  153 255 153  158 255 158  157 255 157  142 255 142  126 230 126  71 130 71  71 131 71  72 131 72  72 132 72  72 132 72  72 132 72  72 133 72  73 133 73  73 133 73  73 134 73  73 134 73  73 134 73  73 134 73  73 135 73  74 135 74  74 135 74  74 135 74  74 135 74  74 135 74  74 135 74  74 135 74  74 135 74  74 135 74  74 135 74  74 135 74  74 135 74  74 135 74  74 135 74  73 135 73  73 134 73  73 134 73  73 134 73  73 134 73  73 133 73  73 133 73  72 133 72  72 132 72  72 132 72  72 132 72  72 131 72  71 131 71  71 130 71  71 130 71  71 129 71  70 129 70  70 128 70  70 128 70  70 127 70  69 127 69  69 126 69  69 126 69  68 125 68  68 125 68  68 124 68  67 123 67  86 158 86  105 192 105  115 210 115  114 209 114  114 208 114  114 208 114  113 207 113  114 208 114  114 209 114  114 209 114  114 209 114  113 207 113  113 206 113  113 206 113  113 206 113  118 216 118  104 190 104  116 211 116  114 208 114  114 209 114  118 215 118  120 219 120  121 222 121  122 223 122  120 219 120  114 208 114  112 205 112  106 193 106  91 167 91  91 167 91  115 210 115  114 208 114  115 210 115  115 211 115  115 211 115  113 207 113  109 200 109  104 190 104  103 188 103  103 188 103  97 177 97  80 146 80  95 95 116  95 95 117  96 96 118  96 96 118  97 97 119  98 98 120  98 98 120  99 99 121  99 99 122  100 100 123  100 100 123  101 101 124  102 102 124  102 102 125  102 102 126  103 103 126  103 103 127  104 104 127  104 104 128  105 105 128  105 105 129  106 106 129  106 106 130  106 106 130  
115 210 115  115 210 115  114 209 114  112 204 112  112 205 112  114 209 114  115 210 115  115 211 115  112 205 112  125 102 102  125 102 102  124 101 101  124 101 101  123 100 100  122 100 100  122 99 99  121 99 99  120 98 98  120 98 98  119 97 97  118 96 96  117 96 96  116 95 95  116 94 94  115 94 94  114 93 93  113 92 92  112 91 91  111 91 91  110 90 90  109 89 89  16 30 16  64 117 64  91 167 91  114 209 114  123 225 123  123 224 123  116 212 116  100 82 82  99 81 81  98 80 80  96 79 79  95 78 78  94 76 76  92 75 75  91 74 74  89 73 73  120 219 120  123 226 123  119 218 119  121 222 121  119 218 119  120 220 120  120 219 120  115 210 115  63 116 63  64 116 64  64 117 64  64 118 64  65 118 65  65 119 65  65 120 65  66 120 66  66 121 66  66 122 66  67 122 67  67 123 67  68 124 68  68 124 68  68 125 68  69 126 69  69 126 69  69 127 69  110 201 110  140 255 140  151 255 151  153 255 153  152 255 152  129 236 129  104 189 104  71 131 71  72 131 72  72 131 72  72 132 72  72 132 72  72 132 72  73 133 73  73 133 73  73 133 73  73 134 73  73 134 73  73 134 73  73 134 73  73 134 73  73 135 73  74 135 74  74 135 74  74 135 74  74 135 74  74 135 74  74 135 74  74 135 74  74 135 74  74 135 74  74 135 74  73 135 73  73 134 73  73 134 73  73 134 73  73 134 73  73 134 73  73 133 73  73 133 73  73 133 73  72 132 72  72 132 72  72 132 72  72 131 72  72 131 72  71 131 71  71 130 71  71 130 71  71 129 71  70 129 70  70 128 70  70 128 70  69 127 69  69 127 69  69 126 69  69 126 69  68 125 68  68 124 68  68 124 68  67 123 67  110 201 110  115 209 115  114 209 114  114 209 114  114 209 114  114 208 114  113 207 113  114 208 114  114 209 114  114 209 114  114 209 114  114 209 114  115 210 115  115 211 115  115 211 115  120 219 120  107 196 107  109 199 109  106 193 106  69 126 69  119 217 119  121 221 121  122 223 122  122 223 122  122 222 122  120 219 120  117 213 117  112 205 112  108 198 108  105 193 105  101 185 101  96 176 96  96 175 96  99 181 99  107 197 107  103 189 103  98 180 98  96 176 96  98 179 98  101 185 101  94 171 94  67 123 67  94 94 116  95 95 116  96 96 117  96 96 118  97 97 119  98 98 120  98 98 120  99 99 121  99 99 122  100 100 122  100 100 123  101 101 124  101 101 124  102 102 125  102 102 125  103 103 126  103 103 127  104 104 127  104 104 128  105 105 128  105 105 129  105 105 129  106 106 130  106 106 130  
113 207 113  114 209 114  114 209 114  112 205 112  110 201 110  111 204 111  113 207 113  114 209 114  114 209 114  110 201 110  125 102 102  124 101 101  123 101 101  123 100 100  122 100 100  121 99 99  121 98 98  120 98 98  119 97 97  119 97 97  118 96 96  117 95 95  116 95 95  115 94 94  115 93 93  114 93 93  113 92 92  112 91 91  111 91 91  110 90 90  109 89 89  16 30 16  43 78 43  73 134 73  101 185 101  121 221 121  123 224 123  119 218 119  110 202 110  99 81 81  98 80 80  96 78 78  95 77 77  93 76 76  92 75 75  91 74 74  85 156 85  124 227 124  126 230 126  121 221 121  121 222 121  122 222 122  121 221 121  119 217 119  63 115 63  63 116 63  63 116 63  64 117 64  64 118 64  65 118 65  65 119 65  65 120 65  66 120 66  66 121 66  66 122 66  67 122 67  67 123 67  67 124 67  68 124 68  68 125 68  68 125 68  69 126 69  69 126 69  16 30 16  105 193 105  137 250 137  149 255 149  149 255 149  138 252 138  110 201 110  71 130 71  71 131 71  72 131 72  72 132 72  72 132 72  72 132 72  72 133 72  73 133 73  73 133 73  73 133 73  73 134 73  73 134 73  73 134 73  73 134 73  73 134 73  73 134 73  73 135 73  73 135 73  74 135 74  74 135 74  74 135 74  74 135 74  73 135 73  73 135 73  73 134 73  73 134 73  73 134 73  73 134 73  73 134 73  73 134 73  73 133 73  73 133 73  73 133 73  72 133 72  72 132 72  72 132 72  72 132 72  72 131 72  71 131 71  71 130 71  71 130 71  71 129 71  70 129 70  70 129 70  70 128 70  70 128 70  69 127 69  69 126 69  69 126 69  68 125 68  68 125 68  68 124 68  67 124 67  67 123 67  67 122 67  114 208 114  115 210 115  115 210 115  114 209 114  114 208 114  113 207 113  114 208 114  114 209 114  114 209 114  115 210 115  115 210 115  115 211 115  116 211 116  116 212 116  118 215 118  114 209 114  123 225 123  117 214 117  85 155 85  124 227 124  126 230 126  125 229 125  125 228 125  124 226 124  122 223 122  119 218 119  116 212 116  112 204 112  105 193 105  103 188 103  94 173 94  89 162 89  85 155 85  92 168 92  91 166 91  90 165 90  89 163 89  96 176 96  98 180 98  88 161 88  46 84 46  94 94 115  95 95 116  95 95 117  96 96 118  97 97 119  97 97 119  98 98 120  98 98 121  99 99 121  100 100 122  100 100 123  101 101 123  101 101 124  102 102 125  102 102 125  103 103 126  103 103 126  103 103 127  104 104 127  104 104 128  105 105 128  105 105 129  106 106 129  106 106 130  
110 200 110  112 205 112  113 207 113  112 206 112  109 200 109  111 203 111  112 204 112  112 205 112  113 206 113  113 206 113  103 188 103  124 101 101  123 100 100  123 100 100  122 99 99  121 99 99  121 98 98  120 98 98  119 97 97  118 97 97  118 96 96  117 95 95  116 95 95  115 94 94  114 93 93  113 93 93  113 92 92  112 91 91  111 90 90  110 90 90  109 89 89  108 88 88  16 30 16  54 99 54  83 151 83  113 207 113  123 225 123  121 221 121  115 210 115  88 162 88  97 79 79  96 78 78  95 77 77  93 76 76  92 75 75  90 74 74  99 181 99  127 232 127  127 232 127  123 225 123  123 224 123  121 221 121  119 218 119  116 213 116  63 115 63  63 115 63  63 116 63  64 117 64  64 117 64  64 118 64  65 119 65  65 119 65  66 120 66  66 121 66  66 121 66  67 122 67  67 123 67  67 123 67  68 124 68  68 124 68  68 125 68  69 126 69  69 126 69  16 30 16  72 133 72  106 193 106  136 248 136  147 255 147  145 255 145  115 211 115  71 130 71  71 131 71  71 131 71  72 131 72  72 132 72  72 132 72  72 132 72  72 133 72  73 133 73  73 133 73  73 133 73  73 134 73  73 134 73  73 134 73  73 134 73  73 134 73  73 134 73  73 134 73  73 134 73  73 134 73  73 134 73  73 134 73  73 134 73  73 134 73  73 134 73  73 134 73  73 134 73  73 134 73  73 134 73  73 133 73  73 133 73  73 133 73  72 133 72  72 132 72  72 132 72  72 132 72  72 131 72  71 131 71  71 131 71  71 130 71  71 130 71  71 129 71  70 129 70  70 128 70  70 128 70  69 127 69  69 127 69  69 126 69  69 126 69  68 125 68  68 124 68  68 124 68  67 123 67  67 123 67  67 122 67  66 121 66  116 211 116  115 210 115  114 209 114  113 207 113  113 208 113  114 208 114  115 209 115  115 210 115  115 211 115  116 212 116  116 212 116  116 213 116  117 213 117  117 213 117  123 226 123  126 231 126  120 219 120  102 187 102  126 230 126  126 231 126  126 231 126  126 230 126  124 228 124  123 225 123  121 221 121  118 215 118  114 208 114  108 198 108  104 189 104  102 187 102  95 175 95  85 156 85  81 148 81  87 160 87  81 148 81  79 145 79  95 174 95  93 170 93  78 142 78  16 30 16  94 94 115  95 95 116  95 95 117  96 96 118  97 97 118  97 97 119  98 98 120  98 98 121  99 99 121  99 99 122  100 100 123  100 100 123  101 101 124  101 101 124  102 102 125  102 102 126  103 103 126  103 103 127  104 104 127  104 104 128  105 105 128  105 105 129  105 105 129  106 106 130  
109 199 109  109 200 109  110 202 110  112 205 112  110 201 110  110 202 110  111 203 111  112 204 112  113 206 113  113 208 113  104 190 104  124 101 101  123 100 100  122 100 100  122 99 99  121 99 99  120 98 98  120 98 98  119 97 97  118 96 96  117 96 96  117 95 95  116 94 94  115 94 94  114 93 93  113 92 92  112 92 92  111 91 91  111 90 90  110 89 89  109 89 89  108 88 88  16 30 16  17 32 17  58 106 58  98 179 98  119 218 119  122 223 122  118 216 118  106 195 106  97 79 79  112 204 112  112 204 112  111 203 111  110 202 110  117 214 117  126 231 126  128 235 128  127 232 127  125 228 125  123 225 123  120 219 120  118 216 118  62 114 62  62 114 62  63 115 63  63 116 63  64 117 64  64 117 64  64 118 64  65 119 65  65 119 65  65 120 65  66 121 66  66 121 66  67 122 67  67 122 67  67 123 67  68 124 68  68 124 68  68 125 68  68 125 68  69 126 69  27 49 27  87 159 87  162 255 162  154 255 154  165 255 165  150 255 150  133 243 133  71 130 71  71 130 71  71 131 71  72 131 72  72 131 72  72 132 72  72 132 72  72 132 72  72 133 72  73 133 73  73 133 73  73 133 73  73 133 73  73 134 73  73 134 73  73 134 73  73 134 73  73 134 73  73 134 73  73 134 73  73 134 73  73 134 73  73 134 73  73 134 73  73 134 73  73 134 73  73 134 73  73 133 73  73 133 73  73 133 73  73 133 73  72 133 72  72 132 72  72 132 72  72 132 72  72 131 72  72 131 72  71 131 71  71 130 71  71 130 71  71 129 71  70 129 70  70 129 70  70 128 70  70 128 70  69 127 69  69 127 69  69 126 69  68 125 68  68 125 68  68 124 68  68 124 68  67 123 67  67 122 67  67 122 67  66 121 66  66 121 66  115 210 115  113 206 113  113 207 113  114 208 114  114 208 114  115 210 115  115 210 115  116 212 116  116 213 116  117 213 117  117 214 117  117 214 117  122 224 122  126 230 126  125 229 125  121 220 121  120 219 120  125 228 125  126 230 126  126 231 126  126 230 126  125 228 125  122 223 122  123 224 123  120 219 120  116 212 116  110 202 110  99 181 99  101 185 101  97 177 97  88 161 88  48 87 48  85 156 85  73 133 73  67 122 67  89 163 89  85 156 85  58 107 58  16 30 16  94 94 115  94 94 116  95 95 117  96 96 117  96 96 118  97 97 119  98 98 120  98 98 120  99 99 121  99 99 122  100 100 122  100 100 123  101 101 124  101 101 124  102 102 125  102 102 125  103 103 126  103 103 126  104 104 127  104 104 128  104 104 128  105 105 129  105 105 129  106 106 130  
108 197 108  108 198 108  109 199 109  109 199 109  110 201 110  110 200 110  110 202 110  112 204 112  113 207 113  114 208 114  105 192 105  92 169 92  123 100 100  122 100 100  121 99 99  121 99 99  120 98 98  119 97 97  119 97 97  118 96 96  117 96 96  116 95 95  116 94 94  115 94 94  114 93 93  113 92 92  112 91 91  111 91 91  110 90 90  109 89 89  108 88 88  107 88 88  106 87 87  16 30 16  16 30 16  65 119 65  86 157 86  106 194 106  113 206 113  109 200 109  111 204 111  116 212 116  120 220 120  124 226 124  126 231 126  129 236 129  130 237 130  129 235 129  127 233 127  125 229 125  122 223 122  120 219 120  118 216 118  62 114 62  62 114 62  63 115 63  63 116 63  64 116 64  64 117 64  64 118 64  65 118 65  65 119 65  65 120 65  66 120 66  66 121 66  66 122 66  67 122 67  67 123 67  67 123 67  68 124 68  68 125 68  68 125 68  69 126 69  35 64 35  146 255 146  163 255 163  160 255 160  153 255 153  148 255 148  133 243 133  111 203 111  71 130 71  71 130 71  71 131 71  72 131 72  72 131 72  72 132 72  72 132 72  72 132 72  72 133 72  73 133 73  73 133 73  73 133 73  73 133 73  73 133 73  73 134 73  73 134 73  73 134 73  73 134 73  73 134 73  73 134 73  73 134 73  73 134 73  73 134 73  73 134 73  73 133 73  73 133 73  73 133 73  73 133 73  73 133 73  72 133 72  72 132 72  72 132 72  72 132 72  72 131 72  72 131 72  71 131 71  71 130 71  71 130 71  71 130 71  71 129 71  70 129 70  70 128 70  70 128 70  70 127 70  69 127 69  69 126 69  69 126 69  68 125 68  68 125 68  68 124 68  67 123 67  67 123 67  67 122 67  66 122 66  66 121 66  66 120 66  115 211 115  112 206 112  113 206 113  113 207 113  114 208 114  115 210 115  116 212 116  116 212 116  117 213 117  117 214 117  117 215 117  120 219 120  124 227 124  125 229 125  123 225 123  117 215 117  118 216 118  125 228 125  126 230 126  126 230 126  126 230 126  125 228 125  123 226 123  124 227 124  122 222 122  118 216 118  112 205 112  102 187 102  86 157 86  93 170 93  86 158 86  63 116 63  83 151 83  69 127 69  52 95 52  81 149 81  66 121 66  16 30 16  93 93 114  94 94 115  94 94 116  95 95 116  96 96 117  96 96 118  97 97 119  97 97 119  98 98 120  99 99 121  99 99 121  100 100 122  100 100 123  101 101 123  101 101 124  102 102 125  102 102 125  103 103 126  103 103 126  103 103 127  104 104 127  104 104 128  105 105 128  105 105 129  106 106 129  
107 196 107  107 196 107  108 197 108  108 197 108  108 198 108  109 200 109  111 203 111  112 205 112  113 207 113  114 209 114  115 210 115  94 173 94  123 100 100  122 99 99  121 99 99  121 98 98  120 98 98  119 97 97  118 97 97  118 96 96  117 95 95  116 95 95  115 94 94  114 93 93  114 93 93  113 92 92  112 91 91  111 91 91  110 90 90  109 89 89  108 88 88  107 87 87  106 87 87  105 86 86  16 30 16  76 139 76  98 180 98  106 193 106  109 200 109  113 206 113  116 212 116  119 218 119  132 242 132  133 242 133  129 237 129  130 238 130  130 238 130  129 236 129  128 233 128  126 231 126  124 228 124  121 220 121  61 113 61  62 113 62  62 114 62  63 115 63  63 115 63  63 116 63  64 117 64  64 118 64  65 118 65  65 119 65  65 120 65  66 120 66  66 121 66  66 121 66  67 122 67  67 123 67  67 123 67  68 124 68  68 124 68  68 125 68  69 125 69  42 77 42  96 176 96  139 254 139  146 255 146  137 251 137  133 243 133  131 240 131  109 200 109  71 130 71  71 130 71  71 131 71  71 131 71  72 131 72  72 131 72  72 132 72  72 132 72  72 132 72  72 133 72  72 133 72  73 133 73  73 133 73  73 133 73  73 133 73  73 133 73  73 133 73  73 134 73  73 134 73  73 134 73  73 134 73  73 133 73  73 133 73  73 133 73  73 133 73  73 133 73  73 133 73  72 133 72  72 133 72  72 132 72  72 132 72  72 132 72  72 131 72  72 131 72  71 131 71  71 131 71  71 130 71  71 130 71  71 129 71  70 129 70  70 128 70  70 128 70  70 128 70  69 127 69  69 127 69  69 126 69  69 125 69  68 125 68  68 124 68  68 124 68  67 123 67  67 123 67  67 122 67  66 121 66  66 121 66  106 194 106  116 212 116  114 208 114  112 206 112  113 207 113  114 208 114  115 210 115  116 212 116  117 213 117  117 214 117  118 215 118  118 216 118  124 226 124  124 228 124  124 228 124  121 221 121  113 207 113  120 220 120  126 230 126  125 229 125  125 229 125  125 229 125  121 222 121  125 228 125  125 229 125  123 225 123  119 218 119  113 206 113  104 190 104  89 164 89  88 161 88  82 150 82  60 110 60  79 146 79  65 119 65  46 84 46  73 133 73  32 59 32  16 30 16  93 93 114  93 93 114  94 94 115  95 95 116  95 95 117  96 96 118  97 97 118  97 97 119  98 98 120  98 98 121  99 99 121  99 99 122  100 100 123  100 100 123  101 101 124  101 101 124  102 102 125  102 102 126  103 103 126  103 103 127  104 104 127  104 104 128  105 105 128  105 105 129  105 105 129  
105 191 105  106 194 106  106 195 106  107 195 107  107 196 107  109 200 109  111 203 111  112 206 112  113 208 113  114 209 114  115 210 115  96 176 96  122 100 100  122 99 99  121 99 99  120 98 98  120 98 98  119 97 97  118 96 96  117 96 96  117 95 95  116 95 95  115 94 94  114 93 93  113 93 93  113 92 92  112 91 91  111 90 90  110 90 90  116 213 116  131 239 131  107 87 87  106 86 86  81 148 81  105 191 105  101 186 101  99 181 99  104 190 104  108 197 108  112 205 112  124 227 124  130 237 130  127 233 127  131 239 131  132 241 132  131 239 131  129 235 129  128 234 128  128 234 128  127 232 127  126 230 126  113 206 113  116 213 116  115 211 115  62 114 62  63 115 63  63 115 63  63 116 63  64 117 64  64 117 64  64 118 64  65 119 65  65 119 65  65 120 65  66 121 66  66 121 66  66 122 66  67 122 67  67 123 67  67 124 67  68 124 68  68 125 68  88 161 88  58 105 58  42 77 42  104 190 104  124 228 124  126 231 126  121 222 121  114 208 114  108 197 108  71 129 71  71 130 71  71 130 71  71 131 71  71 131 71  72 131 72  72 131 72  72 132 72  72 132 72  72 132 72  72 132 72  72 133 72  72 133 72  73 133 73  73 133 73  73 133 73  73 133 73  73 133 73  73 133 73  73 133 73  73 133 73  73 133 73  73 133 73  73 133 73  73 133 73  72 133 72  72 133 72  72 132 72  72 132 72  72 132 72  72 132 72  72 131 72  72 131 72  71 131 71  71 131 71  71 130 71  71 130 71  71 129 71  70 129 70  70 129 70  70 128 70  70 128 70  69 127 69  69 127 69  69 126 69  69 126 69  68 125 68  68 125 68  68 124 68  67 124 67  67 123 67  67 122 67  66 122 66  66 121 66  66 121 66  114 208 114  116 212 116  114 209 114  112 206 112  112 206 112  114 208 114  115 210 115  117 213 117  118 215 118  118 216 118  119 217 119  123 224 123  123 226 123  125 229 125  123 225 123  113 206 113  114 209 114  123 226 123  126 230 126  125 229 125  125 228 125  125 228 125  123 224 123  125 229 125  126 230 126  124 227 124  120 219 120  113 207 113  104 191 104  92 169 92  62 114 62  76 139 76  57 105 57  76 139 76  61 111 61  68 124 68  46 85 46  16 30 16  16 30 16  93 93 113  93 93 114  94 94 115  95 95 116  95 95 117  96 96 117  96 96 118  97 97 119  98 98 120  98 98 120  99 99 121  99 99 122  100 100 122  100 100 123  101 101 124  101 101 124  102 102 125  102 102 125  103 103 126  103 103 126  104 104 127  104 104 127  104 104 128  105 105 128  105 105 129  
101 185 101  104 191 104  105 192 105  105 192 105  107 195 107  109 199 109  111 203 111  112 206 112  114 208 114  114 209 114  115 210 115  115 211 115  122 100 100  121 99 99  121 99 99  120 98 98  119 97 97  119 97 97  118 96 96  117 96 96  116 95 95  116 94 94  115 94 94  114 93 93  113 92 92  112 92 92  111 91 91  111 90 90  110 89 89  98 179 98  119 217 119  129 236 129  139 254 139  135 248 135  111 203 111  101 186 101  109 200 109  114 209 114  119 217 119  123 224 123  130 237 130  130 238 130  125 228 125  125 228 125  129 237 129  130 237 130  129 236 129  129 235 129  128 234 128  127 233 127  125 229 125  111 204 111  116 213 116  117 213 117  116 213 116  62 114 62  63 115 63  63 116 63  64 116 64  64 117 64  64 118 64  65 118 65  65 119 65  65 120 65  66 120 66  66 121 66  66 122 66  67 122 67  67 123 67  67 123 67  110 201 110  112 206 112  75 138 75  61 113 61  41 76 41  16 30 16  91 167 91  108 197 108  111 203 111  107 196 107  101 185 101  71 129 71  71 130 71  71 130 71  71 130 71  71 131 71  71 131 71  72 131 72  72 131 72  72 132 72  72 132 72  72 132 72  72 132 72  72 132 72  72 133 72  72 133 72  73 133 73  73 133 73  73 133 73  73 133 73  73 133 73  73 133 73  73 133 73  73 133 73  72 133 72  72 133 72  72 132 72  72 132 72  72 132 72  72 132 72  72 132 72  72 131 72  72 131 72  71 131 71  71 131 71  71 130 71  71 130 71  71 130 71  71 129 71  70 129 70  70 128 70  70 128 70  70 127 70  69 127 69  69 127 69  69 126 69  69 126 69  68 125 68  68 124 68  68 124 68  67 123 67  67 123 67  67 122 67  66 122 66  66 121 66  66 120 66  65 120 65  116 213 116  115 210 115  114 208 114  112 205 112  114 209 114  117 213 117  118 216 118  119 217 119  119 217 119  119 217 119  123 226 123  125 228 125  125 228 125  118 215 118  110 201 110  118 215 118  125 229 125  126 231 126  125 229 125  124 227 124  120 220 120  123 226 123  126 230 126  126 231 126  124 227 124  119 218 119  113 206 113  104 190 104  93 171 93  62 114 62  70 128 70  54 98 54  72 132 72  54 100 54  56 103 56  16 30 16  57 104 57  92 92 112  92 92 113  93 93 114  94 94 115  94 94 116  95 95 116  96 96 117  96 96 118  97 97 119  97 97 119  98 98 120  99 99 121  99 99 121  100 100 122  100 100 123  101 101 123  101 101 124  102 102 125  102 102 125  103 103 126  103 103 126  103 103 127  104 104 127  104 104 128  105 105 128  105 105 129  
96 176 96  101 184 101  103 188 103  103 189 103  106 194 106  108 198 108  111 202 111  112 205 112  114 208 114  115 210 115  115 210 115  115 211 115  99 182 99  121 99 99  121 98 98  120 98 98  119 97 97  118 97 97  118 96 96  117 95 95  116 95 95  115 94 94  115 94 94  114 93 93  113 92 92  112 91 91  111 91 91  110 90 90  50 92 50  69 126 69  94 173 94  114 208 114  123 226 123  138 251 138  138 253 138  138 253 138  138 252 138  136 249 136  124 226 124  127 232 127  132 242 132  130 238 130  126 231 126  128 234 128  129 236 129  129 237 129  129 237 129  129 236 129  128 235 128  128 233 128  126 231 126  123 226 123  110 201 110  117 215 117  117 214 117  116 211 116  63 115 63  63 116 63  63 116 63  64 117 64  64 118 64  65 118 65  65 119 65  65 119 65  66 120 66  66 121 66  66 121 66  67 122 67  67 123 67  97 178 97  100 183 100  102 187 102  71 130 71  65 119 65  41 74 41  36 66 36  40 73 40  76 140 76  92 169 92  101 184 101  97 178 97  70 129 70  71 129 71  71 130 71  71 130 71  71 130 71  71 131 71  71 131 71  72 131 72  72 131 72  72 132 72  72 132 72  72 132 72  72 132 72  72 132 72  72 132 72  72 133 72  72 133 72  72 133 72  72 133 72  72 133 72  72 133 72  72 133 72  72 133 72  72 132 72  72 132 72  72 132 72  72 132 72  72 132 72  72 132 72  72 131 72  72 131 72  71 131 71  71 131 71  71 130 71  71 130 71  71 130 71  71 129 71  70 129 70  70 129 70  70 128 70  70 128 70  69 127 69  69 127 69  69 126 69  69 126 69  68 125 68  68 125 68  68 124 68  67 124 67  67 123 67  67 123 67  67 122 67  66 121 66  66 121 66  66 120 66  65 119 65  116 212 116  116 212 116  115 210 115  115 211 115  116 213 116  114 208 114  111 203 111  115 210 115  119 218 119  123 226 123  123 226 123  125 229 125  122 223 122  110 201 110  110 201 110  122 223 122  126 230 126  126 231 126  125 229 125  123 225 123  121 221 121  124 227 124  126 230 126  126 230 126  122 223 122  117 215 117  112 204 112  103 189 103  96 175 96  65 118 65  65 120 65  51 94 51  63 115 63  49 89 49  97 177 97  97 178 97  16 30 16  91 91 112  92 92 113  93 93 114  94 94 115  94 94 115  95 95 116  95 95 117  96 96 118  97 97 118  97 97 119  98 98 120  98 98 121  99 99 121  99 99 122  100 100 123  100 100 123  101 101 124  101 101 124  102 102 125  102 102 125  103 103 126  103 103 127  104 104 127  104 104 128  105 105 128  105 105 129  
86 157 86  94 172 94  100 183 100  102 187 102  105 192 105  108 197 108  110 201 110  112 205 112  113 207 113  114 209 114  115 211 115  115 211 115  115 211 115  115 210 115  120 98 98  120 98 98  119 97 97  118 96 96  118 96 96  117 95 95  116 95 95  115 94 94  114 93 93  114 93 93  113 92 92  112 91 91  111 91 91  110 90 90  27 50 27  61 112 61  69 126 69  89 162 89  107 195 107  119 218 119  125 229 125  129 237 129  134 245 134  136 249 136  136 249 136  134 244 134  131 240 131  131 239 131  128 235 128  129 237 129  130 237 130  130 238 130  129 236 129  129 235 129  128 235 128  128 234 128  127 232 127  125 230 125  121 221 121  109 199 109  118 215 118  116 213 116  115 211 115  63 115 63  63 116 63  64 117 64  64 117 64  64 118 64  65 119 65  65 119 65  65 120 65  66 120 66  66 121 66  66 122 66  67 122 67  86 157 86  91 166 91  93 170 93  68 125 68  73 133 73  44 81 44  40 74 40  52 95 52  59 108 59  76 139 76  91 167 91  93 170 93  85 155 85  70 129 70  71 129 71  71 130 71  71 130 71  71 130 71  71 131 71  71 131 71  72 131 72  72 131 72  72 132 72  72 132 72  72 132 72  72 132 72  72 132 72  72 132 72  72 132 72  72 132 72  72 132 72  72 132 72  72 132 72  72 132 72  72 132 72  72 132 72  72 132 72  72 132 72  72 132 72  72 132 72  72 131 72  72 131 72  71 131 71  71 131 71  71 130 71  71 130 71  71 130 71  71 129 71  70 129 70  70 129 70  70 128 70  70 128 70  70 127 70  69 127 69  69 126 69  69 126 69  69 126 69  68 125 68  68 124 68  68 124 68  67 123 67  67 123 67  67 122 67  66 122 66  66 121 66  66 120 66  65 120 65  65 119 65  65 119 65  110 202 110  109 199 109  89 163 89  117 215 117  103 189 103  115 210 115  119 219 119  122 222 122  121 222 121  124 228 124  125 228 125  115 210 115  106 194 106  110 201 110  123 224 123  126 230 126  126 231 126  125 228 125  119 218 119  116 212 116  120 220 120  123 226 123  117 214 117  112 205 112  110 201 110  105 191 105  99 181 99  93 171 93  65 120 65  61 112 61  48 88 48  26 47 26  76 139 76  91 167 91  67 122 67  91 91 111  91 91 112  92 92 113  93 93 114  93 93 114  94 94 115  95 95 116  95 95 117  96 96 118  96 96 118  97 97 119  98 98 120  98 98 120  99 99 121  99 99 122  100 100 122  100 100 123  101 101 124  101 101 124  102 102 125  102 102 125  103 103 126  103 103 126  104 104 127  104 104 127  104 104 128  105 105 128  
69 126 69  82 151 82  91 167 91  102 187 102  105 193 105  108 197 108  109 200 109  111 204 111  113 207 113  114 209 114  115 210 115  115 210 115  114 209 114  114 209 114  115 211 115  115 209 115  106 194 106  118 96 96  117 96 96  117 95 95  116 94 94  115 94 94  114 93 93  113 92 92  113 92 92  112 91 91  111 90 90  110 90 90  16 30 16  53 97 53  61 113 61  69 126 69  83 152 83  100 184 100  112 206 112  119 218 119  125 228 125  129 236 129  132 242 132  133 244 133  133 242 133  131 239 131  131 239 131  130 238 130  130 238 130  130 238 130  129 235 129  127 233 127  128 233 128  127 233 127  127 232 127  126 230 126  124 227 124  118 215 118  109 200 109  119 218 119  119 217 119  115 210 115  63 116 63  64 116 64  64 117 64  64 118 64  65 118 65  65 119 65  65 120 65  66 120 66  66 121 66  66 121 66  67 122 67  73 134 73  92 168 92  80 146 80  75 137 75  80 146 80  66 122 66  16 30 16  40 74 40  57 104 57  74 135 74  82 150 82  84 154 84  107 196 107  70 129 70  70 129 70  71 129 71  71 130 71  71 130 71  71 130 71  71 131 71  71 131 71  72 131 72  72 131 72  72 131 72  72 132 72  72 132 72  72 132 72  72 132 72  72 132 72  72 132 72  72 132 72  72 132 72  72 132 72  72 132 72  72 132 72  72 132 72  72 132 72  72 132 72  72 131 72  72 131 72  72 131 72  71 131 71  71 131 71  71 130 71  71 130 71  71 130 71  71 129 71  70 129 70  70 129 70  70 128 70  70 128 70  70 128 70  69 127 69  69 127 69  69 126 69  69 126 69  68 125 68  68 125 68  68 124 68  68 124 68  67 123 67  67 123 67  67 122 67  66 121 66  66 121 66  66 120 66  65 120 65  65 119 65  65 118 65  64 118 64  64 117 64  64 116 64  119 217 119  115 211 115  120 219 120  117 215 117  122 224 122  124 227 124  125 228 125  121 221 121  109 200 109  106 194 106  110 201 110  124 226 124  126 230 126  127 231 127  122 223 122  113 206 113  107 196 107  111 203 111  115 211 115  109 200 109  105 192 105  107 195 107  101 185 101  95 174 95  89 162 89  71 130 71  56 103 56  45 82 45  16 30 16  70 128 70  56 102 56  16 30 16  90 90 111  91 91 112  92 92 113  92 92 113  93 93 114  94 94 115  94 94 116  95 95 117  96 96 117  96 96 118  97 97 119  97 97 119  98 98 120  99 99 121  99 99 121  100 100 122  100 100 123  101 101 123  101 101 124  102 102 125  102 102 125  102 102 126  103 103 126  103 103 127  104 104 127  104 104 128  105 105 128  
46 85 46  64 117 64  76 140 76  86 158 86  105 192 105  109 199 109  110 202 110  112 205 112  113 207 113  114 209 114  113 207 113  113 206 113  112 204 112  111 204 111  113 206 113  115 211 115  116 212 116  107 195 107  117 96 96  116 95 95  116 94 94  115 94 94  114 93 93  113 92 92  112 92 92  111 91 91  111 90 90  110 89 89  109 89 89  44 80 44  53 98 53  62 113 62  68 125 68  77 141 77  98 179 98  110 201 110  117 213 117  121 222 121  123 225 123  125 228 125  126 231 126  127 232 127  128 234 128  131 240 131  131 239 131  130 238 130  128 235 128  126 231 126  126 230 126  126 231 126  126 230 126  125 228 125  125 228 125  122 224 122  116 213 116  110 201 110  119 218 119  120 220 120  103 188 103  63 116 63  64 117 64  64 117 64  64 118 64  65 119 65  65 119 65  65 120 65  66 121 66  66 121 66  66 122 66  80 146 80  96 176 96  77 140 77  82 149 82  86 157 86  82 151 82  63 115 63  42 78 42  64 118 64  75 137 75  85 155 85  89 162 89  107 195 107  94 172 94  70 129 70  70 129 70  71 129 71  71 130 71  71 130 71  71 130 71  71 131 71  71 131 71  71 131 71  72 131 72  72 131 72  72 131 72  72 132 72  72 132 72  72 132 72  72 132 72  72 132 72  72 132 72  72 132 72  72 132 72  72 132 72  72 132 72  72 131 72  72 131 72  72 131 72  71 131 71  71 131 71  71 131 71  71 130 71  71 130 71  71 130 71  71 129 71  70 129 70  70 129 70  70 128 70  70 128 70  70 128 70  69 127 69  69 127 69  69 126 69  69 126 69  68 125 68  68 125 68  68 124 68  68 124 68  67 123 67  67 123 67  67 122 67  66 122 66  66 121 66  66 121 66  65 120 65  65 119 65  65 119 65  64 118 64  64 117 64  64 117 64  112 205 112  116 213 116  119 218 119  118 216 118  123 225 123  122 223 122  124 226 124  125 229 125  117 213 117  101 186 101  106 193 106  114 209 114  125 228 125  126 230 126  127 231 127  119 217 119  111 203 111  100 182 100  111 204 111  106 194 106  115 211 115  120 219 120  117 214 117  114 208 114  108 197 108  86 158 86  75 138 75  52 95 52  39 72 39  40 73 40  45 82 45  16 30 16  89 89 110  90 90 111  91 91 111  92 92 112  92 92 113  93 93 114  94 94 115  94 94 116  95 95 116  96 96 117  96 96 118  97 97 119  97 97 119  98 98 120  98 98 121  99 99 121  99 99 122  100 100 123  100 100 123  101 101 124  101 101 124  102 102 125  102 102 125  103 103 126  103 103 127  104 104 127  104 104 128  104 104 128  
128 104 104  127 104 104  45 82 45  72 131 72  88 162 88  106 194 106  110 202 110  112 205 112  114 208 114  115 210 115  114 209 114  113 208 113  113 206 113  112 205 112  111 203 111  111 204 111  114 209 114  116 212 116  97 177 97  116 95 95  115 94 94  115 93 93  114 93 93  113 92 92  112 91 91  111 91 91  110 90 90  109 89 89  109 88 88  16 30 16  46 84 46  65 120 65  71 131 71  73 135 73  74 135 74  95 173 95  106 193 106  112 205 112  111 203 111  108 197 108  114 209 114  118 216 118  117 214 117  122 223 122  129 236 129  128 234 128  127 232 127  125 229 125  123 224 123  122 223 122  121 221 121  120 220 120  122 223 122  124 227 124  122 222 122  115 211 115  114 209 114  119 218 119  120 220 120  101 185 101  64 117 64  64 117 64  64 118 64  65 118 65  65 119 65  65 120 65  66 120 66  66 121 66  66 121 66  86 157 86  98 180 98  78 142 78  88 162 88  91 167 91  95 173 95  87 160 87  70 128 70  64 118 64  81 149 81  89 163 89  90 164 90  106 194 106  101 184 101  70 128 70  70 129 70  71 129 71  71 129 71  71 130 71  71 130 71  71 130 71  71 130 71  71 131 71  71 131 71  71 131 71  72 131 72  72 131 72  72 131 72  72 131 72  72 131 72  72 131 72  72 131 72  72 131 72  72 131 72  72 131 72  72 131 72  72 131 72  71 131 71  71 131 71  71 131 71  71 130 71  71 130 71  71 130 71  71 130 71  71 129 71  71 129 71  70 129 70  70 128 70  70 128 70  70 128 70  70 127 70  69 127 69  69 127 69  69 126 69  69 126 69  68 125 68  68 125 68  68 124 68  68 124 68  67 123 67  67 123 67  67 122 67  66 121 66  66 121 66  66 120 66  65 120 65  65 119 65  65 118 65  64 118 64  64 117 64  64 117 64  63 116 63  63 115 63  115 211 115  121 221 121  120 219 120  124 227 124  122 224 122  122 223 122  108 198 108  97 177 97  105 193 105  118 216 118  125 228 125  125 229 125  124 226 124  116 212 116  114 208 114  110 201 110  119 217 119  127 232 127  126 230 126  123 226 123  120 219 120  114 209 114  108 198 108  99 181 99  81 149 81  50 92 50  16 30 16  87 87 107  88 88 108  88 88 109  89 89 109  90 90 110  91 91 111  91 91 112  92 92 113  93 93 114  93 93 115  94 94 115  95 95 116  95 95 117  96 96 118  97 97 118  97 97 119  98 98 120  98 98 120  99 99 121  99 99 122  100 100 122  100 100 123  101 101 124  101 101 124  102 102 125  102 102 125  103 103 126  103 103 126  103 103 127  104 104 127  104 104 128  
128 104 104  127 104 104  23 42 23  66 121 66  80 147 80  98 180 98  111 204 111  113 206 113  114 209 114  115 211 115  115 210 115  114 209 114  114 208 114  113 207 113  112 205 112  110 201 110  110 202 110  113 208 113  115 211 115  116 95 95  115 94 94  114 93 93  114 93 93  113 92 92  112 91 91  111 91 91  110 90 90  109 89 89  108 88 88  107 88 88  106 87 87  37 67 37  70 128 70  79 145 79  73 134 73  72 132 72  89 163 89  99 181 99  99 181 99  101 184 101  104 191 104  105 193 105  108 198 108  110 201 110  121 222 121  121 220 121  119 218 119  117 215 117  115 210 115  115 210 115  117 215 117  116 213 116  116 213 116  120 220 120  125 229 125  121 222 121  115 210 115  117 215 117  119 218 119  120 220 120  100 182 100  64 117 64  64 118 64  65 118 65  65 119 65  65 119 65  66 120 66  66 121 66  82 151 82  92 168 92  91 167 91  77 141 77  90 164 90  89 163 89  104 191 104  108 198 108  88 162 88  96 176 96  99 182 99  97 178 97  106 194 106  106 194 106  103 189 103  70 128 70  70 129 70  70 129 70  70 129 70  71 129 71  71 130 71  71 130 71  71 130 71  71 130 71  71 130 71  71 131 71  71 131 71  71 131 71  72 131 72  72 131 72  72 131 72  72 131 72  72 131 72  72 131 72  72 131 72  72 131 72  71 131 71  71 131 71  71 131 71  71 130 71  71 130 71  71 130 71  71 130 71  71 130 71  71 129 71  70 129 70  70 129 70  70 129 70  70 128 70  70 128 70  70 127 70  69 127 69  69 127 69  69 126 69  69 126 69  68 125 68  68 125 68  68 124 68  68 124 68  67 123 67  67 123 67  67 122 67  66 122 66  66 121 66  66 121 66  66 120 66  65 119 65  65 119 65  65 118 65  64 118 64  64 117 64  64 116 64  63 116 63  63 115 63  116 213 116  123 225 123  119 218 119  123 224 123  124 226 124  119 217 119  98 179 98  96 176 96  103 189 103  118 215 118  125 228 125  125 229 125  119 217 119  110 201 110  115 211 115  126 230 126  126 231 126  126 230 126  125 229 125  123 226 123  120 220 120  116 211 116  110 201 110  99 181 99  85 156 85  34 63 34  16 30 16  87 87 106  88 88 107  88 88 108  89 89 109  90 90 110  91 91 111  91 91 112  92 92 113  93 93 114  93 93 114  94 94 115  95 95 116  95 95 117  96 96 117  96 96 118  97 97 119  98 98 120  98 98 120  99 99 121  99 99 122  100 100 122  100 100 123  101 101 123  101 101 124  102 102 125  102 102 125  102 102 126  103 103 126  103 103 127  104 104 127  104 104 128  
127 104 104  127 104 104  16 30 16  58 107 58  73 134 73  93 171 93  108 197 108  114 209 114  115 210 115  116 211 116  116 212 116  115 211 115  115 210 115  114 208 114  113 207 113  112 204 112  109 200 109  109 200 109  113 206 113  116 211 116  115 94 94  114 93 93  113 92 92  113 92 92  112 91 91  111 90 90  110 90 90  109 89 89  108 88 88  107 87 87  106 87 87  105 86 86  31 58 31  50 91 50  78 143 78  73 134 73  75 138 75  88 162 88  98 179 98  104 191 104  111 204 111  106 194 106  106 195 106  112 206 112  113 206 113  113 207 113  110 202 110  105 192 105  98 180 98  90 165 90  95 173 95  103 189 103  109 199 109  116 212 116  119 217 119  125 229 125  121 222 121  114 209 114  117 214 117  119 218 119  120 219 120  116 212 116  64 117 64  64 118 64  65 119 65  65 119 65  65 120 65  66 120 66  85 156 85  97 177 97  90 166 90  77 140 77  86 157 86  84 154 84  112 206 112  116 213 116  109 200 109  107 196 107  110 202 110  105 192 105  106 194 106  108 198 108  104 190 104  87 159 87  70 128 70  70 129 70  70 129 70  70 129 70  71 129 71  71 130 71  71 130 71  71 130 71  71 130 71  71 130 71  71 130 71  71 131 71  71 131 71  71 131 71  71 131 71  71 131 71  71 131 71  71 131 71  71 131 71  71 131 71  71 131 71  71 130 71  71 130 71  71 130 71  71 130 71  71 130 71  71 130 71  71 129 71  70 129 70  70 129 70  70 129 70  70 128 70  70 128 70  70 128 70  69 127 69  69 127 69  69 126 69  69 126 69  69 126 69  68 125 68  68 125 68  68 124 68  67 124 67  67 123 67  67 123 67  67 122 67  66 121 66  66 121 66  66 120 66  65 120 65  65 119 65  65 119 65  64 118 64  64 117 64  64 117 64  63 116 63  63 115 63  63 115 63  122 223 122  124 226 124  119 218 119  119 218 119  118 217 118  111 203 111  85 155 85  94 172 94  101 185 101  116 211 116  125 228 125  125 230 125  119 217 119  121 221 121  128 233 128  127 233 127  126 230 126  124 227 124  124 226 124  122 223 122  119 219 119  116 212 116  111 203 111  99 182 99  89 163 89  37 67 37  86 86 105  87 87 106  87 87 107  88 88 108  89 89 109  90 90 110  90 90 111  91 91 112  92 92 113  92 92 113  93 93 114  94 94 115  94 94 116  95 95 117  96 96 117  96 96 118  97 97 119  97 97 119  98 98 120  98 98 121  99 99 121  99 99 122  100 100 123  100 100 123  101 101 124  101 101 124  102 102 125  102 102 125  103 103 126  103 103 126  104 104 127  104 104 127  
127 104 104  127 103 103  126 103 103  48 88 48  65 120 65  80 146 80  96 176 96  112 204 112  115 211 115  116 212 116  116 212 116  116 212 116  115 211 115  115 210 115  114 209 114  113 206 113  111 203 111  109 199 109  108 198 108  112 206 112  116 212 116  114 93 93  113 92 92  112 92 92  111 91 91  111 90 90  110 89 89  109 89 89  108 88 88  107 87 87  106 86 86  105 86 86  104 85 85  16 30 16  28 51 28  68 124 68  72 131 72  85 156 85  97 178 97  106 195 106  114 209 114  112 206 112  103 189 103  105 192 105  107 195 107  108 198 108  110 201 110  106 194 106  101 184 101  98 179 98  101 185 101  103 189 103  107 196 107  109 199 109  111 202 111  113 208 113  123 226 123  122 222 122  117 214 117  117 214 117  119 218 119  119 217 119  117 213 117  64 118 64  65 118 65  65 119 65  65 120 65  66 120 66  86 158 86  98 179 98  89 164 89  76 139 76  81 147 81  110 202 110  118 216 118  121 222 121  120 219 120  113 207 113  110 201 110  105 192 105  105 193 105  108 198 108  103 189 103  95 174 95  70 128 70  70 128 70  70 129 70  70 129 70  70 129 70  71 129 71  71 129 71  71 130 71  71 130 71  71 130 71  71 130 71  71 130 71  71 130 71  71 130 71  71 130 71  71 130 71  71 130 71  71 130 71  71 130 71  71 130 71  71 130 71  71 130 71  71 130 71  71 130 71  71 130 71  71 129 71  71 129 71  70 129 70  70 129 70  70 129 70  70 128 70  70 128 70  70 128 70  69 127 69  69 127 69  69 126 69  69 126 69  69 126 69  68 125 68  68 125 68  68 124 68  68 124 68  67 123 67  67 123 67  67 122 67  66 122 66  66 121 66  66 121 66  66 120 66  65 120 65  65 119 65  65 118 65  64 118 64  64 117 64  64 116 64  63 116 63  63 115 63  116 212 116  118 215 118  119 217 119  119 217 119  114 209 114  116 212 116  104 189 104  86 157 86  91 166 91  106 194 106  117 214 117  124 226 124  125 229 125  124 227 124  127 233 127  127 233 127  126 231 126  124 227 124  123 225 123  122 223 122  121 220 121  118 216 118  115 210 115  108 198 108  102 187 102  88 161 88  64 117 64  86 86 105  86 86 106  87 87 107  88 88 108  89 89 109  89 89 110  90 90 111  91 91 111  92 92 112  92 92 113  93 93 114  94 94 115  94 94 116  95 95 116  95 95 117  96 96 118  97 97 118  97 97 119  98 98 120  98 98 121  99 99 121  99 99 122  100 100 122  100 100 123  101 101 124  101 101 124  102 102 125  102 102 125  103 103 126  103 103 126  103 103 127  104 104 127  
127 104 104  127 103 103  126 103 103  21 39 21  52 95 52  67 124 67  80 146 80  94 172 94  115 211 115  116 212 116  116 212 116  116 212 116  116 212 116  116 211 116  115 210 115  114 208 114  112 205 112  110 202 110  108 197 108  107 195 107  115 210 115  107 195 107  113 92 92  112 91 91  111 91 91  110 90 90  109 89 89  109 89 89  108 88 88  107 87 87  106 86 86  105 85 85  104 85 85  103 84 84  16 30 16  16 30 16  55 101 55  76 139 76  90 165 90  99 181 99  108 198 108  110 202 110  101 184 101  103 188 103  104 191 104  104 190 104  107 196 107  108 198 108  107 196 107  105 193 105  108 197 108  109 199 109  109 199 109  104 190 104  102 186 102  101 185 101  116 213 116  125 229 125  124 227 124  120 220 120  116 212 116  119 218 119  117 214 117  114 208 114  64 118 64  65 119 65  65 119 65  65 120 65  88 160 88  100 183 100  92 169 92  74 136 74  75 137 75  106 193 106  113 207 113  117 214 117  115 210 115  111 202 111  107 196 107  105 192 105  106 194 106  107 196 107  104 190 104  96 176 96  70 128 70  70 128 70  70 128 70  70 128 70  70 129 70  70 129 70  71 129 71  71 129 71  71 130 71  71 130 71  71 130 71  71 130 71  71 130 71  71 130 71  71 130 71  71 130 71  71 130 71  71 130 71  71 130 71  71 130 71  71 130 71  71 130 71  71 130 71  71 130 71  71 129 71  71 129 71  70 129 70  70 129 70  70 128 70  70 128 70  70 128 70  70 128 70  69 127 69  69 127 69  69 127 69  69 126 69  69 126 69  68 125 68  68 125 68  68 124 68  68 124 68  67 124 67  67 123 67  67 123 67  67 122 67  66 121 66  66 121 66  66 120 66  65 120 65  65 119 65  65 119 65  64 118 64  64 117 64  64 117 64  63 116 63  63 116 63  63 115 63  99 181 99  99 181 99  105 192 105  104 190 104  113 206 113  118 215 118  105 193 105  85 156 85  87 159 87  104 191 104  118 217 118  122 224 122  125 229 125  127 232 127  127 233 127  127 232 127  125 229 125  122 224 122  121 222 121  120 219 120  119 217 119  116 213 116  112 204 112  105 192 105  99 181 99  91 166 91  78 143 78  85 85 105  86 86 106  87 87 107  88 88 108  89 89 109  89 89 109  90 90 110  91 91 111  91 91 112  92 92 113  93 93 114  93 93 115  94 94 115  95 95 116  95 95 117  96 96 118  96 96 118  97 97 119  98 98 120  98 98 120  99 99 121  99 99 122  100 100 122  100 100 123  101 101 123  101 101 124  102 102 125  102 102 125  102 102 126  103 103 126  103 103 127  104 104 127  
127 104 104  126 103 103  126 103 103  16 30 16  26 49 26  54 99 54  69 126 69  80 147 80  92 169 92  116 213 116  116 212 116  116 212 116  116 212 116  116 212 116  115 211 115  114 209 114  113 207 113  111 203 111  109 199 109  106 194 106  113 207 113  116 212 116  94 172 94  112 91 91  111 91 91  110 90 90  109 89 89  108 88 88  107 88 88  106 87 87  105 86 86  104 85 85  103 84 84  102 84 84  101 83 83  16 30 16  21 39 21  56 102 56  78 143 78  89 163 89  100 183 100  106 194 106  98 179 98  100 183 100  98 179 98  101 185 101  105 193 105  110 201 110  112 205 112  111 204 111  112 206 112  113 207 113  113 207 113  111 204 111  100 182 100  98 180 98  105 192 105  122 223 122  125 229 125  124 228 124  121 222 121  117 215 117  114 208 114  115 211 115  113 206 113  65 118 65  65 119 65  65 120 65  91 167 91  104 191 104  96 175 96  75 137 75  75 138 75  99 182 99  105 193 105  107 195 107  104 190 104  106 193 106  104 191 104  105 192 105  107 195 107  106 193 106  104 189 104  98 179 98  69 127 69  70 128 70  70 128 70  70 128 70  70 128 70  70 129 70  70 129 70  70 129 70  71 129 71  71 129 71  71 129 71  71 130 71  71 130 71  71 130 71  71 130 71  71 130 71  71 130 71  71 130 71  71 130 71  71 130 71  71 130 71  71 129 71  71 129 71  71 129 71  70 129 70  70 129 70  70 129 70  70 128 70  70 128 70  70 128 70  70 128 70  69 127 69  69 127 69  69 127 69  69 126 69  69 126 69  68 125 68  68 125 68  68 125 68  68 124 68  68 124 68  67 123 67  67 123 67  67 122 67  66 122 66  66 121 66  66 121 66  66 120 66  65 120 65  65 119 65  65 118 65  64 118 64  64 117 64  64 117 64  63 116 63  63 115 63  90 165 90  94 172 94  99 182 99  109 200 109  114 208 114  124 227 124  115 211 115  98 179 98  83 152 83  82 150 82  101 185 101  110 201 110  120 219 120  126 231 126  127 233 127  127 232 127  126 230 126  123 225 123  122 222 122  121 221 121  119 218 119  117 213 117  113 207 113  107 197 107  101 186 101  95 173 95  87 160 87  79 145 79  85 85 104  86 86 105  87 87 106  88 88 107  88 88 108  89 89 109  90 90 110  91 91 111  91 91 112  92 92 113  93 93 114  93 93 114  94 94 115  95 95 116  95 95 117  96 96 117  96 96 118  97 97 119  97 97 119  98 98 120  99 99 121  99 99 121  100 100 122  100 100 123  100 100 123  101 101 124  101 101 124  102 102 125  102 102 125  103 103 126  103 103 126  104 104 127  
127 103 103  126 103 103  126 103 103  125 102 102  16 30 16  31 56 31  56 103 56  70 128 70  81 148 81  91 167 91  114 209 114  116 212 116  116 212 116  115 211 115  115 210 115  114 209 114  113 207 113  111 204 111  108 198 108  107 196 107  114 209 114  116 212 116  109 199 109  112 91 91  111 90 90  110 90 90  109 89 89  108 88 88  107 87 87  106 87 87  105 86 86  104 85 85  103 84 84  102 83 83  68 124 68  16 30 16  46 85 46  40 73 40  63 115 63  77 142 77  91 166 91  101 185 101  95 173 95  94 172 94  94 172 94  100 183 100  105 192 105  110 201 110  113 207 113  115 211 115  117 213 117  117 213 117  116 211 116  114 209 114  108 197 108  101 184 101  100 182 100  111 203 111  123 226 123  125 229 125  123 225 123  121 222 121  120 219 120  117 214 117  113 207 113  115 210 115  65 119 65  87 159 87  94 172 94  106 194 106  104 190 104  81 149 81  86 158 86  91 167 91  94 172 94  95 173 95  97 178 97  101 185 101  102 187 102  105 191 105  104 191 104  104 191 104  104 190 104  69 127 69  69 127 69  69 127 69  70 128 70  70 128 70  70 128 70  70 128 70  70 129 70  70 129 70  70 129 70  70 129 70  71 129 71  71 129 71  71 129 71  71 129 71  71 129 71  71 129 71  71 129 71  71 129 71  71 129 71  71 129 71  71 129 71  71 129 71  70 129 70  70 129 70  70 129 70  70 129 70  70 128 70  70 128 70  70 128 70  70 128 70  69 127 69  69 127 69  69 127 69  69 126 69  69 126 69  69 126 69  68 125 68  68 125 68  68 124 68  68 124 68  67 123 67  67 123 67  67 122 67  67 122 67  66 121 66  66 121 66  66 120 66  65 120 65  65 119 65  65 119 65  64 118 64  64 118 64  64 117 64  63 116 63  63 116 63  63 115 63  62 114 62  95 174 95  105 193 105  113 206 113  122 223 122  118 216 118  106 193 106  88 161 88  80 147 80  80 146 80  97 177 97  107 197 107  126 230 126  127 233 127  127 233 127  126 231 126  124 227 124  122 223 122  121 221 121  120 220 120  118 216 118  116 212 116  111 204 111  105 191 105  100 184 100  95 174 95  89 163 89  81 149 81  50 91 50  86 86 105  87 87 106  87 87 107  88 88 108  89 89 109  90 90 110  90 90 111  91 91 112  92 92 113  92 92 113  93 93 114  94 94 115  94 94 116  95 95 116  96 96 117  96 96 118  97 97 119  97 97 119  98 98 120  98 98 121  99 99 121  99 99 122  100 100 122  100 100 123  101 101 124  101 101 124  102 102 125  102 102 125  103 103 126  103 103 126  103 103 127  
127 103 103  126 103 103  126 102 102  125 102 102  124 102 102  16 30 16  31 57 31  57 104 57  71 129 71  82 150 82  92 168 92  108 197 108  115 211 115  114 209 114  114 208 114  113 207 113  112 204 112  109 199 109  107 196 107  111 203 111  117 213 117  115 210 115  106 194 106  82 151 82  111 90 90  110 90 90  109 89 89  108 88 88  107 87 87  106 86 86  105 86 86  104 85 85  103 84 84  102 83 83  71 130 71  77 141 77  16 30 16  16 30 16  43 79 43  63 116 63  79 145 79  90 165 90  87 159 87  80 147 80  90 165 90  99 180 99  105 192 105  109 199 109  112 205 112  115 209 115  116 211 116  115 211 115  116 211 116  115 211 115  114 209 114  104 190 104  99 182 99  104 191 104  118 216 118  123 226 123  122 224 122  122 223 122  123 225 123  119 218 119  111 202 111  110 201 110  94 172 94  80 147 80  89 162 89  97 177 97  98 179 98  92 169 92  83 152 83  85 155 85  86 157 86  88 161 88  93 170 93  98 179 98  100 183 100  101 186 101  102 187 102  106 193 106  105 192 105  69 126 69  69 127 69  69 127 69  69 127 69  70 128 70  70 128 70  70 128 70  70 128 70  70 128 70  70 129 70  70 129 70  70 129 70  70 129 70  70 129 70  70 129 70  71 129 71  71 129 71  71 129 71  71 129 71  70 129 70  70 129 70  70 129 70  70 129 70  70 129 70  70 129 70  70 128 70  70 128 70  70 128 70  70 128 70  70 128 70  69 127 69  69 127 69  69 127 69  69 126 69  69 126 69  69 126 69  68 125 68  68 125 68  68 124 68  68 124 68  67 124 67  67 123 67  67 123 67  67 122 67  66 122 66  66 121 66  66 121 66  66 120 66  65 120 65  65 119 65  65 118 65  64 118 64  64 117 64  64 117 64  63 116 63  63 115 63  63 115 63  62 114 62  97 177 97  109 200 109  116 213 116  122 224 122  109 200 109  96 175 96  62 114 62  52 94 52  16 30 16  67 67 82  125 228 125  126 230 126  127 232 127  126 231 126  125 228 125  123 225 123  121 221 121  120 220 120  120 219 120  118 215 118  115 211 115  110 202 110  103 189 103  94 172 94  96 175 96  91 166 91  83 153 83  65 119 65  86 86 105  86 86 106  87 87 107  88 88 108  89 89 109  90 90 110  90 90 111  91 91 111  92 92 112  92 92 113  93 93 114  94 94 115  94 94 115  95 95 116  95 95 117  96 96 118  97 97 118  97 97 119  98 98 120  98 98 120  99 99 121  99 99 122  100 100 122  100 100 123  101 101 123  101 101 124  102 102 124  102 102 125  102 102 126  103 103 126  103 103 127  
126 103 103  126 103 103  125 102 102  125 102 102  124 101 101  124 101 101  16 30 16  33 61 33  56 103 56  70 128 70  82 151 82  93 170 93  105 191 105  109 200 109  114 208 114  113 206 113  113 207 113  113 206 113  112 205 112  116 213 116  115 211 115  112 206 112  114 208 114  109 199 109  110 90 90  110 89 89  109 89 89  108 88 88  107 87 87  106 86 86  105 86 86  104 85 85  103 84 84  102 83 83  74 136 74  80 146 80  84 154 84  82 150 82  72 133 72  46 84 46  60 109 60  64 117 64  69 126 69  73 134 73  82 151 82  93 170 93  102 186 102  106 193 106  110 202 110  112 204 112  112 205 112  111 203 111  111 203 111  113 206 113  112 205 112  103 189 103  103 189 103  104 190 104  108 197 108  119 217 119  121 221 121  122 223 122  124 226 124  124 228 124  117 213 117  101 184 101  90 164 90  75 137 75  79 145 79  88 161 88  85 156 85  79 145 79  79 145 79  77 142 77  80 146 80  86 158 86  91 167 91  96 176 96  99 181 99  100 183 100  104 190 104  106 195 106  105 193 105  69 126 69  69 126 69  69 127 69  69 127 69  69 127 69  70 127 70  70 128 70  70 128 70  70 128 70  70 128 70  70 128 70  70 129 70  70 129 70  70 129 70  70 129 70  70 129 70  70 129 70  70 129 70  70 129 70  70 129 70  70 129 70  70 129 70  70 129 70  70 128 70  70 128 70  70 128 70  70 128 70  70 128 70  70 127 70  69 127 69  69 127 69  69 127 69  69 126 69  69 126 69  69 126 69  68 125 68  68 125 68  68 125 68  68 124 68  68 124 68  67 123 67  67 123 67  67 122 67  67 122 67  66 121 66  66 121 66  66 120 66  65 120 65  65 119 65  65 119 65  64 118 64  64 118 64  64 117 64  64 116 64  63 116 63  63 115 63  63 115 63  62 114 62  62 113 62  112 205 112  125 228 125  120 220 120  102 187 102  73 133 73  22 40 22  16 30 16  59 108 59  124 226 124  122 223 122  127 232 127  126 231 126  125 229 125  124 226 124  122 223 122  120 219 120  119 219 119  119 218 119  117 214 117  114 209 114  109 199 109  102 186 102  91 167 91  90 165 90  89 164 89  86 157 86  74 135 74  86 86 105  86 86 106  87 87 107  88 88 108  89 89 109  89 89 110  90 90 110  91 91 111  91 91 112  92 92 113  93 93 114  93 93 115  94 94 115  95 95 116  95 95 117  96 96 117  96 96 118  97 97 119  97 97 120  98 98 120  99 99 121  99 99 121  100 100 122  100 100 123  100 100 123  101 101 124  101 101 124  102 102 125  102 102 125  103 103 126  103 103 126  
126 103 103  126 103 103  125 102 102  125 102 102  124 101 101  124 101 101  123 100 100  16 30 16  32 58 32  55 102 55  69 126 69  83 152 83  93 171 93  98 180 98  102 187 102  106 193 106  108 198 108  111 203 111  114 209 114  114 209 114  111 202 111  111 203 111  114 209 114  114 208 114  114 209 114  105 192 105  108 88 88  108 88 88  107 87 87  106 86 86  105 85 85  104 85 85  103 84 84  79 145 79  77 141 77  81 149 81  79 145 79  76 139 76  71 130 71  67 123 67  62 114 62  38 70 38  52 95 52  60 110 60  69 127 69  86 157 86  98 179 98  104 190 104  106 194 106  107 196 107  107 196 107  107 196 107  107 195 107  109 200 109  110 201 110  106 195 106  107 196 107  108 197 108  109 200 109  112 206 112  119 218 119  121 222 121  123 225 123  120 220 120  106 193 106  97 178 97  85 156 85  76 139 76  63 116 63  75 137 75  77 142 77  76 139 76  74 136 74  69 127 69  79 144 79  85 156 85  90 165 90  95 173 95  98 180 98  101 184 101  106 195 106  109 200 109  118 215 118  69 126 69  69 126 69  69 126 69  69 127 69  69 127 69  69 127 69  70 127 70  70 128 70  70 128 70  70 128 70  70 128 70  70 128 70  70 128 70  70 128 70  70 128 70  70 129 70  70 129 70  70 129 70  70 129 70  70 128 70  70 128 70  70 128 70  70 128 70  70 128 70  70 128 70  70 128 70  70 128 70  70 127 70  69 127 69  69 127 69  69 127 69  69 126 69  69 126 69  69 126 69  68 125 68  68 125 68  68 125 68  68 124 68  68 124 68  67 123 67  67 123 67  67 122 67  67 122 67  66 122 66  66 121 66  66 121 66  66 120 66  65 119 65  65 119 65  65 118 65  64 118 64  64 117 64  64 117 64  63 116 63  131 240 131  63 115 63  62 114 62  62 114 62  62 113 62  121 221 121  125 229 125  112 205 112  85 156 85  16 30 16  38 70 38  16 30 16  125 229 125  115 210 115  125 229 125  126 230 126  125 228 125  125 228 125  123 225 123  120 219 120  119 218 119  119 217 119  118 216 118  116 213 116  113 207 113  108 197 108  98 179 98  89 163 89  89 163 89  88 161 88  85 155 85  80 147 80  85 85 105  86 86 106  87 87 107  88 88 108  88 88 108  89 89 109  90 90 110  91 91 111  91 91 112  92 92 113  93 93 114  93 93 114  94 94 115  94 94 116  95 95 117  96 96 117  96 96 118  97 97 119  97 97 119  98 98 120  98 98 121  99 99 121  99 99 122  100 100 122  100 100 123  101 101 124  101 101 124  102 102 125  102 102 125  103 103 126  103 103 126  
126 103 103  125 102 102  125 102 102  124 102 102  124 101 101  123 101 101  123 100 100  122 100 100  122 99 99  28 52 28  54 100 54  69 126 69  80 146 80  86 157 86  91 166 91  95 173 95  98 179 98  102 187 102  108 197 108  108 198 108  103 188 103  109 199 109  113 207 113  116 212 116  115 210 115  111 204 111  107 196 107  106 193 106  106 194 106  105 193 105  104 190 104  101 186 101  94 172 94  79 145 79  78 143 78  78 144 78  78 142 78  77 140 77  79 144 79  74 135 74  69 126 69  63 116 63  58 106 58  27 50 27  54 98 54  73 134 73  91 166 91  100 182 100  101 184 101  102 186 102  102 187 102  102 187 102  104 191 104  106 195 106  109 199 109  111 203 111  111 204 111  112 205 112  113 206 113  114 209 114  117 214 117  120 220 120  121 222 121  115 211 115  103 189 103  94 171 94  87 159 87  85 155 85  71 129 71  56 102 56  50 92 50  64 117 64  62 114 62  67 123 67  78 142 78  84 154 84  90 165 90  95 174 95  99 182 99  105 193 105  115 211 115  123 226 123  68 125 68  68 125 68  69 126 69  69 126 69  69 126 69  69 127 69  69 127 69  69 127 69  69 127 69  70 127 70  70 128 70  70 128 70  70 128 70  70 128 70  70 128 70  70 128 70  70 128 70  70 128 70  70 128 70  70 128 70  70 128 70  70 128 70  70 128 70  70 128 70  70 128 70  70 128 70  70 127 70  69 127 69  69 127 69  69 127 69  69 127 69  69 126 69  69 126 69  69 126 69  68 125 68  68 125 68  68 125 68  68 124 68  68 124 68  67 123 67  67 123 67  67 123 67  67 122 67  66 122 66  66 121 66  66 121 66  66 120 66  65 120 65  65 119 65  65 119 65  64 118 64  64 118 64  64 117 64  64 116 64  63 116 63  121 221 121  124 227 124  62 114 62  62 113 62  118 215 118  124 227 124  117 214 117  96 176 96  16 30 16  82 150 82  62 114 62  126 230 126  109 199 109  116 212 116  127 232 127  124 227 124  125 229 125  124 226 124  121 222 121  119 218 119  118 217 118  118 216 118  118 215 118  116 212 116  112 205 112  107 195 107  97 178 97  90 164 90  88 161 88  90 166 90  85 156 85  81 149 81  48 89 48  86 86 105  87 87 106  88 88 107  88 88 108  89 89 109  90 90 110  90 90 111  91 91 112  92 92 113  92 92 113  93 93 114  94 94 115  94 94 116  95 95 116  96 96 117  96 96 118  97 97 118  97 97 119  98 98 120  98 98 120  99 99 121  99 99 122  100 100 122  100 100 123  101 101 123  101 101 124  102 102 124  102 102 125  102 102 125  103 103 126  
126 103 103  125 102 102  125 102 102  124 101 101  124 101 101  123 100 100  123 100 100  122 100 100  121 99 99  121 99 99  21 38 21  53 97 53  62 113 62  71 130 71  79 144 79  86 157 86  91 166 91  95 173 95  98 179 98  100 184 100  99 181 99  106 194 106  111 204 111  113 206 113  111 202 111  107 196 107  106 194 106  106 193 106  105 193 105  105 192 105  104 191 104  102 187 102  93 170 93  80 146 80  75 138 75  76 138 76  78 143 78  81 148 81  85 155 85  83 152 83  78 143 78  73 133 73  71 131 71  69 126 69  72 132 72  82 149 82  86 157 86  92 169 92  98 179 98  99 181 99  100 183 100  101 184 101  102 187 102  104 190 104  107 196 107  110 201 110  112 205 112  114 209 114  116 212 116  117 213 117  118 216 118  118 216 118  117 215 117  108 198 108  100 183 100  95 175 95  94 171 94  92 168 92  80 146 80  66 120 66  16 30 16  16 30 16  42 77 42  62 114 62  74 136 74  84 154 84  90 165 90  98 178 98  108 197 108  121 221 121  68 124 68  68 124 68  68 125 68  68 125 68  68 125 68  69 126 69  69 126 69  69 126 69  69 126 69  69 127 69  69 127 69  69 127 69  69 127 69  70 127 70  70 128 70  70 128 70  70 128 70  70 128 70  70 128 70  70 128 70  70 128 70  70 128 70  70 128 70  70 128 70  70 128 70  70 128 70  70 127 70  69 127 69  69 127 69  69 127 69  69 127 69  69 126 69  69 126 69  69 126 69  69 126 69  68 125 68  68 125 68  68 125 68  68 124 68  68 124 68  67 124 67  67 123 67  67 123 67  67 122 67  67 122 67  66 121 66  66 121 66  66 120 66  65 120 65  65 119 65  65 119 65  65 118 65  64 118 64  64 117 64  64 117 64  90 165 90  112 206 112  114 208 114  112 205 112  118 216 118  111 204 111  124 226 124  119 217 119  106 194 106  37 68 37  60 110 60  60 109 60  126 230 126  101 185 101  109 199 109  126 230 126  123 225 123  122 223 122  124 227 124  123 224 123  119 217 119  118 216 118  118 215 118  117 214 117  117 214 117  115 210 115  111 203 111  104 191 104  93 171 93  90 165 90  87 159 87  90 165 90  86 157 86  82 150 82  53 97 53  86 86 105  87 87 106  87 87 107  88 88 108  89 89 109  90 90 110  90 90 111  91 91 112  92 92 112  92 92 113  93 93 114  94 94 115  94 94 115  95 95 116  95 95 117  96 96 118  96 96 118  97 97 119  98 98 120  98 98 120  99 99 121  99 99 121  100 100 122  100 100 123  100 100 123  101 101 124  101 101 124  102 102 125  102 102 125  103 103 126  
126 102 102  125 102 102  125 102 102  124 101 101  124 101 101  123 100 100  122 100 100  122 99 99  121 99 99  121 98 98  120 98 98  16 30 16  36 65 36  56 102 56  66 121 66  75 137 75  82 150 82  86 158 86  89 164 89  92 168 92  96 176 96  101 185 101  107 196 107  109 199 109  106 194 106  105 192 105  104 191 104  103 189 103  103 189 103  103 188 103  101 186 101  99 181 99  90 166 90  78 142 78  71 129 71  82 151 82  85 156 85  87 160 87  90 165 90  95 174 95  92 169 92  86 157 86  82 151 82  81 148 81  81 148 81  85 156 85  89 163 89  92 169 92  96 176 96  98 179 98  100 184 100  103 188 103  108 198 108  124 226 124  124 228 124  115 210 115  116 213 116  118 215 118  118 217 118  117 214 117  114 208 114  113 206 113  112 204 112  104 190 104  101 185 101  100 183 100  98 179 98  95 173 95  93 169 93  83 152 83  66 121 66  43 78 43  58 106 58  66 121 66  78 143 78  89 163 89  101 186 101  115 210 115  67 123 67  67 123 67  68 124 68  68 124 68  68 124 68  68 125 68  68 125 68  68 125 68  69 126 69  69 126 69  69 126 69  69 126 69  69 127 69  69 127 69  69 127 69  69 127 69  69 127 69  70 127 70  70 127 70  70 127 70  70 128 70  70 128 70  70 128 70  70 128 70  70 127 70  70 127 70  70 127 70  69 127 69  69 127 69  69 127 69  69 127 69  69 127 69  69 126 69  69 126 69  69 126 69  69 126 69  68 125 68  68 125 68  68 125 68  68 124 68  68 124 68  68 124 68  67 123 67  67 123 67  67 122 67  67 122 67  66 122 66  66 121 66  66 121 66  66 120 66  65 120 65  65 119 65  65 119 65  64 118 64  64 117 64  64 117 64  64 116 64  100 183 100  95 173 95  94 172 94  99 182 99  131 239 131  111 203 111  110 201 110  110 201 110  53 96 53  60 110 60  60 110 60  125 230 125  106 193 106  97 177 97  118 215 118  126 231 126  120 220 120  124 226 124  123 226 123  121 221 121  118 216 118  117 215 117  117 214 117  116 213 116  116 212 116  114 209 114  110 202 110  101 185 101  93 170 93  90 165 90  86 157 86  90 164 90  86 158 86  83 152 83  50 92 50  86 86 105  86 86 106  87 87 107  88 88 108  89 89 109  89 89 110  90 90 110  91 91 111  91 91 112  92 92 113  93 93 114  93 93 114  94 94 115  95 95 116  95 95 117  96 96 117  96 96 118  97 97 119  97 97 119  98 98 120  98 98 121  99 99 121  99 99 122  100 100 122  100 100 123  101 101 124  101 101 124  102 102 125  102 102 125  102 102 126  
125 102 102  125 102 102  124 101 101  124 101 101  123 101 101  123 100 100  122 100 100  122 99 99  121 99 99  120 98 98  120 98 98  119 97 97  119 97 97  16 30 16  39 71 39  59 109 59  69 127 69  75 137 75  79 144 79  83 152 83  90 164 90  95 174 95  98 179 98  103 188 103  102 187 102  102 187 102  101 186 101  100 184 100  100 183 100  99 181 99  96 176 96  93 171 93  88 160 88  74 135 74  65 119 65  79 145 79  90 165 90  93 170 93  95 173 95  99 182 99  103 189 103  100 183 100  95 174 95  91 166 91  90 164 90  93 171 93  96 176 96  99 181 99  101 184 101  103 189 103  108 198 108  115 211 115  120 219 120  122 224 122  117 214 117  118 217 118  119 219 119  119 218 119  118 215 118  115 211 115  110 201 110  105 193 105  104 189 104  101 185 101  98 180 98  95 174 95  91 167 91  88 161 88  92 168 92  88 162 88  75 137 75  72 132 72  82 151 82  91 167 91  103 189 103  115 210 115  125 229 125  67 122 67  67 123 67  67 123 67  67 123 67  68 124 68  68 124 68  68 124 68  68 125 68  68 125 68  68 125 68  69 126 69  69 126 69  69 126 69  69 126 69  69 126 69  69 127 69  69 127 69  69 127 69  69 127 69  69 127 69  69 127 69  69 127 69  69 127 69  69 127 69  69 127 69  69 127 69  69 127 69  69 127 69  69 127 69  69 127 69  69 127 69  69 126 69  69 126 69  69 126 69  69 126 69  69 126 69  68 125 68  68 125 68  68 125 68  68 124 68  68 124 68  68 124 68  67 123 67  67 123 67  67 123 67  67 122 67  66 122 66  66 121 66  66 121 66  66 120 66  65 120 65  65 119 65  65 119 65  65 118 65  64 118 64  64 117 64  64 117 64  63 116 63  63 115 63  92 168 92  80 147 80  85 156 85  104 191 104  87 159 87  70 129 70  61 111 61  60 111 60  60 110 60  125 229 125  116 212 116  92 169 92  108 197 108  127 231 127  119 218 119  118 216 118  124 227 124  122 224 122  118 215 118  117 214 117  117 213 117  116 212 116  116 211 116  115 211 115  113 207 113  109 200 109  99 181 99  93 171 93  89 164 89  84 155 84  89 162 89  89 163 89  84 153 84  42 77 42  85 85 105  86 86 106  87 87 107  88 88 108  89 89 109  89 89 109  90 90 110  91 91 111  91 91 112  92 92 113  93 93 114  93 93 114  94 94 115  94 94 116  95 95 116  96 96 117  96 96 118  97 97 119  97 97 119  98 98 120  98 98 120  99 99 121  99 99 122  100 100 122  100 100 123  101 101 123  101 101 124  101 101 124  102 102 125  102 102 125  
125 102 102  125 102 102  124 101 101  124 101 101  123 100 100  123 100 100  122 100 100  121 99 99  121 99 99  120 98 98  120 98 98  119 97 97  118 97 97  118 96 96  16 30 16  30 55 30  39 71 39  45 83 45  54 98 54  68 124 68  78 142 78  84 154 84  89 163 89  92 168 92  98 179 98  100 184 100  99 181 99  98 178 98  96 176 96  95 175 95  94 173 94  91 166 91  84 154 84  70 128 70  58 107 58  75 137 75  87 159 87  96 175 96  99 182 99  103 189 103  107 196 107  109 200 109  106 195 106  102 187 102  97 178 97  99 181 99  102 186 102  105 192 105  104 191 104  105 192 105  108 198 108  113 206 113  116 212 116  118 216 118  120 219 120  120 220 120  120 219 120  118 216 118  116 212 116  115 211 115  113 207 113  102 187 102  97 178 97  95 174 95  91 167 91  87 159 87  83 153 83  80 146 80  84 153 84  86 158 86  85 155 85  85 155 85  90 165 90  105 193 105  116 213 116  118 216 118  125 229 125  66 122 66  67 122 67  67 123 67  67 123 67  67 123 67  68 124 68  68 124 68  68 124 68  68 125 68  68 125 68  68 125 68  69 126 69  69 126 69  69 126 69  69 126 69  69 126 69  69 126 69  69 127 69  69 127 69  69 127 69  69 127 69  69 127 69  69 127 69  69 127 69  69 127 69  69 127 69  69 127 69  69 127 69  69 127 69  69 126 69  69 126 69  69 126 69  69 126 69  69 126 69  69 126 69  68 125 68  68 125 68  68 125 68  68 124 68  68 124 68  68 124 68  67 123 67  67 123 67  67 123 67  67 122 67  66 122 66  66 121 66  66 121 66  66 120 66  65 120 65  65 119 65  65 119 65  65 118 65  64 118 64  64 117 64  64 117 64  63 116 63  63 116 63  63 115 63  63 115 63  93 170 93  87 158 87  100 182 100  55 101 55  61 112 61  61 111 61  60 110 60  125 229 125  124 228 124  98 179 98  97 177 97  120 220 120  125 229 125  116 212 116  120 219 120  123 225 123  121 221 121  117 214 117  116 213 116  116 212 116  115 211 115  115 210 115  114 209 114  113 206 113  107 196 107  98 179 98  93 170 93  89 162 89  83 152 83  88 161 88  92 168 92  84 154 84  32 59 32  85 85 105  86 86 106  87 87 106  88 88 107  88 88 108  89 89 109  90 90 110  90 90 111  91 91 112  92 92 113  92 92 113  93 93 114  94 94 115  94 94 116  95 95 116  95 95 117  96 96 118  97 97 118  97 97 119  98 98 120  98 98 120  99 99 121  99 99 121  100 100 122  100 100 123  100 100 123  101 101 124  101 101 124  102 102 125  102 102 125  
125 102 102  125 102 102  124 101 101  123 101 101  123 100 100  122 100 100  122 99 99  121 99 99  121 98 98  120 98 98  119 97 97  119 97 97  118 96 96  117 96 96  117 95 95  116 95 95  115 94 94  115 93 93  25 47 25  41 76 41  58 107 58  70 128 70  76 139 76  82 150 82  87 160 87  93 169 93  99 180 99  98 179 98  96 176 96  95 174 95  91 166 91  86 157 86  81 148 81  68 125 68  51 94 51  69 126 69  82 150 82  92 168 92  100 183 100  106 193 106  110 201 110  113 206 113  114 208 114  111 203 111  107 197 107  107 195 107  106 193 106  106 194 106  103 188 103  102 186 102  108 198 108  111 204 111  114 208 114  116 212 116  117 214 117  117 215 117  117 213 117  115 211 115  116 212 116  117 214 117  117 214 117  107 196 107  91 167 91  86 158 86  82 149 82  78 142 78  71 130 71  71 130 71  69 127 69  65 120 65  78 143 78  91 167 91  100 184 100  109 200 109  120 220 120  126 231 126  133 244 133  66 121 66  67 122 67  67 122 67  67 123 67  67 123 67  67 123 67  68 124 68  68 124 68  68 124 68  68 125 68  68 125 68  68 125 68  68 125 68  69 126 69  69 126 69  69 126 69  69 126 69  69 126 69  69 126 69  69 126 69  69 127 69  69 127 69  69 127 69  69 127 69  69 127 69  69 127 69  69 126 69  69 126 69  69 126 69  69 126 69  69 126 69  69 126 69  69 126 69  68 125 68  68 125 68  68 125 68  68 125 68  68 124 68  68 124 68  68 124 68  67 123 67  67 123 67  67 123 67  67 122 67  67 122 67  66 121 66  66 121 66  66 121 66  66 120 66  65 120 65  65 119 65  65 119 65  64 118 64  64 118 64  64 117 64  64 117 64  63 116 63  63 115 63  63 115 63  62 114 62  62 114 62  62 113 62  61 113 61  61 112 61  61 111 61  60 111 60  60 110 60  126 231 126  104 191 104  94 172 94  109 200 109  127 233 127  115 211 115  114 208 114  123 226 123  122 223 122  120 219 120  116 213 116  116 212 116  115 211 115  115 210 115  114 209 114  113 207 113  112 204 112  103 189 103  97 177 97  92 169 92  88 160 88  82 150 82  87 159 87  94 171 94  85 155 85  18 34 18  85 85 104  86 86 105  87 87 106  87 87 107  88 88 108  89 89 109  90 90 110  90 90 111  91 91 111  92 92 112  92 92 113  93 93 114  93 93 115  94 94 115  95 95 116  95 95 117  96 96 117  96 96 118  97 97 119  97 97 119  98 98 120  98 98 121  99 99 121  99 99 122  100 100 122  100 100 123  101 101 123  101 101 124  102 102 125  102 102 125  
125 102 102  124 101 101  124 101 101  123 101 101  123 100 100  122 100 100  122 99 99  121 99 99  120 98 98  120 98 98  119 97 97  119 97 97  118 96 96  117 96 96  117 95 95  116 95 95  115 94 94  114 93 93  114 93 93  113 92 92  16 30 16  34 63 34  59 109 59  68 124 68  75 138 75  82 149 82  87 159 87  93 171 93  95 175 95  90 165 90  86 157 86  82 151 82  78 144 78  66 122 66  43 79 43  62 114 62  76 140 76  87 159 87  96 175 96  102 186 102  107 195 107  111 203 111  114 208 114  111 204 111  107 195 107  103 188 103  102 186 102  99 180 99  94 172 94  101 185 101  106 194 106  109 200 109  112 204 112  113 207 113  114 208 114  113 207 113  113 206 113  114 209 114  115 210 115  115 211 115  117 214 117  117 213 117  102 186 102  78 143 78  69 126 69  60 111 60  61 111 61  61 113 61  66 121 66  73 134 73  80 147 80  89 162 89  100 183 100  110 201 110  118 215 118  125 228 125  66 121 66  66 121 66  66 122 66  67 122 67  67 122 67  67 123 67  67 123 67  67 123 67  68 124 68  68 124 68  68 124 68  68 125 68  68 125 68  68 125 68  68 125 68  69 125 69  69 126 69  69 126 69  69 126 69  69 126 69  69 126 69  69 126 69  69 126 69  69 126 69  69 126 69  69 126 69  69 126 69  69 126 69  69 126 69  69 126 69  69 126 69  69 126 69  69 125 69  68 125 68  68 125 68  68 125 68  68 125 68  68 124 68  68 124 68  68 124 68  67 123 67  67 123 67  67 123 67  67 122 67  67 122 67  66 122 66  66 121 66  66 121 66  66 120 66  65 120 65  65 119 65  65 119 65  65 118 65  64 118 64  64 117 64  64 117 64  63 116 63  63 116 63  63 115 63  63 115 63  62 114 62  62 113 62  62 113 62  61 112 61  61 112 61  61 111 61  60 110 60  124 227 124  116 212 116  93 170 93  93 171 93  123 225 123  126 231 126  110 201 110  115 210 115  123 224 123  121 222 121  119 218 119  116 212 116  115 210 115  114 209 114  114 208 114  113 207 113  111 204 111  111 203 111  102 187 102  96 175 96  92 169 92  88 161 88  84 154 84  86 158 86  94 171 94  87 159 87  16 30 16  85 85 104  86 86 105  86 86 106  87 87 107  88 88 108  89 89 109  89 89 110  90 90 110  91 91 111  91 91 112  92 92 113  93 93 114  93 93 114  94 94 115  95 95 116  95 95 117  96 96 117  96 96 118  97 97 119  97 97 119  98 98 120  98 98 120  99 99 121  99 99 122  100 100 122  100 100 123  101 101 123  101 101 124  101 101 124  102 102 125  
125 102 102  124 101 101  124 101 101  123 100 100  123 100 100  122 99 99  121 99 99  121 99 99  120 98 98  120 98 98  119 97 97  118 97 97  118 96 96  117 95 95  116 95 95  116 94 94  115 94 94  114 93 93  113 93 93  113 92 92  112 91 91  111 91 91  16 30 16  43 78 43  59 109 59  69 127 69  79 144 79  86 157 86  86 158 86  84 154 84  82 149 82  79 144 79  74 136 74  63 116 63  42 77 42  58 107 58  71 130 71  81 149 81  90 164 90  97 177 97  102 187 102  107 195 107  110 202 110  108 198 108  103 188 103  100 184 100  95 174 95  89 163 89  91 167 91  97 178 97  102 187 102  106 194 106  108 198 108  110 200 110  110 200 110  109 200 109  111 204 111  113 206 113  114 208 114  115 211 115  118 216 118  119 218 119  115 211 115  99 181 99  65 120 65  49 89 49  49 90 49  56 102 56  71 129 71  84 154 84  91 167 91  103 188 103  117 215 117  131 240 131  65 120 65  65 120 65  66 120 66  66 121 66  66 121 66  66 122 66  67 122 67  67 122 67  67 123 67  67 123 67  67 123 67  68 124 68  68 124 68  68 124 68  68 125 68  68 125 68  68 125 68  68 125 68  68 125 68  69 125 69  69 126 69  69 126 69  69 126 69  69 126 69  69 126 69  69 126 69  69 126 69  69 126 69  69 126 69  69 126 69  69 126 69  69 126 69  69 125 69  68 125 68  68 125 68  68 125 68  68 125 68  68 125 68  68 124 68  68 124 68  68 124 68  67 123 67  67 123 67  67 123 67  67 122 67  67 122 67  66 122 66  66 121 66  66 121 66  66 120 66  65 120 65  65 120 65  65 119 65  65 119 65  64 118 64  64 118 64  64 117 64  64 116 64  63 116 63  63 115 63  63 115 63  62 114 62  62 114 62  62 113 62  61 113 61  61 112 61  61 111 61  60 111 60  60 110 60  126 231 126  96 176 96  89 163 89  111 203 111  127 233 127  113 207 113  108 198 108  120 219 120  122 222 122  120 220 120  118 216 118  115 210 115  114 209 114  114 208 114  113 207 113  110 202 110  111 203 111  110 201 110  101 185 101  96 176 96  93 170 93  89 164 89  80 146 80  85 156 85  93 170 93  89 163 89  84 84 103  85 85 104  86 86 105  86 86 106  87 87 107  88 88 108  89 89 109  89 89 109  90 90 110  91 91 111  91 91 112  92 92 113  93 93 113  93 93 114  94 94 115  94 94 116  95 95 116  95 95 117  96 96 118  97 97 118  97 97 119  98 98 120  98 98 120  99 99 121  99 99 121  99 99 122  100 100 123  100 100 123  101 101 124  101 101 124  102 102 125  
124 101 101  124 101 101  123 101 101  123 100 100  122 100 100  122 99 99  121 99 99  121 98 98  120 98 98  119 97 97  119 97 97  118 96 96  117 96 96  117 95 95  116 95 95  115 94 94  115 94 94  114 93 93  113 92 92  112 92 92  112 91 91  111 90 90  110 90 90  109 89 89  16 30 16  37 69 37  54 99 54  67 124 67  76 140 76  79 145 79  76 138 76  72 132 72  68 125 68  59 108 59  37 67 37  46 85 46  67 123 67  76 139 76  83 153 83  90 165 90  96 176 96  101 186 101  105 193 105  104 190 104  100 183 100  100 183 100  87 158 87  79 145 79  87 159 87  93 170 93  98 179 98  101 185 101  103 189 103  105 192 105  105 193 105  106 194 106  110 201 110  112 205 112  113 208 113  116 213 116  119 218 119  121 221 121  119 217 119  112 205 112  95 174 95  54 99 54  47 86 47  63 115 63  75 138 75  93 170 93  105 192 105  115 210 115  124 227 124  65 119 65  65 119 65  65 120 65  66 120 66  66 121 66  66 121 66  66 121 66  66 122 66  67 122 67  67 122 67  67 123 67  67 123 67  67 123 67  68 124 68  68 124 68  68 124 68  68 124 68  68 125 68  68 125 68  68 125 68  68 125 68  68 125 68  68 125 68  68 125 68  69 126 69  69 126 69  69 126 69  69 126 69  69 126 69  69 126 69  68 125 68  68 125 68  68 125 68  68 125 68  68 125 68  68 125 68  68 125 68  68 124 68  68 124 68  68 124 68  68 124 68  67 123 67  67 123 67  67 123 67  67 122 67  67 122 67  66 122 66  66 121 66  66 121 66  66 121 66  66 120 66  65 120 65  65 119 65  65 119 65  65 118 65  64 118 64  64 117 64  64 117 64  63 116 63  63 116 63  63 115 63  63 115 63  62 114 62  62 113 62  62 113 62  61 112 61  61 112 61  61 111 61  60 110 60  126 231 126  106 195 106  75 137 75  96 175 96  125 229 125  126 230 126  105 192 105  109 199 109  122 223 122  121 221 121  119 218 119  117 214 117  114 209 114  114 208 114  113 207 113  110 202 110  108 197 108  110 202 110  107 195 107  101 185 101  97 177 97  94 172 94  92 168 92  72 132 72  84 154 84  92 169 92  87 159 87  84 84 103  85 85 104  85 85 105  86 86 106  87 87 107  88 88 107  88 88 108  89 89 109  90 90 110  90 90 111  91 91 112  92 92 112  92 92 113  93 93 114  94 94 115  94 94 115  95 95 116  95 95 117  96 96 117  96 96 118  97 97 119  97 97 119  98 98 120  98 98 121  99 99 121  99 99 122  100 100 122  100 100 123  101 101 123  101 101 124  101 101 124  
124 101 101  124 101 101  123 100 100  123 100 100  122 100 100  122 99 99  121 99 99  120 98 98  120 98 98  119 97 97  119 97 97  118 96 96  117 96 96  117 95 95  116 95 95  115 94 94  115 93 93  114 93 93  113 92 92  112 92 92  111 91 91  111 90 90  110 90 90  109 89 89  108 88 88  16 30 16  16 30 16  27 50 27  48 88 48  57 104 57  63 115 63  64 117 64  58 107 58  48 87 48  34 62 34  28 52 28  59 108 59  71 130 71  79 145 79  86 157 86  91 167 91  95 175 95  99 181 99  99 181 99  98 179 98  99 181 99  82 150 82  76 139 76  83 151 83  90 164 90  95 173 95  98 179 98  100 183 100  101 185 101  102 186 102  106 193 106  110 200 110  111 204 111  114 209 114  117 214 117  119 218 119  121 222 121  121 222 121  116 212 116  107 195 107  90 164 90  81 148 81  75 138 75  84 153 84  98 179 98  111 202 111  124 227 124  64 118 64  65 118 65  65 119 65  65 119 65  65 120 65  66 120 66  66 121 66  66 121 66  66 121 66  66 122 66  67 122 67  67 122 67  67 123 67  67 123 67  67 123 67  67 124 67  68 124 68  68 124 68  68 124 68  68 125 68  68 125 68  68 125 68  68 125 68  68 125 68  68 125 68  68 125 68  68 125 68  68 125 68  68 125 68  68 125 68  68 125 68  68 125 68  68 125 68  68 125 68  68 125 68  68 125 68  68 125 68  68 124 68  68 124 68  68 124 68  67 124 67  67 123 67  67 123 67  67 123 67  67 122 67  67 122 67  66 122 66  66 121 66  66 121 66  66 121 66  66 120 66  65 120 65  65 119 65  65 119 65  65 118 65  64 118 64  64 117 64  64 117 64  64 116 64  63 116 63  63 115 63  63 115 63  62 114 62  62 114 62  62 113 62  61 113 61  61 112 61  61 111 61  60 111 60  60 110 60  116 212 116  83 151 83  85 155 85  115 210 115  127 233 127  118 216 118  103 188 103  115 210 115  121 222 121  120 219 120  118 216 118  116 211 116  113 207 113  113 206 113  110 202 110  107 195 107  107 195 107  110 201 110  107 195 107  101 186 101  98 178 98  96 175 96  94 171 94  71 129 71  83 153 83  92 168 92  83 151 83  43 78 43  84 84 103  85 85 104  86 86 105  87 87 106  87 87 107  88 88 108  89 89 109  90 90 110  90 90 111  91 91 111  92 92 112  92 92 113  93 93 114  93 93 115  94 94 115  95 95 116  95 95 117  96 96 117  96 96 118  97 97 119  97 97 119  98 98 120  98 98 120  99 99 121  99 99 122  100 100 122  100 100 123  100 100 123  101 101 124  101 101 124  
124 101 101  123 101 101  123 100 100  122 100 100  122 99 99  121 99 99  121 99 99  120 98 98  120 98 98  119 97 97  118 97 97  118 96 96  117 95 95  116 95 95  116 94 94  115 94 94  114 93 93  114 93 93  113 92 92  112 91 91  111 91 91  110 90 90  110 89 89  109 89 89  108 88 88  107 87 87  106 87 87  105 86 86  104 85 85  21 39 21  34 62 34  38 70 38  44 80 44  31 57 31  16 30 16  16 30 16  44 81 44  65 118 65  74 135 74  81 148 81  87 159 87  91 167 91  95 173 95  98 178 98  96 176 96  98 180 98  83 153 83  71 130 71  71 129 71  84 154 84  91 166 91  94 172 94  96 175 96  97 177 97  99 181 99  104 190 104  108 198 108  111 204 111  114 209 114  117 214 117  120 219 120  121 222 121  123 226 123  121 221 121  114 209 114  109 199 109  109 200 109  108 198 108  121 221 121  63 116 63  64 117 64  64 117 64  64 118 64  64 118 64  65 119 65  65 119 65  65 119 65  65 120 65  66 120 66  66 121 66  66 121 66  66 121 66  66 122 66  67 122 67  67 122 67  67 123 67  67 123 67  67 123 67  67 124 67  68 124 68  68 124 68  68 124 68  68 124 68  68 124 68  68 125 68  68 125 68  68 125 68  68 125 68  68 125 68  68 125 68  68 125 68  68 125 68  68 125 68  68 125 68  68 125 68  68 125 68  68 124 68  68 124 68  68 124 68  68 124 68  68 124 68  67 124 67  67 123 67  67 123 67  67 123 67  67 122 67  67 122 67  66 122 66  66 121 66  66 121 66  66 121 66  66 120 66  65 120 65  65 119 65  65 119 65  65 119 65  64 118 64  64 118 64  64 117 64  64 117 64  63 116 63  63 116 63  63 115 63  62 114 62  62 114 62  62 113 62  62 113 62  61 112 61  61 112 61  61 111 61  60 110 60  128 235 128  101 184 101  59 107 59  99 181 99  127 232 127  125 229 125  104 191 104  100 183 100  119 218 119  120 220 120  119 217 119  117 213 117  114 209 114  112 206 112  111 202 111  107 196 107  103 188 103  106 193 106  109 200 109  107 196 107  102 187 102  98 180 98  97 177 97  95 174 95  69 127 69  83 151 83  92 168 92  78 144 78  30 55 30  84 84 103  85 85 104  86 86 105  87 87 106  87 87 107  88 88 108  89 89 109  89 89 110  90 90 110  91 91 111  91 91 112  92 92 113  93 93 114  93 93 114  94 94 115  94 94 116  95 95 116  95 95 117  96 96 118  97 97 118  97 97 119  98 98 120  98 98 120  99 99 121  99 99 121  99 99 122  100 100 122  100 100 123  101 101 123  101 101 124  
124 101 101  123 101 101  123 100 100  122 100 100  122 99 99  121 99 99  121 98 98  120 98 98  119 97 97  119 97 97  118 96 96  118 96 96  117 95 95  116 95 95  115 94 94  115 94 94  114 93 93  113 92 92  113 92 92  112 91 91  111 91 91  110 90 90  109 89 89  109 89 89  108 88 88  107 87 87  106 86 86  105 86 86  104 85 85  103 84 84  102 83 83  101 82 82  100 82 82  36 66 36  25 46 25  16 30 16  20 37 20  52 95 52  67 123 67  75 138 75  82 149 82  86 158 86  90 164 90  95 174 95  95 173 95  96 177 96  90 165 90  83 152 83  61 112 61  72 131 72  84 154 84  89 163 89  90 165 90  91 166 91  96 176 96  102 186 102  106 194 106  110 202 110  112 205 112  115 211 115  118 216 118  120 219 120  124 227 124  125 229 125  122 223 122  120 220 120  125 228 125  126 230 126  122 224 122  63 116 63  63 116 63  64 117 64  64 117 64  64 118 64  65 118 65  65 119 65  65 119 65  65 120 65  65 120 65  66 120 66  66 121 66  66 121 66  66 121 66  66 122 66  67 122 67  67 122 67  67 123 67  67 123 67  67 123 67  67 123 67  68 124 68  68 124 68  68 124 68  68 124 68  68 124 68  68 124 68  68 124 68  68 125 68  68 125 68  68 125 68  68 125 68  68 125 68  68 125 68  68 124 68  68 124 68  68 124 68  68 124 68  68 124 68  68 124 68  68 124 68  67 123 67  67 123 67  67 123 67  67 123 67  67 122 67  67 122 67  66 122 66  66 121 66  66 121 66  66 121 66  66 120 66  65 120 65  65 120 65  65 119 65  65 119 65  65 118 65  64 118 64  64 117 64  64 117 64  63 116 63  63 116 63  63 115 63  63 115 63  62 114 62  62 114 62  62 113 62  61 112 61  61 112 61  61 111 61  60 111 60  60 110 60  116 212 116  64 117 64  88 161 88  117 215 117  128 233 128  121 222 121  102 187 102  114 208 114  121 221 121  120 219 120  118 215 118  115 211 115  113 206 113  111 202 111  107 196 107  102 187 102  102 187 102  106 193 106  109 200 109  105 192 105  100 183 100  99 182 99  98 180 98  97 177 97  68 125 68  82 149 82  89 163 89  58 106 58  31 57 31  84 84 103  85 85 104  86 86 105  86 86 106  87 87 107  88 88 108  89 89 109  89 89 109  90 90 110  91 91 111  91 91 112  92 92 113  92 92 113  93 93 114  94 94 115  94 94 115  95 95 116  95 95 117  96 96 118  96 96 118  97 97 119  97 97 119  98 98 120  98 98 121  99 99 121  99 99 122  100 100 122  100 100 123  101 101 123  101 101 124  
124 101 101  123 100 100  123 100 100  122 100 100  121 99 99  121 99 99  120 98 98  120 98 98  119 97 97  119 97 97  118 96 96  117 96 96  117 95 95  116 95 95  115 94 94  115 93 93  114 93 93  113 92 92  112 92 92  112 91 91  111 90 90  110 90 90  109 89 89  108 88 88  107 88 88  107 87 87  106 86 86  105 85 85  104 85 85  103 84 84  102 83 83  101 82 82  100 81 81  99 81 81  98 80 80  97 79 79  95 78 78  31 57 31  60 109 60  69 126 69  76 138 76  81 147 81  84 154 84  87 159 87  90 164 90  94 172 94  96 175 96  90 164 90  82 151 82  56 102 56  67 122 67  76 139 76  83 152 83  86 158 86  93 170 93  98 180 98  103 189 103  108 197 108  112 205 112  114 209 114  115 211 115  120 220 120  125 228 125  126 231 126  126 231 126  127 233 127  129 236 129  130 238 130  63 115 63  63 115 63  63 116 63  64 116 64  64 117 64  64 117 64  64 118 64  65 118 65  65 119 65  65 119 65  65 120 65  66 120 66  66 120 66  66 121 66  66 121 66  66 121 66  66 122 66  67 122 67  67 122 67  67 123 67  67 123 67  67 123 67  67 123 67  67 124 67  68 124 68  68 124 68  68 124 68  68 124 68  68 124 68  68 124 68  68 124 68  68 124 68  68 124 68  68 124 68  68 124 68  68 124 68  68 124 68  68 124 68  68 124 68  68 124 68  67 124 67  67 123 67  67 123 67  67 123 67  67 123 67  67 122 67  67 122 67  66 122 66  66 121 66  66 121 66  66 121 66  66 120 66  66 120 66  65 120 65  65 119 65  65 119 65  65 118 65  64 118 64  64 117 64  64 117 64  64 116 64  63 116 63  63 115 63  63 115 63  62 114 62  62 114 62  62 113 62  62 113 62  61 112 61  61 112 61  61 111 61  60 110 60  130 237 130  95 174 95  56 103 56  105 193 105  129 235 129  125 228 125  108 198 108  95 174 95  119 218 119  120 220 120  119 217 119  116 213 116  114 208 114  112 205 112  107 196 107  103 188 103  98 179 98  102 186 102  106 194 106  108 197 108  103 189 103  97 177 97  100 184 100  99 182 99  98 179 98  67 122 67  83 151 83  86 157 86  72 131 72  32 60 32  84 84 103  85 85 104  85 85 105  86 86 106  87 87 107  88 88 107  88 88 108  89 89 109  90 90 110  90 90 111  91 91 112  92 92 112  92 92 113  93 93 114  93 93 115  94 94 115  95 95 116  95 95 117  96 96 117  96 96 118  97 97 119  97 97 119  98 98 120  98 98 120  99 99 121  99 99 121  100 100 122  100 100 123  100 100 123  101 101 124  
123 101 101  123 100 100  122 100 100  122 99 99  121 99 99  121 98 98  120 98 98  120 97 97  119 97 97  118 97 97  118 96 96  117 95 95  116 95 95  116 94 94  115 94 94  114 93 93  114 93 93  113 92 92  112 91 91  111 91 91  111 90 90  110 90 90  109 89 89  108 88 88  107 87 87  106 87 87  105 86 86  105 85 85  104 84 84  103 84 84  102 83 83  101 82 82  100 81 81  99 80 80  97 79 79  96 79 79  95 78 78  16 30 16  43 78 43  61 112 61  69 126 69  74 135 74  77 141 77  79 145 79  85 155 85  91 167 91  95 173 95  96 177 96  91 166 91  82 150 82  60 110 60  67 123 67  73 134 73  81 149 81  89 162 89  94 172 94  100 182 100  105 192 105  110 201 110  114 209 114  117 214 117  121 222 121  124 227 124  125 230 125  125 229 125  126 230 126  130 238 130  132 241 132  63 115 63  63 115 63  63 116 63  63 116 63  64 117 64  64 117 64  64 118 64  64 118 64  65 118 65  65 119 65  65 119 65  65 120 65  66 120 66  66 120 66  66 121 66  66 121 66  66 121 66  66 122 66  67 122 67  67 122 67  67 123 67  67 123 67  67 123 67  67 123 67  67 123 67  67 123 67  67 124 67  68 124 68  68 124 68  68 124 68  68 124 68  68 124 68  68 124 68  68 124 68  68 124 68  68 124 68  68 124 68  67 124 67  67 123 67  67 123 67  67 123 67  67 123 67  67 123 67  67 123 67  67 122 67  67 122 67  66 122 66  66 121 66  66 121 66  66 121 66  66 120 66  66 120 66  65 120 65  65 119 65  65 119 65  65 118 65  64 118 64  64 118 64  64 117 64  64 117 64  63 116 63  63 116 63  63 115 63  63 115 63  62 114 62  62 113 62  62 113 62  61 112 61  61 112 61  61 111 61  60 111 60  60 110 60  122 223 122  87 159 87  77 140 77  121 221 121  128 234 128  120 219 120  100 184 100  93 171 93  120 219 120  119 218 119  117 215 117  115 210 115  115 210 115  109 200 109  104 190 104  98 180 98  98 179 98  102 186 102  106 193 106  106 194 106  101 186 101  98 180 98  101 185 101  100 183 100  98 180 98  66 120 66  85 156 85  82 151 82  75 138 75  21 38 21  84 84 103  84 84 104  85 85 105  86 86 105  87 87 106  87 87 107  88 88 108  89 89 109  90 90 110  90 90 111  91 91 111  91 91 112  92 92 113  93 93 114  93 93 114  94 94 115  94 94 116  95 95 116  95 95 117  96 96 118  97 97 118  97 97 119  97 97 120  98 98 120  98 98 121  99 99 121  99 99 122  100 100 122  100 100 123  101 101 123  
123 100 100  123 100 100  122 100 100  122 99 99  121 99 99  120 98 98  120 98 98  119 97 97  119 97 97  118 96 96  117 96 96  117 95 95  116 95 95  116 94 94  115 94 94  114 93 93  113 92 92  113 92 92  112 91 91  111 91 91  110 90 90  110 89 89  109 89 89  108 88 88  107 87 87  106 87 87  105 86 86  104 85 85  103 84 84  102 83 83  101 83 83  100 82 82  99 81 81  98 80 80  97 79 79  96 78 78  95 78 78  94 77 77  16 30 16  53 96 53  61 111 61  64 118 64  67 124 67  72 131 72  82 149 82  88 162 88  92 169 92  95 174 95  99 182 99  92 168 92  88 161 88  75 137 75  75 137 75  83 153 83  92 168 92  95 174 95  99 181 99  102 187 102  106 194 106  110 201 110  115 210 115  120 219 120  122 224 122  124 227 124  123 225 123  122 222 122  125 229 125  132 241 132  62 114 62  63 115 63  63 115 63  63 116 63  63 116 63  64 117 64  64 117 64  64 118 64  64 118 64  65 119 65  65 119 65  65 119 65  65 120 65  66 120 66  66 120 66  66 121 66  66 121 66  66 121 66  66 122 66  67 122 67  67 122 67  67 122 67  67 123 67  67 123 67  67 123 67  67 123 67  67 123 67  67 123 67  67 123 67  67 124 67  67 124 67  67 124 67  67 124 67  67 124 67  67 124 67  67 123 67  67 123 67  67 123 67  67 123 67  67 123 67  67 123 67  67 123 67  67 122 67  67 122 67  67 122 67  66 122 66  66 121 66  66 121 66  66 121 66  66 120 66  66 120 66  65 120 65  65 119 65  65 119 65  65 119 65  64 118 64  64 118 64  64 117 64  64 117 64  63 116 63  63 116 63  63 115 63  63 115 63  62 114 62  62 114 62  62 113 62  61 113 61  61 112 61  61 111 61  61 111 61  60 110 60  119 217 119  112 205 112  77 141 77  110 200 110  129 236 129  125 228 125  114 209 114  99 182 99  116 212 116  119 217 119  118 216 118  116 212 116  116 212 116  114 209 114  107 196 107  101 185 101  94 171 94  98 179 98  102 186 102  105 192 105  104 191 104  99 182 99  100 183 100  101 186 101  101 184 101  92 169 92  65 120 65  86 157 86  78 144 78  68 124 68  16 30 16  83 83 102  84 84 103  85 85 104  86 86 105  87 87 106  87 87 107  88 88 108  89 89 109  89 89 110  90 90 110  91 91 111  91 91 112  92 92 113  92 92 113  93 93 114  94 94 115  94 94 116  95 95 116  95 95 117  96 96 117  96 96 118  97 97 119  97 97 119  98 98 120  98 98 120  99 99 121  99 99 122  100 100 122  100 100 123  100 100 123  
123 100 100  122 100 100  122 99 99  121 99 99  121 99 99  120 98 98  120 98 98  119 97 97  118 97 97  118 96 96  117 96 96  117 95 95  116 95 95  115 94 94  115 93 93  114 93 93  113 92 92  112 92 92  112 91 91  111 90 90  110 90 90  109 89 89  108 88 88  108 88 88  107 87 87  106 86 86  105 86 86  104 85 85  103 84 84  102 83 83  101 82 82  100 82 82  99 81 81  98 80 80  97 79 79  96 78 78  95 77 77  94 76 76  93 75 75  30 55 30  49 90 49  53 97 53  57 104 57  68 124 68  78 144 78  85 155 85  89 163 89  93 170 93  96 175 96  103 189 103  93 170 93  91 167 91  87 160 87  85 156 85  95 173 95  98 180 98  102 186 102  103 188 103  99 182 99  105 191 105  110 200 110  120 220 120  122 222 122  122 224 122  123 224 123  121 221 121  127 231 127  131 240 131  62 114 62  62 114 62  63 115 63  63 115 63  63 116 63  64 116 64  64 117 64  64 117 64  64 118 64  65 118 65  65 119 65  65 119 65  65 119 65  65 120 65  66 120 66  66 120 66  66 121 66  66 121 66  66 121 66  66 122 66  67 122 67  67 122 67  67 122 67  67 122 67  67 123 67  67 123 67  67 123 67  67 123 67  67 123 67  67 123 67  67 123 67  67 123 67  67 123 67  67 123 67  67 123 67  67 123 67  67 123 67  67 123 67  67 123 67  67 123 67  67 122 67  67 122 67  67 122 67  67 122 67  66 122 66  66 121 66  66 121 66  66 121 66  66 120 66  66 120 66  65 120 65  65 119 65  65 119 65  65 119 65  65 118 65  64 118 64  64 117 64  64 117 64  64 116 64  63 116 63  63 115 63  63 115 63  62 114 62  62 114 62  62 113 62  62 113 62  61 112 61  61 112 61  61 111 61  60 111 60  116 213 116  128 235 128  106 193 106  68 124 68  124 226 124  128 235 128  121 221 121  103 188 103  95 174 95  123 225 123  119 217 119  117 214 117  117 214 117  118 216 118  111 204 111  105 192 105  98 180 98  91 167 91  98 180 98  102 186 102  105 191 105  102 187 102  89 163 89  101 186 101  102 187 102  101 185 101  84 153 84  68 125 68  83 151 83  74 136 74  66 120 66  82 82 101  83 83 102  84 84 103  85 85 104  86 86 105  86 86 106  87 87 107  88 88 108  88 88 108  89 89 109  90 90 110  90 90 111  91 91 112  92 92 112  92 92 113  93 93 114  93 93 115  94 94 115  95 95 116  95 95 117  96 96 117  96 96 118  97 97 118  97 97 119  98 98 120  98 98 120  99 99 121  99 99 121  99 99 122  100 100 122  100 100 123  
123 100 100  122 100 100  122 99 99  121 99 99  121 98 98  120 98 98  119 97 97  119 97 97  118 96 96  118 96 96  117 95 95  116 95 95  116 94 94  115 94 94  114 93 93  114 93 93  113 92 92  112 92 92  111 91 91  111 90 90  110 90 90  109 89 89  108 88 88  107 88 88  107 87 87  106 86 86  105 85 85  104 85 85  103 84 84  102 83 83  101 82 82  100 81 81  99 81 81  98 80 80  97 79 79  96 78 78  95 77 77  93 76 76  92 75 75  16 30 16  23 43 23  38 70 38  49 90 49  64 116 64  75 137 75  81 148 81  86 157 86  90 164 90  93 170 93  99 181 99  106 194 106  102 186 102  98 178 98  98 179 98  97 177 97  99 181 99  100 184 100  102 187 102  104 190 104  109 200 109  114 209 114  121 221 121  123 226 123  126 230 126  126 230 126  121 221 121  125 229 125  62 113 62  62 114 62  62 114 62  63 115 63  63 115 63  63 116 63  63 116 63  64 117 64  64 117 64  64 117 64  64 118 64  65 118 65  65 119 65  65 119 65  65 119 65  65 120 65  66 120 66  66 120 66  66 121 66  66 121 66  66 121 66  66 122 66  66 122 66  67 122 67  67 122 67  67 122 67  67 122 67  67 123 67  67 123 67  67 123 67  67 123 67  67 123 67  67 123 67  67 123 67  67 123 67  67 123 67  67 123 67  67 123 67  67 123 67  67 122 67  67 122 67  67 122 67  67 122 67  66 122 66  66 122 66  66 121 66  66 121 66  66 121 66  66 120 66  66 120 66  65 120 65  65 119 65  65 119 65  65 119 65  65 118 65  64 118 64  64 117 64  64 117 64  64 117 64  63 116 63  63 116 63  63 115 63  63 115 63  62 114 62  62 114 62  62 113 62  61 112 61  61 112 61  61 111 61  60 111 60  114 208 114  128 234 128  131 240 131  99 181 99  96 175 96  123 224 123  126 231 126  116 213 116  96 176 96  89 164 89  116 211 116  118 216 118  118 216 118  119 217 119  116 212 116  108 198 108  102 186 102  95 174 95  89 163 89  98 180 98  101 185 101  104 190 104  100 184 100  92 167 92  105 192 105  104 190 104  102 186 102  73 134 73  71 130 71  79 145 79  70 128 70  81 81 100  82 82 101  83 83 102  84 84 103  85 85 104  85 85 105  86 86 106  87 87 107  88 88 107  88 88 108  89 89 109  90 90 110  90 90 111  91 91 111  92 92 112  92 92 113  93 93 114  93 93 114  94 94 115  94 94 116  95 95 116  95 95 117  96 96 118  96 96 118  97 97 119  97 97 119  98 98 120  98 98 121  99 99 121  99 99 122  100 100 122  100 100 123  
122 100 100  122 99 99  121 99 99  121 99 99  120 98 98  120 98 98  119 97 97  119 97 97  118 96 96  117 96 96  117 95 95  116 95 95  115 94 94  115 94 94  114 93 93  113 93 93  113 92 92  112 91 91  111 91 91  110 90 90  110 89 89  109 89 89  108 88 88  107 87 87  106 87 87  105 86 86  104 85 85  104 84 84  103 84 84  102 83 83  101 82 82  100 81 81  99 80 80  98 80 80  97 79 79  95 78 78  94 77 77  93 76 76  92 75 75  91 74 74  16 30 16  16 30 16  40 74 40  59 108 59  70 128 70  77 140 77  82 150 82  87 159 87  90 165 90  93 170 93  101 185 101  108 197 108  101 185 101  101 185 101  102 187 102  104 190 104  105 192 105  107 196 107  109 199 109  113 207 113  118 217 118  124 226 124  128 234 128  129 235 129  125 228 125  109 200 109  61 112 61  61 113 61  62 113 62  62 114 62  62 114 62  63 115 63  63 115 63  63 116 63  63 116 63  64 117 64  64 117 64  64 117 64  64 118 64  65 118 65  65 119 65  65 119 65  65 119 65  65 120 65  66 120 66  66 120 66  66 121 66  66 121 66  66 121 66  66 121 66  66 122 66  66 122 66  67 122 67  67 122 67  67 122 67  67 122 67  67 122 67  67 122 67  67 123 67  67 123 67  67 123 67  67 123 67  67 122 67  67 122 67  67 122 67  67 122 67  67 122 67  67 122 67  66 122 66  66 122 66  66 121 66  66 121 66  66 121 66  66 121 66  66 120 66  66 120 66  65 120 65  65 119 65  65 119 65  65 119 65  65 118 65  64 118 64  64 117 64  64 117 64  64 117 64  63 116 63  63 116 63  63 115 63  63 115 63  62 114 62  62 114 62  62 113 62  61 113 61  61 112 61  61 112 61  61 111 61  60 110 60  129 237 129  131 239 131  121 221 121  93 170 93  94 171 94  121 222 121  123 224 123  108 198 108  96 175 96  116 213 116  116 212 116  119 217 119  120 219 120  120 219 120  114 208 114  105 193 105  99 182 99  91 167 91  87 159 87  98 180 98  101 184 101  103 189 103  98 180 98  93 171 93  107 196 107  106 193 106  100 183 100  60 110 60  80 147 80  75 138 75  65 119 65  81 81 100  82 82 101  83 83 102  84 84 103  84 84 104  85 85 104  86 86 105  87 87 106  87 87 107  88 88 108  89 89 109  89 89 110  90 90 110  91 91 111  91 91 112  92 92 113  93 93 113  93 93 114  94 94 115  94 94 115  95 95 116  95 95 117  96 96 117  96 96 118  97 97 119  97 97 119  98 98 120  98 98 120  99 99 121  99 99 121  99 99 122  100 100 122  
122 100 100  122 99 99  121 99 99  121 98 98  120 98 98  119 97 97  119 97 97  118 97 97  118 96 96  117 96 96  117 95 95  116 95 95  115 94 94  115 93 93  114 93 93  113 92 92  112 92 92  112 91 91  111 91 91  110 90 90  109 89 89  109 89 89  108 88 88  107 87 87  106 86 86  105 86 86  104 85 85  103 84 84  102 84 84  101 83 83  100 82 82  99 81 81  98 80 80  97 79 79  96 79 79  95 78 78  94 77 77  93 76 76  92 75 75  91 74 74  89 73 73  16 30 16  23 42 23  48 88 48  66 121 66  74 136 74  79 145 79  84 154 84  87 160 87  90 165 90  94 172 94  100 184 100  104 190 104  105 193 105  107 195 107  108 198 108  110 201 110  111 203 111  113 207 113  117 214 117  121 221 121  127 232 127  132 242 132  134 246 134  124 227 124  61 111 61  61 112 61  61 112 61  62 113 62  62 113 62  62 114 62  62 114 62  63 115 63  63 115 63  63 116 63  63 116 63  64 117 64  64 117 64  64 118 64  64 118 64  65 118 65  65 119 65  65 119 65  65 119 65  65 120 65  66 120 66  66 120 66  66 121 66  66 121 66  66 121 66  66 121 66  66 121 66  66 122 66  66 122 66  67 122 67  67 122 67  67 122 67  67 122 67  67 122 67  67 122 67  67 122 67  67 122 67  67 122 67  67 122 67  67 122 67  67 122 67  66 122 66  66 122 66  66 121 66  66 121 66  66 121 66  66 121 66  66 121 66  66 120 66  66 120 66  65 120 65  65 119 65  65 119 65  65 119 65  65 118 65  64 118 64  64 118 64  64 117 64  64 117 64  63 116 63  63 116 63  63 115 63  63 115 63  62 114 62  62 114 62  62 113 62  62 113 62  61 112 61  61 112 61  61 111 61  60 111 60  135 246 135  128 233 128  111 203 111  89 163 89  75 138 75  101 185 101  119 218 119  118 216 118  97 178 97  97 178 97  117 215 117  115 210 115  120 220 120  121 222 121  118 215 118  111 202 111  102 186 102  97 177 97  86 157 86  84 154 84  98 180 98  100 183 100  101 185 101  80 146 80  95 174 95  109 199 109  105 192 105  98 179 98  48 88 48  80 146 80  71 130 71  80 80 98  81 81 99  82 82 100  83 83 101  84 84 102  84 84 103  85 85 104  86 86 105  86 86 106  87 87 107  88 88 108  89 89 109  89 89 109  90 90 110  91 91 111  91 91 112  92 92 112  92 92 113  93 93 114  93 93 115  94 94 115  95 95 116  95 95 117  96 96 117  96 96 118  97 97 118  97 97 119  97 97 119  98 98 120  98 98 121  99 99 121  99 99 122  100 100 122  
122 99 99  121 99 99  121 99 99  120 98 98  120 98 98  119 97 97  119 97 97  118 96 96  117 96 96  117 95 95  116 95 95  116 94 94  115 94 94  114 93 93  114 93 93  113 92 92  112 92 92  111 91 91  111 90 90  110 90 90  109 89 89  108 88 88  108 88 88  107 87 87  106 86 86  105 86 86  104 85 85  103 84 84  102 83 83  101 83 83  100 82 82  99 81 81  98 80 80  97 79 79  96 78 78  95 77 77  94 77 77  93 76 76  92 75 75  90 74 74  89 73 73  16 30 16  23 43 23  50 92 50  64 117 64  73 134 73  81 147 81  84 154 84  87 160 87  90 165 90  95 174 95  101 186 101  106 193 106  106 195 106  109 199 109  111 203 111  113 207 113  116 213 116  119 217 119  121 222 121  124 227 124  130 238 130  137 250 137  138 253 138  60 110 60  61 111 61  61 111 61  61 112 61  61 112 61  62 113 62  62 114 62  62 114 62  62 115 62  63 115 63  63 115 63  63 116 63  63 116 63  64 117 64  64 117 64  64 118 64  64 118 64  65 118 65  65 119 65  65 119 65  65 119 65  65 120 65  65 120 65  66 120 66  66 120 66  66 121 66  66 121 66  66 121 66  66 121 66  66 121 66  66 122 66  66 122 66  66 122 66  66 122 66  66 122 66  67 122 67  67 122 67  66 122 66  66 122 66  66 122 66  66 122 66  66 122 66  66 121 66  66 121 66  66 121 66  66 121 66  66 121 66  66 120 66  66 120 66  65 120 65  65 120 65  65 119 65  65 119 65  65 119 65  65 118 65  64 118 64  64 118 64  64 117 64  64 117 64  63 116 63  63 116 63  63 115 63  63 115 63  62 115 62  62 114 62  62 114 62  62 113 62  61 112 61  61 112 61  61 111 61  61 111 61  137 251 137  122 223 122  100 183 100  85 155 85  77 140 77  96 175 96  108 197 108  117 214 117  111 202 111  92 168 92  91 167 91  112 205 112  115 210 115  122 223 122  121 221 121  115 211 115  108 197 108  99 182 99  94 172 94  79 145 79  82 149 82  98 179 98  99 182 99  99 182 99  82 149 82  97 177 97  110 201 110  101 185 101  95 175 95  51 94 51  76 139 76  67 122 67  80 80 98  81 81 99  82 82 100  83 83 101  83 83 102  84 84 103  85 85 104  86 86 105  86 86 106  87 87 107  88 88 108  88 88 108  89 89 109  90 90 110  90 90 111  91 91 111  92 92 112  92 92 113  93 93 114  93 93 114  94 94 115  94 94 116  95 95 116  95 95 117  96 96 117  96 96 118  97 97 119  97 97 119  98 98 120  98 98 120  99 99 121  99 99 121  99 99 122  
122 99 99  121 99 99  121 98 98  120 98 98  120 98 98  119 97 97  118 97 97  118 96 96  117 96 96  117 95 95  116 95 95  115 94 94  115 94 94  114 93 93  113 92 92  113 92 92  112 91 91  111 91 91  110 90 90  110 89 89  109 89 89  108 88 88  107 87 87  106 87 87  106 86 86  105 85 85  104 85 85  103 84 84  102 83 83  101 82 82  100 82 82  99 81 81  98 80 80  97 79 79  96 78 78  95 77 77  94 76 76  93 75 75  91 75 75  90 74 74  89 73 73  88 72 72  36 66 36  43 79 43  68 125 68  76 140 76  82 151 82  87 159 87  90 164 90  92 168 92  98 179 98  104 190 104  107 196 107  107 196 107  108 198 108  111 203 111  115 210 115  119 218 119  122 223 122  125 228 125  127 233 127  132 241 132  139 254 139  139 254 139  136 249 136  60 111 60  61 111 61  61 112 61  61 112 61  61 113 61  62 113 62  62 114 62  62 114 62  63 115 63  63 115 63  63 116 63  63 116 63  64 116 64  64 117 64  64 117 64  64 118 64  64 118 64  65 118 65  65 119 65  65 119 65  65 119 65  65 120 65  65 120 65  66 120 66  66 120 66  66 121 66  66 121 66  66 121 66  66 121 66  66 121 66  66 121 66  66 121 66  66 121 66  66 121 66  66 121 66  66 121 66  66 121 66  66 121 66  66 121 66  66 121 66  66 121 66  66 121 66  66 121 66  66 121 66  66 121 66  66 120 66  66 120 66  65 120 65  65 120 65  65 119 65  65 119 65  65 119 65  65 118 65  64 118 64  64 118 64  64 117 64  64 117 64  64 116 64  63 116 63  63 116 63  63 115 63  63 115 63  62 114 62  62 114 62  62 113 62  61 113 61  61 112 61  61 112 61  61 111 61  60 111 60  117 213 117  96 175 96  87 159 87  95 173 95  89 164 89  103 189 103  109 199 109  115 209 115  100 183 100  91 167 91  110 202 110  108 198 108  122 224 122  123 225 123  119 218 119  113 206 113  104 191 104  97 178 97  89 163 89  71 130 71  83 151 83  97 178 97  99 181 99  97 178 97  79 145 79  96 176 96  107 197 107  98 180 98  93 170 93  64 118 64  72 132 72  65 119 65  80 80 98  81 81 99  82 82 100  82 82 101  83 83 102  84 84 103  85 85 104  85 85 105  86 86 106  87 87 106  87 87 107  88 88 108  89 89 109  89 89 110  90 90 110  91 91 111  91 91 112  92 92 113  92 92 113  93 93 114  94 94 115  94 94 115  95 95 116  95 95 117  96 96 117  96 96 118  97 97 118  97 97 119  98 98 120  98 98 120  98 98 121  99 99 121  99 99 122  
121 99 99  121 99 99  120 98 98  120 98 98  119 97 97  119 97 97  118 96 96  118 96 96  117 95 95  116 95 95  116 94 94  115 94 94  114 93 93  114 93 93  113 92 92  112 92 92  112 91 91  111 91 91  110 90 90  109 89 89  109 89 89  108 88 88  107 87 87  106 87 87  105 86 86  104 85 85  104 84 84  103 84 84  102 83 83  101 82 82  100 81 81  99 80 80  98 80 80  97 79 79  96 78 78  94 77 77  93 76 76  92 75 75  91 74 74  90 73 73  89 72 72  88 71 71  49 90 49  53 98 53  63 116 63  79 144 79  85 155 85  90 164 90  93 170 93  95 173 95  101 184 101  107 196 107  109 200 109  109 199 109  108 197 108  111 202 111  115 211 115  120 219 120  123 225 123  126 230 126  129 235 129  133 242 133  139 254 139  140 255 140  132 242 132  60 110 60  60 111 60  61 111 61  61 112 61  61 112 61  62 113 62  62 113 62  62 114 62  62 114 62  63 115 63  63 115 63  63 116 63  63 116 63  64 116 64  64 117 64  64 117 64  64 118 64  64 118 64  65 118 65  65 119 65  65 119 65  65 119 65  65 119 65  65 120 65  65 120 65  66 120 66  66 120 66  66 121 66  66 121 66  66 121 66  66 121 66  66 121 66  66 121 66  66 121 66  66 121 66  66 121 66  66 121 66  66 121 66  66 121 66  66 121 66  66 121 66  66 121 66  66 121 66  66 120 66  66 120 66  65 120 65  65 120 65  65 119 65  65 119 65  65 119 65  65 119 65  65 118 65  64 118 64  64 118 64  64 117 64  64 117 64  64 116 64  63 116 63  63 116 63  63 115 63  63 115 63  62 114 62  62 114 62  62 113 62  62 113 62  61 112 61  61 112 61  61 111 61  60 111 60  132 242 132  111 203 111  83 152 83  77 142 77  103 189 103  107 197 107  109 200 109  109 199 109  112 205 112  92 169 92  92 168 92  109 200 109  100 184 100  125 229 125  122 223 122  117 214 117  110 201 110  101 184 101  95 173 95  84 153 84  61 112 61  88 161 88  97 178 97  98 179 98  85 156 85  75 138 75  95 174 95  106 193 106  96 176 96  90 165 90  75 137 75  69 126 69  63 116 63  80 80 98  80 80 99  81 81 100  82 82 101  83 83 102  84 84 103  84 84 104  85 85 104  86 86 105  87 87 106  87 87 107  88 88 108  89 89 109  89 89 109  90 90 110  91 91 111  91 91 112  92 92 112  92 92 113  93 93 114  93 93 114  94 94 115  94 94 116  95 95 116  95 95 117  96 96 118  96 96 118  97 97 119  97 97 119  98 98 120  98 98 120  99 99 121  99 99 121  
121 99 99  121 98 98  120 98 98  120 98 98  119 97 97  118 97 97  118 96 96  117 96 96  117 95 95  116 95 95  115 94 94  115 94 94  114 93 93  114 93 93  113 92 92  112 91 91  111 91 91  111 90 90  110 90 90  109 89 89  108 88 88  108 88 88  107 87 87  106 86 86  105 86 86  104 85 85  103 84 84  102 83 83  101 83 83  100 82 82  99 81 81  98 80 80  97 79 79  96 79 79  95 78 78  94 77 77  93 76 76  92 75 75  91 74 74  90 73 73  89 72 72  87 71 71  62 114 62  64 117 64  58 107 58  73 134 73  86 158 86  91 167 91  95 174 95  98 179 98  104 190 104  110 201 110  111 203 111  110 202 110  108 198 108  109 199 109  115 210 115  119 218 119  123 225 123  126 230 126  128 234 128  131 240 131  137 251 137  141 255 141  60 109 60  60 110 60  60 110 60  61 111 61  61 111 61  61 112 61  61 112 61  62 113 62  62 113 62  62 114 62  62 114 62  63 115 63  63 115 63  63 116 63  63 116 63  64 116 64  64 117 64  64 117 64  64 118 64  64 118 64  65 118 65  65 119 65  65 119 65  65 119 65  65 119 65  65 120 65  65 120 65  65 120 65  66 120 66  66 120 66  66 120 66  66 121 66  66 121 66  66 121 66  66 121 66  66 121 66  66 121 66  66 121 66  66 121 66  66 121 66  66 121 66  66 120 66  66 120 66  66 120 66  65 120 65  65 120 65  65 120 65  65 119 65  65 119 65  65 119 65  65 119 65  65 118 65  64 118 64  64 118 64  64 117 64  64 117 64  64 116 64  63 116 63  63 116 63  63 115 63  63 115 63  62 114 62  62 114 62  62 113 62  62 113 62  61 112 61  61 112 61  61 111 61  61 111 61  139 255 139  135 246 135  123 225 123  87 160 87  88 161 88  111 202 111  115 210 115  106 194 106  93 170 93  100 183 100  87 159 87  96 176 96  93 171 93  111 203 111  124 227 124  120 220 120  114 209 114  106 195 106  97 178 97  91 167 91  78 142 78  49 91 49  106 193 106  97 177 97  97 178 97  81 149 81  75 137 75  95 173 95  105 192 105  94 172 94  86 158 86  73 133 73  67 123 67  79 79 96  79 79 97  80 80 98  81 81 99  82 82 100  83 83 101  83 83 102  84 84 103  85 85 104  86 86 105  86 86 106  87 87 107  88 88 108  88 88 108  89 89 109  90 90 110  90 90 111  91 91 111  91 91 112  92 92 113  93 93 114  93 93 114  94 94 115  94 94 115  95 95 116  95 95 117  96 96 117  96 96 118  97 97 118  97 97 119  98 98 120  98 98 120  98 98 121  99 99 121  
121 99 99  120 98 98  120 98 98  119 97 97  119 97 97  118 96 96  118 96 96  117 95 95  116 95 95  116 95 95  115 94 94  115 93 93  114 93 93  113 92 92  113 92 92  112 91 91  111 91 91  110 90 90  110 89 89  109 89 89  108 88 88  107 88 88  106 87 87  106 86 86  105 85 85  104 85 85  103 84 84  102 83 83  101 82 82  100 82 82  99 81 81  98 80 80  97 79 79  96 78 78  95 78 78  94 77 77  93 76 76  92 75 75  91 74 74  89 73 73  88 72 72  73 133 73  73 133 73  67 123 67  60 110 60  68 125 68  82 151 82  90 165 90  93 171 93  95 175 95  101 185 101  108 197 108  110 202 110  109 199 109  108 197 108  106 194 106  109 200 109  116 212 116  121 222 121  124 228 124  128 233 128  131 239 131  134 245 134  138 253 138  140 255 140  60 109 60  60 110 60  60 111 60  61 111 61  61 112 61  61 112 61  61 113 61  62 113 62  62 114 62  62 114 62  62 114 62  63 115 63  63 115 63  63 116 63  63 116 63  64 116 64  64 117 64  64 117 64  64 118 64  64 118 64  64 118 64  65 118 65  65 119 65  65 119 65  65 119 65  65 119 65  65 120 65  65 120 65  65 120 65  66 120 66  66 120 66  66 120 66  66 120 66  66 120 66  66 120 66  66 120 66  66 120 66  66 120 66  66 120 66  66 120 66  66 120 66  65 120 65  65 120 65  65 120 65  65 119 65  65 119 65  65 119 65  65 119 65  65 118 65  64 118 64  64 118 64  64 118 64  64 117 64  64 117 64  64 116 64  63 116 63  63 116 63  63 115 63  63 115 63  62 114 62  62 114 62  62 114 62  62 113 62  61 113 61  61 112 61  61 112 61  61 111 61  60 111 60  60 110 60  136 249 136  130 238 130  80 147 80  98 180 98  118 216 118  100 184 100  83 153 83  97 177 97  88 161 88  87 159 87  102 187 102  78 143 78  124 227 124  123 226 123  118 217 118  112 204 112  103 188 103  94 172 94  87 159 87  70 129 70  72 132 72  113 206 113  96 177 96  96 176 96  77 141 77  74 135 74  95 173 95  105 191 105  91 167 91  79 144 79  71 130 71  66 120 66  78 78 96  79 79 97  80 80 98  81 81 99  82 82 100  82 82 101  83 83 102  84 84 103  85 85 104  85 85 105  86 86 106  87 87 106  88 88 107  88 88 108  89 89 109  89 89 110  90 90 110  91 91 111  91 91 112  92 92 113  92 92 113  93 93 114  93 93 115  94 94 115  95 95 116  95 95 116  95 95 117  96 96 118  96 96 118  97 97 119  97 97 119  98 98 120  98 98 120  99 99 121  
121 98 98  120 98 98  120 97 97  119 97 97  118 97 97  118 96 96  117 96 96  117 95 95  116 95 95  116 94 94  115 94 94  114 93 93  114 93 93  113 92 92  112 92 92  112 91 91  111 90 90  110 90 90  109 89 89  109 89 89  108 88 88  107 87 87  106 87 87  105 86 86  105 85 85  104 85 85  103 84 84  102 83 83  101 82 82  100 81 81  99 81 81  98 80 80  97 79 79  96 78 78  95 77 77  94 76 76  93 76 76  91 75 75  90 74 74  89 73 73  77 140 77  78 142 78  75 138 75  69 126 69  63 115 63  60 110 60  72 133 72  82 151 82  89 163 89  93 171 93  98 180 98  105 193 105  109 200 109  108 197 108  107 196 107  106 193 106  106 193 106  110 201 110  116 213 116  120 219 120  122 224 122  126 230 126  130 237 130  134 245 134  140 255 140  60 109 60  60 110 60  60 110 60  60 111 60  61 111 61  61 112 61  61 112 61  61 113 61  62 113 62  62 114 62  62 114 62  62 114 62  63 115 63  63 115 63  63 116 63  63 116 63  64 116 64  64 117 64  64 117 64  64 117 64  64 118 64  64 118 64  65 118 65  65 119 65  65 119 65  65 119 65  65 119 65  65 119 65  65 120 65  65 120 65  65 120 65  65 120 65  65 120 65  65 120 65  65 120 65  113 207 113  109 200 109  101 186 101  81 149 81  65 120 65  65 120 65  65 120 65  65 119 65  65 119 65  65 119 65  65 119 65  65 119 65  65 118 65  64 118 64  64 118 64  64 117 64  64 117 64  64 117 64  64 116 64  63 116 63  63 116 63  63 115 63  63 115 63  62 114 62  62 114 62  62 114 62  62 113 62  61 113 61  61 112 61  61 112 61  61 111 61  60 111 60  60 110 60  60 110 60  125 228 125  128 234 128  83 152 83  107 195 107  90 164 90  68 124 68  55 102 55  88 161 88  84 153 84  87 159 87  107 195 107  115 210 115  126 230 126  122 223 122  116 213 116  109 199 109  100 183 100  92 168 92  81 149 81  61 112 61  81 147 81  113 206 113  97 177 97  91 167 91  76 140 76  73 134 73  95 173 95  104 190 104  89 162 89  69 126 69  69 127 69  64 117 64  78 78 96  79 79 97  80 80 98  81 81 99  81 81 100  82 82 101  83 83 102  84 84 103  85 85 104  85 85 105  86 86 105  87 87 106  87 87 107  88 88 108  89 89 109  89 89 109  90 90 110  90 90 111  91 91 112  92 92 112  92 92 113  93 93 114  93 93 114  94 94 115  94 94 116  95 95 116  95 95 117  96 96 117  96 96 118  97 97 118  97 97 119  97 97 120  98 98 120  98 98 121  
120 98 98  120 98 98  119 97 97  119 97 97  118 96 96  118 96 96  117 96 96  116 95 95  116 95 95  115 94 94  115 94 94  114 93 93  113 92 92  113 92 92  112 91 91  111 91 91  111 90 90  110 90 90  109 89 89  108 88 88  108 88 88  107 87 87  106 86 86  105 86 86  104 85 85  103 84 84  102 84 84  102 83 83  101 82 82  100 81 81  99 80 80  98 80 80  97 79 79  96 78 78  95 77 77  93 76 76  92 75 75  91 74 74  90 73 73  78 143 78  81 148 81  81 149 81  77 141 77  71 129 71  65 119 65  63 116 63  77 141 77  85 156 85  89 162 89  91 166 91  94 171 94  103 188 103  108 198 108  107 197 107  106 195 106  105 192 105  106 193 106  107 197 107  110 201 110  112 205 112  115 211 115  118 216 118  125 228 125  130 239 130  135 248 135  141 255 141  60 109 60  60 110 60  60 110 60  60 111 60  61 111 61  61 112 61  61 112 61  62 113 62  62 113 62  62 114 62  62 114 62  62 114 62  63 115 63  63 115 63  63 116 63  63 116 63  64 116 64  64 117 64  64 117 64  64 117 64  64 118 64  64 118 64  64 118 64  65 118 65  65 119 65  65 119 65  65 119 65  65 119 65  65 119 65  65 119 65  65 119 65  65 119 65  65 120 65  117 214 117  110 202 110  96 176 96  86 157 86  100 183 100  49 90 49  65 119 65  65 119 65  65 119 65  65 119 65  65 119 65  65 118 65  64 118 64  64 118 64  64 118 64  64 117 64  64 117 64  64 117 64  64 116 64  63 116 63  63 116 63  63 115 63  63 115 63  62 114 62  62 114 62  62 114 62  62 113 62  62 113 62  61 112 61  61 112 61  61 111 61  60 111 60  60 110 60  60 110 60  60 109 60  59 109 59  113 207 113  89 163 89  115 210 115  76 139 76  47 85 47  80 146 80  90 165 90  84 153 84  86 158 86  97 178 97  128 234 128  125 229 125  121 221 121  114 208 114  105 192 105  97 177 97  88 161 88  75 137 75  51 93 51  88 162 88  113 206 113  97 177 97  89 163 89  75 138 75  72 132 72  92 168 92  104 189 104  86 157 86  72 131 72  67 123 67  77 77 95  78 78 96  79 79 97  80 80 98  80 80 99  81 81 100  82 82 101  83 83 102  84 84 102  84 84 103  85 85 104  86 86 105  86 86 106  87 87 107  88 88 108  88 88 108  89 89 109  90 90 110  90 90 111  91 91 111  91 91 112  92 92 113  92 92 113  93 93 114  94 94 115  94 94 115  95 95 116  95 95 116  96 96 117  96 96 118  96 96 118  97 97 119  97 97 119  98 98 120  98 98 120  
120 98 98  119 97 97  119 97 97  118 97 97  118 96 96  117 96 96  117 95 95  116 95 95  116 94 94  115 94 94  114 93 93  114 93 93  113 92 92  112 92 92  112 91 91  111 91 91  110 90 90  110 89 89  109 89 89  108 88 88  107 88 88  106 87 87  106 86 86  105 85 85  104 85 85  103 84 84  102 83 83  101 83 83  100 82 82  99 81 81  98 80 80  97 79 79  96 79 79  95 78 78  94 77 77  93 76 76  92 75 75  91 74 74  72 133 72  82 150 82  83 152 83  83 151 83  80 147 80  74 135 74  68 125 68  62 113 62  75 137 75  85 156 85  90 165 90  92 169 92  92 169 92  97 177 97  102 187 102  100 183 100  99 181 99  100 183 100  102 187 102  105 193 105  109 199 109  111 204 111  113 207 113  114 209 114  121 222 121  127 233 127  133 243 133  137 251 137  138 253 138  60 109 60  60 110 60  60 110 60  61 111 61  61 111 61  61 112 61  61 112 61  62 113 62  62 113 62  62 114 62  62 114 62  62 115 62  63 115 63  63 115 63  63 116 63  63 116 63  63 116 63  64 117 64  64 117 64  64 117 64  64 118 64  87 159 87  85 156 85  67 122 67  65 118 65  65 119 65  65 119 65  65 119 65  65 119 65  65 119 65  113 207 113  114 209 114  110 202 110  98 179 98  87 158 87  90 165 90  93 171 93  81 148 81  65 119 65  65 119 65  65 119 65  65 118 65  65 118 65  64 118 64  64 118 64  64 118 64  64 117 64  64 117 64  64 117 64  63 116 63  63 116 63  63 116 63  63 115 63  63 115 63  62 115 62  62 114 62  62 114 62  62 113 62  62 113 62  61 112 61  61 112 61  61 111 61  61 111 61  60 110 60  60 110 60  60 109 60  59 109 59  59 108 59  90 164 90  102 187 102  107 196 107  69 126 69  47 87 47  104 191 104  92 169 92  80 146 80  87 160 87  118 215 118  128 234 128  124 228 124  119 217 119  111 202 111  102 186 102  93 170 93  84 153 84  68 124 68  70 129 70  106 193 106  112 206 112  97 178 97  86 157 86  75 137 75  72 131 72  90 164 90  103 188 103  84 153 84  70 128 70  65 120 65  77 77 94  78 78 95  79 79 96  79 79 97  80 80 98  81 81 99  82 82 100  83 83 101  83 83 102  84 84 103  85 85 104  85 85 105  86 86 106  87 87 106  88 88 107  88 88 108  89 89 109  89 89 110  90 90 110  91 91 111  91 91 112  92 92 112  92 92 113  93 93 114  93 93 114  94 94 115  94 94 116  95 95 116  95 95 117  96 96 117  96 96 118  97 97 118  97 97 119  97 97 119  98 98 120  
120 98 98  119 97 97  119 97 97  118 96 96  118 96 96  117 95 95  117 95 95  116 95 95  115 94 94  115 94 94  114 93 93  113 93 93  113 92 92  112 91 91  111 91 91  111 90 90  110 90 90  109 89 89  109 89 89  108 88 88  107 87 87  106 87 87  105 86 86  105 85 85  104 85 85  103 84 84  102 83 83  101 82 82  100 82 82  99 81 81  98 80 80  97 79 79  96 78 78  95 78 78  94 77 77  93 76 76  92 75 75  79 144 79  82 150 82  84 154 84  84 154 84  83 153 83  81 149 81  78 142 78  73 133 73  66 121 66  68 125 68  76 139 76  80 147 80  86 157 86  89 163 89  90 165 90  94 172 94  91 167 91  92 169 92  94 172 94  97 178 97  102 187 102  107 195 107  110 201 110  112 205 112  114 208 114  117 215 117  123 225 123  126 231 126  129 236 129  132 242 132  134 246 134  60 110 60  60 110 60  60 111 60  61 111 61  61 111 61  61 112 61  61 112 61  62 113 62  62 113 62  62 114 62  62 114 62  62 114 62  63 115 63  63 115 63  63 116 63  63 116 63  63 116 63  64 117 64  64 117 64  89 163 89  102 187 102  184 255 184  255 255 255  255 255 255  64 118 64  65 118 65  65 118 65  104 190 104  118 216 118  113 207 113  110 201 110  99 182 99  95 175 95  99 182 99  102 186 102  99 182 99  86 157 86  65 118 65  65 118 65  64 118 64  64 118 64  64 118 64  64 118 64  64 117 64  64 117 64  64 117 64  64 117 64  63 116 63  63 116 63  63 116 63  63 115 63  63 115 63  62 114 62  62 114 62  62 114 62  62 113 62  62 113 62  61 112 61  61 112 61  61 111 61  61 111 61  60 111 60  60 110 60  60 110 60  59 109 59  59 108 59  59 108 59  109 199 109  106 194 106  78 143 78  62 113 62  82 150 82  106 193 106  94 172 94  77 140 77  92 168 92  129 236 129  127 233 127  123 225 123  116 212 116  103 188 103  92 169 92  87 159 87  77 141 77  60 110 60  78 143 78  107 197 107  112 205 112  97 178 97  82 150 82  74 135 74  71 130 71  87 159 87  102 187 102  83 152 83  68 125 68  64 117 64  77 77 94  78 78 95  78 78 96  79 79 97  80 80 98  81 81 99  82 82 100  82 82 101  83 83 102  84 84 103  85 85 104  85 85 105  86 86 105  87 87 106  87 87 107  88 88 108  89 89 109  89 89 109  90 90 110  90 90 111  91 91 111  91 91 112  92 92 113  93 93 113  93 93 114  94 94 115  94 94 115  95 95 116  95 95 117  95 95 117  96 96 118  96 96 118  97 97 119  97 97 119  98 98 120  
119 97 97  119 97 97  118 97 97  118 96 96  117 96 96  117 95 95  116 95 95  116 94 94  115 94 94  114 93 93  114 93 93  113 92 92  113 92 92  112 91 91  111 91 91  110 90 90  110 90 90  109 89 89  108 88 88  108 88 88  107 87 87  106 86 86  105 86 86  104 85 85  103 84 84  103 84 84  102 83 83  101 82 82  100 81 81  99 81 81  98 80 80  97 79 79  96 78 78  95 77 77  94 76 76  63 115 63  86 158 86  90 165 90  89 162 89  86 157 86  85 156 85  84 153 84  82 149 82  78 143 78  76 139 76  70 128 70  55 101 55  76 138 76  85 155 85  91 167 91  93 170 93  88 161 88  89 163 89  87 159 87  87 160 87  88 162 88  92 168 92  98 180 98  103 189 103  107 196 107  110 202 110  113 207 113  114 209 114  114 209 114  113 208 113  115 211 115  122 223 122  129 236 129  137 250 137  144 255 144  60 110 60  60 111 60  61 111 61  61 112 61  61 112 61  61 112 61  62 113 62  62 113 62  62 114 62  62 114 62  62 114 62  63 115 63  63 115 63  63 116 63  63 116 63  63 116 63  64 116 64  97 177 97  104 190 104  242 255 242  255 255 255  255 255 255  64 118 64  64 118 64  110 201 110  119 217 119  113 207 113  108 198 108  101 184 101  103 188 103  108 198 108  109 199 109  104 190 104  95 175 95  76 140 76  64 118 64  64 118 64  64 118 64  64 118 64  64 117 64  64 117 64  64 117 64  64 117 64  64 116 64  63 116 63  63 116 63  63 116 63  63 115 63  63 115 63  62 114 62  62 114 62  62 114 62  62 113 62  62 113 62  61 112 61  61 112 61  61 112 61  61 111 61  60 111 60  60 110 60  60 110 60  60 109 60  59 109 59  59 108 59  59 108 59  58 107 58  86 158 86  51 93 51  40 74 40  107 196 107  107 196 107  83 152 83  75 137 75  107 195 107  125 228 125  115 210 115  103 188 103  93 171 93  95 174 95  90 164 90  79 144 79  64 118 64  56 103 56  84 154 84  109 199 109  112 205 112  98 179 98  78 143 78  73 134 73  70 128 70  83 152 83  99 182 99  80 147 80  66 121 66  64 118 64  76 76 94  77 77 95  78 78 96  79 79 97  80 80 98  81 81 99  81 81 100  82 82 101  83 83 102  84 84 103  84 84 103  85 85 104  86 86 105  86 86 106  87 87 107  88 88 108  88 88 108  89 89 109  90 90 110  90 90 110  91 91 111  91 91 112  92 92 113  92 92 113  93 93 114  93 93 114  94 94 115  94 94 116  95 95 116  95 95 117  96 96 117  96 96 118  97 97 118  97 97 119  97 97 119  
119 97 97  119 97 97  118 96 96  118 96 96  117 95 95  116 95 95  116 95 95  115 94 94  115 94 94  114 93 93  114 93 93  113 92 92  112 92 92  112 91 91  111 90 90  110 90 90  109 89 89  109 89 89  108 88 88  107 87 87  106 87 87  106 86 86  105 85 85  104 85 85  103 84 84  102 83 83  101 83 83  100 82 82  99 81 81  99 80 80  98 80 80  97 79 79  96 78 78  94 77 77  66 121 66  86 158 86  92 169 92  95 175 95  94 173 94  92 168 92  88 162 88  84 153 84  81 149 81  78 144 78  77 140 77  73 133 73  55 101 55  60 109 60  71 130 71  79 144 79  78 142 78  80 146 80  86 157 86  83 152 83  83 152 83  83 152 83  86 158 86  93 171 93  99 182 99  104 190 104  108 197 108  110 202 110  112 205 112  114 208 114  115 211 115  115 210 115  120 219 120  128 234 128  136 249 136  146 255 146  60 110 60  60 110 60  60 111 60  61 111 61  61 112 61  61 112 61  61 112 61  62 113 62  62 113 62  62 114 62  62 114 62  62 114 62  63 115 63  63 115 63  63 115 63  63 116 63  16 30 16  101 185 101  105 193 105  200 255 200  255 255 255  255 255 255  64 117 64  112 206 112  119 217 119  114 208 114  111 202 111  102 187 102  108 198 108  112 205 112  112 206 112  108 198 108  100 184 100  90 164 90  56 102 56  64 118 64  64 117 64  64 117 64  64 117 64  64 117 64  64 117 64  64 116 64  63 116 63  63 116 63  63 116 63  63 115 63  63 115 63  63 115 63  62 114 62  62 114 62  62 114 62  62 113 62  62 113 62  61 112 61  61 112 61  61 112 61  61 111 61  60 111 60  60 110 60  60 110 60  60 109 60  59 109 59  59 108 59  59 108 59  58 107 58  58 107 58  58 106 58  109 199 109  106 194 106  119 217 119  109 199 109  77 141 77  74 135 74  122 224 122  102 187 102  95 173 95  93 171 93  98 179 98  98 180 98  79 145 79  67 123 67  67 123 67  67 123 67  88 161 88  110 202 110  112 204 112  95 174 95  76 138 76  73 133 73  69 127 69  79 144 79  91 167 91  74 135 74  66 120 66  75 75 92  76 76 93  77 77 94  78 78 96  79 79 97  80 80 98  80 80 99  81 81 99  82 82 100  83 83 101  83 83 102  84 84 103  85 85 104  85 85 105  86 86 106  87 87 106  87 87 107  88 88 108  89 89 109  89 89 109  90 90 110  90 90 111  91 91 112  92 92 112  92 92 113  93 93 114  93 93 114  94 94 115  94 94 115  95 95 116  95 95 116  95 95 117  96 96 118  96 96 118  97 97 119  97 97 119  
119 97 97  118 96 96  118 96 96  117 96 96  117 95 95  116 95 95  116 94 94  115 94 94  114 93 93  114 93 93  113 92 92  113 92 92  112 91 91  111 91 91  111 90 90  110 90 90  109 89 89  108 88 88  108 88 88  107 87 87  106 87 87  105 86 86  105 85 85  104 85 85  103 84 84  102 83 83  101 82 82  100 82 82  99 81 81  98 80 80  97 79 79  96 78 78  95 78 78  70 128 70  86 157 86  92 168 92  96 175 96  99 180 99  97 178 97  94 173 94  91 167 91  87 159 87  82 150 82  79 145 79  77 142 77  72 132 72  61 112 61  36 66 36  57 105 57  70 129 70  74 136 74  74 135 74  81 149 81  76 140 76  77 142 77  77 141 77  81 149 81  88 161 88  95 174 95  100 184 100  104 191 104  107 197 107  110 202 110  114 208 114  115 211 115  116 212 116  116 212 116  125 228 125  133 243 133  143 255 143  153 255 153  60 110 60  60 110 60  60 111 60  61 111 61  61 112 61  61 112 61  61 112 61  62 113 62  62 113 62  62 114 62  62 114 62  62 114 62  63 115 63  63 115 63  63 115 63  16 30 16  105 193 105  124 227 124  212 255 212  255 255 255  255 255 255  112 205 112  119 217 119  112 206 112  111 204 111  107 196 107  107 196 107  113 206 113  109 200 109  105 191 105  98 179 98  65 119 65  16 30 16  64 117 64  64 117 64  64 117 64  64 117 64  64 117 64  64 116 64  63 116 63  63 116 63  63 116 63  63 116 63  63 115 63  63 115 63  63 115 63  62 114 62  62 114 62  62 114 62  62 113 62  62 113 62  61 112 61  61 112 61  61 112 61  61 111 61  60 111 60  60 110 60  60 110 60  60 109 60  59 109 59  59 108 59  59 108 59  59 107 59  58 107 58  58 106 58  58 106 58  112 205 112  109 199 109  120 219 120  110 201 110  73 135 73  73 134 73  109 199 109  92 168 92  96 177 96  101 184 101  104 190 104  81 148 81  69 127 69  66 121 66  66 121 66  72 131 72  88 162 88  111 204 111  111 204 111  93 170 93  75 137 75  72 131 72  69 126 69  74 136 74  88 161 88  67 123 67  66 121 66  75 75 92  76 76 93  77 77 94  78 78 95  78 78 96  79 79 97  80 80 98  81 81 99  82 82 100  82 82 101  83 83 102  84 84 103  85 85 104  85 85 105  86 86 105  87 87 106  87 87 107  88 88 108  88 88 108  89 89 109  90 90 110  90 90 111  91 91 111  91 91 112  92 92 113  92 92 113  93 93 114  93 93 114  94 94 115  94 94 116  95 95 116  95 95 117  96 96 117  96 96 118  96 96 118  97 97 119  
118 97 97  118 96 96  117 96 96  117 95 95  116 95 95  116 95 95  115 94 94  115 94 94  114 93 93  114 93 93  113 92 92  112 92 92  112 91 91  111 91 91  110 90 90  110 89 89  109 89 89  108 88 88  107 88 88  107 87 87  106 86 86  105 86 86  104 85 85  103 84 84  103 84 84  102 83 83  101 82 82  100 81 81  99 81 81  98 80 80  97 79 79  96 78 78  65 118 65  81 149 81  91 166 91  94 173 94  97 178 97  100 182 100  100 182 100  97 177 97  93 170 93  88 162 88  83 153 83  80 146 80  77 141 77  71 130 71  60 110 60  45 82 45  35 65 35  62 114 62  77 140 77  71 130 71  66 120 66  62 115 62  65 119 65  69 126 69  77 141 77  83 153 83  91 166 91  96 175 96  100 183 100  104 191 104  109 199 109  112 205 112  114 208 114  115 210 115  115 211 115  120 219 120  128 233 128  139 255 139  150 255 150  163 255 163  60 110 60  60 110 60  60 111 60  61 111 61  61 112 61  61 112 61  61 112 61  62 113 62  62 113 62  62 114 62  62 114 62  62 114 62  104 191 104  111 203 111  113 206 113  115 210 115  115 211 115  113 206 113  108 198 108  110 202 110  116 213 116  112 205 112  105 193 105  104 191 104  105 191 105  100 183 100  90 165 90  82 149 82  50 91 50  16 30 16  64 117 64  64 117 64  64 117 64  64 117 64  64 117 64  64 116 64  63 116 63  63 116 63  63 116 63  63 116 63  63 115 63  63 115 63  63 115 63  62 115 62  62 114 62  62 114 62  62 114 62  62 113 62  62 113 62  61 112 61  61 112 61  61 112 61  61 111 61  60 111 60  60 110 60  60 110 60  60 109 60  59 109 59  59 108 59  59 108 59  59 107 59  58 107 58  58 106 58  58 106 58  57 105 57  116 213 116  112 204 112  120 220 120  95 174 95  70 129 70  84 154 84  98 180 98  103 189 103  106 194 106  108 198 108  92 168 92  71 130 71  65 119 65  69 126 69  69 126 69  75 138 75  90 164 90  112 205 112  111 203 111  92 168 92  74 136 74  71 130 71  68 124 68  69 127 69  84 154 84  67 123 67  66 121 66  75 75 92  76 76 93  77 77 94  77 77 95  78 78 96  79 79 97  80 80 98  81 81 99  81 81 100  82 82 101  83 83 102  84 84 103  84 84 103  85 85 104  86 86 105  86 86 106  87 87 107  88 88 107  88 88 108  89 89 109  89 89 110  90 90 110  91 91 111  91 91 112  92 92 112  92 92 113  93 93 114  93 93 114  94 94 115  94 94 115  95 95 116  95 95 116  95 95 117  96 96 117  96 96 118  97 97 118  
118 96 96  118 96 96  117 96 96  117 95 95  116 95 95  116 94 94  115 94 94  114 93 93  114 93 93  113 92 92  113 92 92  112 91 91  111 91 91  111 90 90  110 90 90  109 89 89  109 89 89  108 88 88  107 87 87  106 87 87  106 86 86  105 85 85  104 85 85  103 84 84  102 83 83  101 83 83  100 82 82  100 81 81  99 80 80  98 80 80  97 79 79  96 78 78  75 138 75  88 160 88  93 170 93  96 175 96  98 179 98  99 181 99  100 183 100  98 180 98  95 173 95  90 165 90  85 155 85  80 146 80  78 143 78  69 127 69  58 106 58  44 81 44  26 48 26  37 69 37  48 87 48  43 79 43  34 63 34  28 51 28  43 79 43  54 98 54  55 101 55  70 128 70  84 155 84  91 166 91  95 175 95  101 185 101  106 194 106  109 200 109  112 205 112  114 208 114  115 210 115  115 211 115  121 222 121  133 244 133  145 255 145  158 255 158  60 109 60  60 110 60  60 110 60  60 111 60  61 111 61  61 112 61  61 112 61  61 112 61  62 113 62  62 113 62  106 195 106  113 207 113  118 216 118  121 221 121  123 225 123  124 227 124  123 225 123  119 218 119  112 206 112  98 180 98  106 195 106  97 178 97  95 175 95  88 162 88  83 151 83  64 117 64  45 82 45  64 117 64  64 117 64  64 116 64  64 116 64  64 116 64  63 116 63  63 116 63  63 116 63  63 116 63  63 116 63  63 116 63  63 115 63  63 115 63  63 115 63  63 115 63  62 114 62  62 114 62  62 114 62  62 113 62  62 113 62  62 113 62  61 112 61  61 112 61  61 112 61  61 111 61  60 111 60  60 110 60  60 110 60  60 109 60  59 109 59  59 108 59  59 108 59  59 107 59  58 107 58  58 106 58  58 106 58  58 105 58  57 105 57  122 224 122  116 212 116  121 221 121  76 138 76  67 122 67  98 179 98  115 210 115  117 215 117  114 208 114  99 181 99  74 135 74  63 115 63  66 122 66  76 140 76  72 131 72  78 144 78  94 172 94  113 206 113  111 203 111  91 166 91  74 135 74  70 129 70  67 123 67  64 117 64  78 143 78  67 123 67  74 74 90  75 75 91  75 75 93  76 76 94  77 77 95  78 78 96  79 79 97  80 80 98  80 80 99  81 81 100  82 82 100  83 83 101  83 83 102  84 84 103  85 85 104  85 85 105  86 86 106  87 87 106  87 87 107  88 88 108  89 89 109  89 89 109  90 90 110  90 90 111  91 91 111  91 91 112  92 92 113  92 92 113  93 93 114  93 93 114  94 94 115  94 94 116  95 95 116  95 95 117  96 96 117  96 96 118  96 96 118  
118 96 96  117 96 96  117 95 95  116 95 95  116 94 94  115 94 94  115 94 94  114 93 93  114 93 93  113 92 92  112 92 92  112 91 91  111 91 91  110 90 90  110 89 89  109 89 89  108 88 88  108 88 88  107 87 87  106 86 86  105 86 86  104 85 85  104 84 84  103 84 84  102 83 83  101 82 82  100 82 82  99 81 81  98 80 80  97 79 79  96 79 79  67 124 67  82 150 82  90 165 90  93 170 93  95 174 95  97 177 97  98 180 98  99 181 99  100 182 100  99 181 99  93 171 93  89 163 89  86 157 86  82 151 82  77 141 77  68 125 68  57 104 57  41 76 41  26 48 26  23 42 23  27 50 27  62 114 62  18 33 18  16 30 16  29 54 29  37 68 37  50 92 50  68 125 68  76 140 76  89 164 89  97 178 97  102 187 102  106 194 106  109 200 109  111 204 111  113 208 113  115 210 115  115 210 115  126 231 126  139 255 139  151 255 151  168 255 168  60 109 60  60 110 60  60 110 60  60 111 60  61 111 61  61 111 61  61 112 61  66 121 66  99 181 99  112 205 112  118 217 118  122 223 122  124 227 124  125 229 125  123 225 123  117 214 117  111 202 111  101 185 101  87 160 87  80 147 80  79 144 79  70 128 70  60 110 60  33 60 33  63 116 63  63 116 63  63 116 63  63 116 63  63 116 63  63 116 63  63 116 63  63 116 63  63 116 63  63 116 63  63 115 63  63 115 63  63 115 63  63 115 63  63 115 63  62 114 62  62 114 62  62 114 62  62 114 62  62 113 62  62 113 62  61 113 61  61 112 61  61 112 61  61 111 61  61 111 61  60 111 60  60 110 60  60 110 60  60 109 60  59 109 59  59 108 59  59 108 59  59 108 59  58 107 58  58 107 58  58 106 58  58 105 58  57 105 57  57 104 57  127 232 127  121 222 121  120 220 120  70 129 70  64 118 64  97 178 97  126 231 126  117 214 117  104 191 104  78 143 78  64 117 64  64 116 64  67 123 67  82 150 82  74 136 74  81 149 81  98 180 98  113 207 113  110 202 110  90 165 90  73 134 73  70 128 70  66 122 66  63 115 63  72 131 72  68 124 68  73 73 90  74 74 91  75 75 92  76 76 93  77 77 94  78 78 95  79 79 96  79 79 97  80 80 98  81 81 99  82 82 100  82 82 101  83 83 102  84 84 103  84 84 104  85 85 104  86 86 105  86 86 106  87 87 107  88 88 108  88 88 108  89 89 109  89 89 110  90 90 110  91 91 111  91 91 112  92 92 112  92 92 113  93 93 114  93 93 114  94 94 115  94 94 115  94 94 116  95 95 116  95 95 117  96 96 117  96 96 118  
118 96 96  117 95 95  117 95 95  116 95 95  115 94 94  115 94 94  114 93 93  114 93 93  113 92 92  113 92 92  112 91 91  111 91 91  111 90 90  110 90 90  109 89 89  109 89 89  108 88 88  107 87 87  106 87 87  106 86 86  105 86 86  104 85 85  103 84 84  102 84 84  102 83 83  101 82 82  100 81 81  99 81 81  98 80 80  97 79 79  96 78 78  74 136 74  86 157 86  90 164 90  93 169 93  94 173 94  96 175 96  97 177 97  98 179 98  100 183 100  100 182 100  98 180 98  94 172 94  90 164 90  83 152 83  77 141 77  69 127 69  62 113 62  50 91 50  40 73 40  42 78 42  45 82 45  53 98 53  16 30 16  16 30 16  16 30 16  16 30 16  33 61 33  49 90 49  63 115 63  82 149 82  93 170 93  99 180 99  103 188 103  106 194 106  109 199 109  111 204 111  113 207 113  113 207 113  121 222 121  134 245 134  148 255 148  160 255 160  59 109 59  60 109 60  60 110 60  60 110 60  60 111 60  61 111 61  61 111 61  79 144 79  103 188 103  114 209 114  121 222 121  125 228 125  126 230 126  123 225 123  115 211 115  110 200 110  107 196 107  92 169 92  95 174 95  80 146 80  60 109 60  21 39 21  63 115 63  63 115 63  63 116 63  63 116 63  63 116 63  63 116 63  63 116 63  63 116 63  63 115 63  63 115 63  63 115 63  63 115 63  63 115 63  63 115 63  63 115 63  62 114 62  62 114 62  62 114 62  62 114 62  62 113 62  62 113 62  62 113 62  61 112 61  61 112 61  61 112 61  61 111 61  61 111 61  60 111 60  60 110 60  60 110 60  60 109 60  59 109 59  59 108 59  59 108 59  59 108 59  58 107 58  58 107 58  58 106 58  58 106 58  57 105 57  57 105 57  57 104 57  125 229 125  125 229 125  118 217 118  67 123 67  66 121 66  128 234 128  120 220 120  107 197 107  87 159 87  67 123 67  64 118 64  64 118 64  77 141 77  88 160 88  77 140 77  84 154 84  102 187 102  113 207 113  110 201 110  89 163 89  73 133 73  69 127 69  66 120 66  62 114 62  65 119 65  68 124 68  73 73 90  74 74 91  75 75 92  76 76 93  77 77 94  78 78 95  78 78 96  79 79 97  80 80 98  81 81 99  81 81 100  82 82 101  83 83 102  84 84 102  84 84 103  85 85 104  86 86 105  86 86 106  87 87 106  87 87 107  88 88 108  89 89 109  89 89 109  90 90 110  90 90 111  91 91 111  91 91 112  92 92 113  92 92 113  93 93 114  93 93 114  94 94 115  94 94 115  95 95 116  95 95 117  95 95 117  96 96 118  
117 96 96  117 95 95  116 95 95  116 94 94  115 94 94  115 93 93  114 93 93  113 93 93  113 92 92  112 92 92  112 91 91  111 91 91  110 90 90  110 89 89  109 89 89  108 88 88  108 88 88  107 87 87  106 87 87  105 86 86  105 85 85  104 85 85  103 84 84  102 83 83  101 83 83  100 82 82  99 81 81  99 80 80  98 80 80  97 79 79  65 120 65  79 144 79  86 157 86  89 162 89  91 167 91  93 170 93  94 172 94  94 173 94  96 177 96  96 176 96  96 175 96  97 178 97  95 175 95  91 166 91  83 151 83  76 139 76  69 127 69  69 126 69  63 115 63  56 103 56  53 97 53  53 97 53  53 98 53  54 98 54  16 30 16  38 69 38  16 30 16  16 30 16  22 40 22  52 96 52  73 133 73  88 161 88  94 172 94  99 180 99  102 188 102  105 193 105  108 197 108  110 201 110  111 203 111  115 211 115  132 242 132  147 255 147  157 255 157  59 108 59  59 109 59  60 109 60  60 110 60  60 110 60  60 111 60  61 111 61  70 128 70  105 192 105  115 211 115  122 224 122  125 229 125  123 225 123  119 217 119  112 205 112  108 197 108  101 185 101  93 170 93  100 183 100  86 157 86  96 176 96  63 115 63  63 115 63  63 115 63  63 115 63  63 115 63  63 115 63  63 115 63  63 115 63  63 115 63  63 115 63  63 115 63  63 115 63  63 115 63  62 114 62  62 114 62  62 114 62  62 114 62  62 114 62  62 113 62  62 113 62  62 113 62  61 113 61  61 112 61  61 112 61  61 112 61  61 111 61  61 111 61  60 111 60  60 110 60  60 110 60  60 109 60  59 109 59  59 108 59  59 108 59  59 108 59  58 107 58  58 107 58  58 106 58  58 106 58  57 105 57  57 105 57  57 104 57  57 104 57  121 222 121  123 225 123  105 193 105  66 121 66  67 123 67  124 228 124  111 203 111  95 174 95  70 128 70  62 113 62  64 117 64  72 131 72  85 156 85  91 167 91  79 144 79  87 159 87  104 191 104  113 206 113  109 200 109  87 160 87  72 132 72  69 126 69  65 119 65  61 112 61  69 126 69  16 30 16  73 73 89  74 74 91  75 75 92  76 76 93  76 76 94  77 77 95  78 78 96  79 79 97  80 80 98  80 80 99  81 81 99  82 82 100  83 83 101  83 83 102  84 84 103  85 85 104  85 85 105  86 86 105  87 87 106  87 87 107  88 88 108  88 88 108  89 89 109  89 89 110  90 90 110  91 91 111  91 91 112  92 92 112  92 92 113  93 93 113  93 93 114  93 93 115  94 94 115  94 94 116  95 95 116  95 95 117  96 96 117  
117 95 95  116 95 95  116 95 95  115 94 94  115 94 94  114 93 93  114 93 93  113 92 92  113 92 92  112 91 91  111 91 91  111 90 90  110 90 90  109 89 89  109 89 89  108 88 88  107 87 87  107 87 87  106 86 86  105 86 86  104 85 85  103 84 84  103 84 84  102 83 83  101 82 82  100 82 82  99 81 81  98 80 80  97 79 79  96 79 79  70 128 70  80 147 80  84 154 84  87 159 87  89 163 89  91 166 91  91 167 91  92 169 92  92 169 92  93 170 93  95 173 95  96 175 96  96 175 96  88 160 88  81 149 81  76 139 76  75 137 75  73 133 73  75 61 61  74 60 60  52 96 52  53 97 53  53 97 53  53 98 53  54 98 54  34 62 34  53 96 53  86 158 86  16 30 16  39 72 39  65 118 65  79 144 79  89 163 89  94 172 94  98 179 98  100 184 100  104 189 104  106 195 106  108 197 108  113 206 113  131 239 131  145 255 145  153 255 153  59 108 59  59 108 59  59 109 59  60 109 60  60 110 60  60 110 60  60 110 60  91 166 91  106 194 106  116 212 116  122 224 122  124 226 124  121 222 121  116 213 116  110 202 110  106 194 106  100 183 100  100 182 100  100 182 100  92 169 92  107 196 107  62 114 62  62 114 62  62 114 62  62 115 62  63 115 63  63 115 63  63 115 63  63 115 63  62 115 62  62 114 62  62 114 62  62 114 62  62 114 62  62 114 62  62 114 62  62 114 62  62 113 62  62 113 62  62 113 62  62 113 62  61 112 61  61 112 61  61 112 61  61 112 61  61 111 61  60 111 60  60 110 60  60 110 60  60 110 60  60 109 60  59 109 59  59 108 59  59 108 59  59 108 59  58 107 58  58 107 58  58 106 58  58 106 58  57 105 57  57 105 57  57 104 57  57 104 57  56 103 56  118 215 118  117 214 117  75 137 75  67 123 67  76 140 76  119 217 119  100 184 100  78 144 78  65 118 65  66 121 66  67 124 67  78 142 78  91 166 91  93 170 93  80 147 80  89 162 89  104 190 104  112 205 112  109 199 109  86 157 86  72 132 72  68 125 68  65 118 65  61 111 61  68 124 68  72 72 88  73 73 89  74 74 90  74 74 91  75 75 92  76 76 93  77 77 94  78 78 95  79 79 96  79 79 97  80 80 98  81 81 99  82 82 100  82 82 101  83 83 102  84 84 103  84 84 103  85 85 104  86 86 105  86 86 106  87 87 107  87 87 107  88 88 108  89 89 109  89 89 109  90 90 110  90 90 111  91 91 111  91 91 112  92 92 113  92 92 113  93 93 114  93 93 114  94 94 115  94 94 115  95 95 116  95 95 116  95 95 117  
117 95 95  116 95 95  116 94 94  115 94 94  114 93 93  114 93 93  113 92 92  113 92 92  112 92 92  112 91 91  111 91 91  110 90 90  110 89 89  109 89 89  108 88 88  108 88 88  107 87 87  106 87 87  105 86 86  105 85 85  104 85 85  103 84 84  102 83 83  101 83 83  101 82 82  100 81 81  99 81 81  98 80 80  97 79 79  43 79 43  71 130 71  79 144 79  82 150 82  85 155 85  87 160 87  88 161 88  88 160 88  89 163 89  90 166 90  92 168 92  93 170 93  94 171 94  92 169 92  86 158 86  82 150 82  80 147 80  78 144 78  79 145 79  75 61 61  73 60 60  52 96 52  53 96 53  53 97 53  53 97 53  53 98 53  23 43 23  51 94 51  79 144 79  16 30 16  16 30 16  49 90 49  67 123 67  81 148 81  89 163 89  92 169 92  95 174 95  101 184 101  105 192 105  108 197 108  109 199 109  128 235 128  143 255 143  149 255 149  59 108 59  59 108 59  59 108 59  59 109 59  60 109 60  60 110 60  60 110 60  89 164 89  106 195 106  115 210 115  121 222 121  122 223 122  119 218 119  113 208 113  109 199 109  105 191 105  107 196 107  107 196 107  107 195 107  99 181 99  117 214 117  62 114 62  62 114 62  62 114 62  62 114 62  62 114 62  62 114 62  62 114 62  62 114 62  62 114 62  62 114 62  62 114 62  62 114 62  62 114 62  62 113 62  62 113 62  62 113 62  62 113 62  62 113 62  61 112 61  61 112 61  61 112 61  61 112 61  61 111 61  61 111 61  60 111 60  60 110 60  60 110 60  60 110 60  60 109 60  59 109 59  59 108 59  59 108 59  59 108 59  58 107 58  58 107 58  58 106 58  58 106 58  57 105 57  57 105 57  57 104 57  57 104 57  56 103 56  56 103 56  113 207 113  110 201 110  64 118 64  77 141 77  126 230 126  112 204 112  89 163 89  67 123 67  63 116 63  67 122 67  81 149 81  80 146 80  87 159 87  93 170 93  82 150 82  90 165 90  103 189 103  111 203 111  109 199 109  85 155 85  71 130 71  67 123 67  64 117 64  60 110 60  65 119 65  72 72 88  72 72 89  73 73 90  74 74 91  75 75 92  76 76 93  77 77 94  78 78 95  78 78 96  79 79 97  80 80 98  81 81 99  81 81 100  82 82 101  83 83 101  83 83 102  84 84 103  85 85 104  85 85 105  86 86 105  87 87 106  87 87 107  88 88 108  88 88 108  89 89 109  89 89 110  90 90 110  91 91 111  91 91 112  92 92 112  92 92 113  92 92 113  93 93 114  93 93 114  94 94 115  94 94 116  95 95 116  95 95 117  
116 95 95  116 94 94  115 94 94  115 94 94  114 93 93  114 93 93  113 92 92  112 92 92  112 91 91  111 91 91  111 90 90  110 90 90  109 89 89  109 89 89  108 88 88  107 88 88  107 87 87  106 86 86  105 86 86  104 85 85  104 84 84  103 84 84  102 83 83  101 82 82  100 82 82  99 81 81  98 80 80  98 80 80  97 79 79  48 89 48  72 131 72  76 140 76  80 146 80  83 152 83  84 154 84  85 155 85  85 156 85  88 161 88  89 163 89  90 165 90  91 167 91  91 166 91  90 165 90  87 159 87  85 155 85  84 153 84  88 161 88  76 62 62  74 61 61  73 60 60  52 95 52  52 96 52  53 96 53  53 97 53  53 98 53  54 98 54  47 87 47  68 124 68  16 30 16  16 30 16  16 30 16  53 97 53  70 127 70  81 148 81  87 159 87  90 165 90  97 178 97  103 189 103  107 197 107  110 201 110  123 226 123  139 254 139  148 255 148  58 107 58  59 107 59  59 108 59  59 108 59  59 109 59  60 109 60  60 109 60  88 161 88  105 192 105  113 206 113  119 218 119  120 220 120  117 214 117  111 204 111  108 198 108  104 190 104  108 197 108  114 209 114  109 200 109  100 183 100  97 178 97  164 255 164  62 113 62  62 113 62  62 113 62  62 114 62  62 114 62  62 114 62  62 114 62  62 113 62  62 113 62  62 113 62  62 113 62  62 113 62  62 113 62  62 113 62  61 113 61  61 112 61  61 112 61  61 112 61  61 112 61  61 111 61  61 111 61  60 111 60  60 111 60  60 110 60  60 110 60  60 109 60  60 109 60  59 109 59  59 108 59  59 108 59  59 107 59  58 107 58  58 107 58  58 106 58  58 106 58  57 105 57  57 105 57  57 104 57  57 104 57  56 103 56  56 103 56  56 102 56  56 102 56  101 185 101  84 154 84  96 176 96  121 222 121  103 189 103  75 137 75  62 114 62  67 122 67  74 135 74  96 176 96  82 151 82  89 162 89  94 172 94  84 155 84  91 166 91  103 188 103  110 202 110  108 198 108  84 154 84  69 126 69  65 119 65  62 113 62  58 106 58  35 65 35  71 71 87  72 72 89  73 73 90  74 74 91  75 75 92  76 76 93  76 76 94  77 77 95  78 78 96  79 79 97  80 80 98  80 80 98  81 81 99  82 82 100  82 82 101  83 83 102  84 84 103  84 84 104  85 85 104  86 86 105  86 86 106  87 87 107  88 88 107  88 88 108  89 89 109  89 89 109  90 90 110  90 90 111  91 91 111  91 91 112  92 92 112  92 92 113  93 93 114  93 93 114  94 94 115  94 94 115  94 94 116  95 95 116  
116 94 94  115 94 94  115 94 94  114 93 93  114 93 93  113 92 92  113 92 92  112 91 91  111 91 91  111 90 90  110 90 90  110 89 89  109 89 89  108 88 88  108 88 88  107 87 87  106 87 87  105 86 86  105 85 85  104 85 85  103 84 84  102 84 84  102 83 83  101 82 82  100 81 81  99 81 81  98 80 80  97 79 79  96 79 79  49 90 49  72 132 72  74 136 74  78 143 78  81 147 81  81 148 81  81 149 81  84 153 84  86 158 86  88 161 88  89 163 89  89 162 89  88 161 88  90 164 90  89 163 89  88 162 88  89 162 89  77 62 62  75 61 61  74 60 60  73 59 59  52 95 52  52 96 52  52 96 52  53 97 53  53 97 53  53 98 53  16 30 16  44 81 44  69 127 69  16 30 16  16 30 16  16 30 16  56 102 56  70 128 70  81 148 81  86 157 86  94 172 94  100 183 100  105 192 105  111 203 111  112 205 112  132 241 132  149 255 149  58 107 58  58 107 58  59 107 59  59 108 59  59 108 59  59 109 59  60 111 60  86 157 86  102 186 102  110 201 110  114 208 114  118 215 118  117 213 117  111 203 111  108 197 108  103 188 103  106 194 106  110 202 110  107 196 107  101 185 101  97 177 97  116 212 116  183 255 183  62 113 62  62 113 62  62 113 62  62 113 62  62 113 62  62 113 62  62 113 62  62 113 62  164 255 164  140 255 140  133 243 133  126 230 126  119 217 119  119 217 119  118 215 118  115 210 115  111 203 111  61 111 61  61 111 61  60 111 60  60 110 60  60 110 60  60 110 60  60 109 60  59 109 59  59 109 59  59 108 59  59 108 59  59 107 59  58 107 58  58 107 58  58 106 58  58 106 58  57 105 57  57 105 57  57 104 57  57 104 57  56 103 56  56 103 56  56 102 56  56 102 56  55 101 55  101 185 101  100 184 100  111 203 111  115 211 115  91 166 91  65 119 65  64 117 64  70 128 70  92 169 92  110 201 110  90 164 90  90 166 90  99 182 99  89 163 89  92 169 92  102 187 102  109 200 109  107 197 107  84 154 84  67 122 67  63 115 63  59 108 59  61 112 61  70 70 86  71 71 87  72 72 88  73 73 89  74 74 90  75 75 91  75 75 92  76 76 93  77 77 94  78 78 95  79 79 96  79 79 97  80 80 98  81 81 99  81 81 100  82 82 101  83 83 102  84 84 102  84 84 103  85 85 104  85 85 105  86 86 105  87 87 106  87 87 107  88 88 108  88 88 108  89 89 109  89 89 110  90 90 110  90 90 111  91 91 111  91 91 112  92 92 113  92 92 113  93 93 114  93 93 114  94 94 115  94 94 115  94 94 116  
115 94 94  115 94 94  114 93 93  114 93 93  113 93 93  113 92 92  112 92 92  112 91 91  111 91 91  111 90 90  110 90 90  109 89 89  109 89 89  108 88 88  107 87 87  107 87 87  106 86 86  105 86 86  104 85 85  104 85 85  103 84 84  102 83 83  101 83 83  100 82 82  100 81 81  99 80 80  98 80 80  97 79 79  96 78 78  50 92 50  73 134 73  74 136 74  75 138 75  77 142 77  78 143 78  78 143 78  82 150 82  85 156 85  87 159 87  87 158 87  86 157 86  90 164 90  90 165 90  89 162 89  85 156 85  78 63 63  76 62 62  75 61 61  74 60 60  73 59 59  52 95 52  52 95 52  52 96 52  52 96 52  53 97 53  53 97 53  53 98 53  54 98 54  16 30 16  58 106 58  16 30 16  16 30 16  24 44 24  57 104 57  71 129 71  80 147 80  87 159 87  93 171 93  101 184 101  107 196 107  110 201 110  121 220 121  137 251 137  58 106 58  58 107 58  58 107 58  59 107 59  59 108 59  59 108 59  61 112 61  81 148 81  95 174 95  100 183 100  106 194 106  112 206 112  114 209 114  111 203 111  107 195 107  102 186 102  103 189 103  103 189 103  100 183 100  98 179 98  102 186 102  108 197 108  125 228 125  131 239 131  140 255 140  148 255 148  181 255 181  179 255 179  154 255 154  137 250 137  129 237 129  123 225 123  116 212 116  118 215 118  119 217 119  119 218 119  118 216 118  117 215 117  116 212 116  114 209 114  111 202 111  104 190 104  60 110 60  60 110 60  60 109 60  60 109 60  59 109 59  59 108 59  59 108 59  59 108 59  59 107 59  58 107 58  58 107 58  58 106 58  58 106 58  57 105 57  57 105 57  57 104 57  57 104 57  56 103 56  56 103 56  56 102 56  56 102 56  55 101 55  55 101 55  83 152 83  110 201 110  126 230 126  107 197 107  74 136 74  61 112 61  68 125 68  91 166 91  109 200 109  114 209 114  97 177 97  92 168 92  91 166 91  95 174 95  94 173 94  101 186 101  108 197 108  107 195 107  85 156 85  64 118 64  61 111 61  57 104 57  58 106 58  70 70 86  71 71 87  72 72 88  73 73 89  73 73 90  74 74 91  75 75 92  76 76 93  77 77 94  77 77 95  78 78 96  79 79 97  80 80 98  80 80 99  81 81 100  82 82 100  83 83 101  83 83 102  84 84 103  85 85 104  85 85 104  86 86 105  86 86 106  87 87 107  87 87 107  88 88 108  89 89 109  89 89 109  90 90 110  90 90 111  91 91 111  91 91 112  92 92 112  92 92 113  93 93 113  93 93 114  93 93 114  94 94 115  94 94 115  
115 94 94  115 93 93  114 93 93  114 93 93  113 92 92  112 92 92  112 91 91  111 91 91  111 90 90  110 90 90  110 89 89  109 89 89  108 88 88  108 88 88  107 87 87  106 87 87  106 86 86  105 85 85  104 85 85  103 84 84  102 84 84  102 83 83  101 82 82  100 82 82  99 81 81  98 80 80  97 79 79  97 79 79  96 78 78  95 77 77  74 135 74  76 139 76  75 137 75  75 137 75  76 139 76  78 143 78  82 150 82  84 153 84  85 155 85  84 154 84  88 161 88  91 166 91  91 166 91  85 155 85  79 145 79  77 63 63  76 62 62  75 61 61  74 60 60  72 59 59  51 94 51  52 95 52  52 95 52  52 96 52  53 96 53  53 97 53  53 97 53  53 98 53  54 98 54  54 99 54  54 99 54  16 30 16  16 30 16  43 78 43  65 119 65  74 136 74  79 145 79  85 156 85  95 173 95  99 182 99  102 186 102  102 187 102  125 229 125  58 106 58  58 106 58  58 106 58  58 107 58  58 107 58  59 108 59  61 112 61  77 141 77  84 153 84  89 163 89  97 177 97  105 193 105  109 200 109  109 200 109  103 188 103  95 175 95  100 183 100  97 178 97  99 181 99  103 189 103  107 195 107  114 208 114  116 213 116  118 215 118  117 215 117  116 212 116  124 227 124  129 236 129  120 220 120  116 212 116  117 213 117  118 215 118  119 218 119  120 220 120  121 220 121  120 220 120  120 219 120  119 218 119  118 216 118  117 214 117  114 208 114  110 200 110  108 198 108  92 169 92  59 109 59  59 109 59  59 108 59  59 108 59  59 108 59  58 107 58  58 107 58  58 106 58  58 106 58  58 106 58  57 105 57  57 105 57  57 104 57  57 104 57  56 103 56  56 103 56  56 102 56  56 102 56  55 101 55  55 101 55  55 100 55  55 100 55  101 184 101  125 228 125  99 180 99  63 116 63  66 121 66  87 159 87  107 197 107  117 214 117  114 208 114  102 187 102  93 171 93  89 164 89  101 184 101  98 179 98  100 183 100  106 194 106  106 193 106  86 157 86  62 114 62  58 107 58  42 76 42  39 72 39  70 70 85  71 71 86  71 71 88  72 72 89  73 73 90  74 74 91  75 75 92  76 76 93  76 76 94  77 77 95  78 78 96  79 79 97  79 79 97  80 80 98  81 81 99  82 82 100  82 82 101  83 83 102  84 84 102  84 84 103  85 85 104  85 85 105  86 86 106  87 87 106  87 87 107  88 88 108  88 88 108  89 89 109  89 89 110  90 90 110  90 90 111  91 91 111  91 91 112  92 92 112  92 92 113  93 93 114  93 93 114  93 93 115  94 94 115  
115 94 94  114 93 93  114 93 93  113 92 92  113 92 92  112 91 91  112 91 91  111 91 91  110 90 90  110 90 90  109 89 89  109 89 89  108 88 88  107 87 87  107 87 87  106 86 86  105 86 86  104 85 85  104 85 85  103 84 84  102 83 83  101 83 83  101 82 82  100 81 81  99 81 81  98 80 80  97 79 79  96 78 78  95 78 78  64 118 64  76 138 76  77 142 77  76 140 76  75 137 75  75 138 75  78 144 78  81 148 81  82 150 82  82 150 82  86 157 86  90 165 90  91 167 91  88 160 88  80 146 80  78 64 64  77 63 63  76 62 62  74 61 61  73 60 60  72 59 59  51 94 51  51 94 51  52 95 52  52 95 52  52 96 52  53 96 53  53 97 53  53 97 53  53 98 53  54 98 54  54 99 54  16 30 16  53 96 53  36 65 36  59 109 59  66 122 66  73 133 73  78 142 78  84 153 84  88 162 88  91 166 91  88 160 88  107 196 107  57 105 57  58 105 58  58 106 58  58 106 58  58 107 58  58 107 58  62 114 62  76 140 76  75 137 75  81 148 81  87 159 87  97 177 97  101 185 101  96 175 96  87 158 87  81 148 81  93 170 93  102 186 102  103 188 103  107 196 107  110 202 110  116 213 116  118 215 118  119 217 119  119 218 119  119 217 119  118 215 118  116 212 116  117 213 117  117 214 117  118 216 118  119 218 119  120 220 120  120 220 120  120 220 120  120 219 120  119 219 119  119 217 119  117 215 117  116 213 116  115 211 115  113 206 113  113 207 113  109 200 109  93 170 93  59 108 59  59 108 59  59 107 59  58 107 58  58 107 58  58 106 58  58 106 58  58 105 58  57 105 57  57 105 57  57 104 57  57 104 57  56 103 56  56 103 56  56 102 56  56 102 56  55 101 55  55 101 55  55 100 55  55 100 55  54 99 54  54 99 54  117 213 117  88 162 88  81 148 81  84 154 84  106 195 106  120 219 120  117 213 117  113 207 113  107 196 107  94 172 94  91 167 91  102 186 102  99 181 99  98 180 98  104 191 104  105 192 105  87 158 87  63 116 63  56 102 56  16 30 16  68 68 84  69 69 85  70 70 86  71 71 87  72 72 88  73 73 89  74 74 90  75 75 91  75 75 92  76 76 93  77 77 94  78 78 95  78 78 96  79 79 97  80 80 98  81 81 99  81 81 100  82 82 101  83 83 101  83 83 102  84 84 103  85 85 104  85 85 104  86 86 105  86 86 106  87 87 107  87 87 107  88 88 108  89 89 109  89 89 109  90 90 110  90 90 110  91 91 111  91 91 112  91 91 112  92 92 113  92 92 113  93 93 114  93 93 114  94 94 115  
114 93 93  114 93 93  113 92 92  113 92 92  112 92 92  112 91 91  111 91 91  111 90 90  110 90 90  109 89 89  109 89 89  108 88 88  108 88 88  107 87 87  106 87 87  105 86 86  105 85 85  104 85 85  103 84 84  103 84 84  102 83 83  101 82 82  100 82 82  99 81 81  98 80 80  98 80 80  97 79 79  96 78 78  16 30 16  73 134 73  71 130 71  73 134 73  75 136 75  75 138 75  75 137 75  77 142 77  79 145 79  80 146 80  84 154 84  89 162 89  92 168 92  90 165 90  87 159 87  79 64 64  78 63 63  77 62 62  75 61 61  74 60 60  73 59 59  72 58 58  51 93 51  51 94 51  51 94 51  52 95 52  52 95 52  52 96 52  53 96 53  53 97 53  53 97 53  53 98 53  54 99 54  54 99 54  16 30 16  55 100 55  54 99 54  64 118 64  73 133 73  79 145 79  82 150 82  84 153 84  84 154 84  81 148 81  99 182 99  57 105 57  57 105 57  57 105 57  58 106 58  58 106 58  58 107 58  43 79 43  73 134 73  70 129 70  71 130 71  75 137 75  84 153 84  85 155 85  79 144 79  72 132 72  67 122 67  77 142 77  103 189 103  105 193 105  110 200 110  114 208 114  115 210 115  117 215 117  119 217 119  119 218 119  119 218 119  119 217 119  117 214 117  117 214 117  117 215 117  118 216 118  119 217 119  119 218 119  119 218 119  119 218 119  119 217 119  118 216 118  117 214 117  116 213 116  116 212 116  115 210 115  113 206 113  110 201 110  108 198 108  104 191 104  90 165 90  59 107 59  58 107 58  58 107 58  58 106 58  58 106 58  57 105 57  57 105 57  57 105 57  57 104 57  57 104 57  56 103 56  56 103 56  56 102 56  56 102 56  55 101 55  55 101 55  55 100 55  55 100 55  54 99 54  54 99 54  108 198 108  110 201 110  95 174 95  93 171 93  91 167 91  115 211 115  123 225 123  114 208 114  111 204 111  99 181 99  95 174 95  92 169 92  96 176 96  95 175 95  100 183 100  103 189 103  104 190 104  87 160 87  66 120 66  51 93 51  50 92 50  68 68 84  69 69 85  70 70 86  71 71 87  72 72 88  73 73 89  73 73 90  74 74 91  75 75 92  76 76 93  77 77 94  77 77 95  78 78 96  79 79 97  80 80 98  80 80 98  81 81 99  82 82 100  82 82 101  83 83 102  84 84 103  84 84 103  85 85 104  85 85 105  86 86 105  87 87 106  87 87 107  88 88 108  88 88 108  89 89 109  89 89 109  90 90 110  90 90 111  91 91 111  91 91 112  92 92 112  92 92 113  92 92 113  93 93 114  93 93 114  
114 93 93  114 93 93  113 92 92  112 92 92  112 91 91  111 91 91  111 90 90  110 90 90  110 89 89  109 89 89  108 88 88  108 88 88  107 87 87  106 87 87  106 86 86  105 86 86  104 85 85  104 85 85  103 84 84  102 83 83  101 83 83  101 82 82  100 81 81  99 81 81  98 80 80  97 79 79  96 79 79  95 78 78  16 30 16  70 128 70  65 119 65  67 123 67  69 127 69  71 130 71  75 137 75  79 146 79  84 153 84  87 159 87  87 159 87  91 166 91  92 168 92  94 172 94  97 178 97  79 64 64  77 63 63  76 62 62  75 61 61  74 60 60  73 59 59  71 58 58  51 93 51  51 93 51  51 94 51  52 95 52  52 95 52  52 96 52  52 96 52  53 97 53  53 97 53  53 98 53  53 98 53  54 99 54  54 99 54  54 100 54  61 111 61  70 129 70  79 145 79  83 152 83  84 154 84  84 154 84  84 153 84  80 146 80  102 187 102  141 255 141  57 104 57  57 105 57  57 105 57  58 106 58  58 106 58  58 106 58  41 76 41  44 80 44  51 93 51  55 100 55  58 106 58  59 109 59  56 102 56  67 123 67  79 145 79  89 164 89  100 184 100  108 198 108  114 208 114  116 212 116  117 213 117  117 214 117  118 216 118  119 217 119  119 217 119  119 217 119  118 215 118  117 214 117  116 213 116  117 214 117  118 215 118  117 215 117  117 214 117  117 214 117  116 213 116  115 211 115  115 210 115  115 210 115  115 210 115  114 209 114  112 205 112  110 201 110  107 195 107  103 189 103  97 178 97  58 107 58  58 106 58  58 106 58  58 106 58  57 105 57  57 105 57  57 104 57  57 104 57  57 104 57  56 103 56  56 103 56  56 102 56  56 102 56  55 101 55  55 101 55  55 100 55  55 100 55  54 100 54  54 99 54  54 99 54  128 233 128  112 204 112  96 176 96  99 182 99  108 197 108  120 219 120  125 229 125  120 219 120  109 199 109  100 184 100  97 177 97  93 170 93  102 186 102  105 192 105  99 182 99  102 187 102  104 189 104  90 166 90  69 127 69  16 30 16  43 78 43  68 68 83  69 69 84  70 70 85  71 71 87  71 71 88  72 72 89  73 73 90  74 74 91  75 75 92  76 76 93  76 76 94  77 77 95  78 78 95  79 79 96  79 79 97  80 80 98  81 81 99  81 81 100  82 82 101  83 83 101  83 83 102  84 84 103  85 85 104  85 85 104  86 86 105  86 86 106  87 87 106  87 87 107  88 88 108  88 88 108  89 89 109  89 89 110  90 90 110  90 90 111  91 91 111  91 91 112  92 92 112  92 92 113  93 93 114  93 93 114  
114 93 93  113 92 92  113 92 92  112 91 91  112 91 91  111 91 91  110 90 90  110 90 90  109 89 89  109 89 89  108 88 88  107 88 88  107 87 87  106 87 87  105 86 86  105 85 85  104 85 85  103 84 84  103 84 84  102 83 83  101 82 82  100 82 82  99 81 81  99 80 80  98 80 80  97 79 79  96 78 78  95 78 78  16 30 16  61 112 61  60 109 60  62 113 62  66 122 66  71 130 71  75 137 75  79 146 79  84 153 84  88 160 88  91 166 91  96 175 96  101 185 101  105 192 105  104 190 104  78 64 64  77 63 63  76 62 62  75 61 61  74 60 60  72 59 59  71 58 58  50 93 50  51 93 51  51 94 51  51 94 51  52 95 52  52 95 52  52 96 52  52 96 52  53 97 53  53 97 53  53 98 53  53 98 53  54 99 54  54 99 54  70 129 70  78 143 78  84 153 84  86 158 86  87 159 87  86 157 86  85 155 85  86 158 86  110 201 110  134 244 134  57 104 57  57 104 57  57 105 57  57 105 57  58 105 58  58 106 58  58 106 58  16 30 16  16 30 16  16 30 16  16 30 16  45 82 45  68 124 68  82 150 82  90 165 90  98 180 98  105 192 105  112 205 112  117 214 117  117 215 117  118 215 118  118 216 118  118 216 118  118 216 118  118 216 118  118 216 118  118 215 118  117 215 117  115 211 115  115 211 115  115 211 115  115 210 115  114 209 114  114 208 114  113 207 113  113 207 113  114 209 114  114 209 114  114 209 114  114 208 114  113 206 113  110 202 110  108 198 108  105 192 105  99 182 99  87 160 87  58 106 58  58 105 58  57 105 57  57 105 57  57 104 57  57 104 57  56 104 56  56 103 56  56 103 56  56 102 56  56 102 56  55 101 55  55 101 55  55 100 55  55 100 55  54 99 54  54 99 54  54 99 54  116 212 116  130 238 130  108 198 108  98 180 98  100 183 100  123 225 123  123 225 123  127 233 127  129 236 129  110 201 110  100 183 100  101 185 101  93 171 93  104 190 104  104 190 104  104 190 104  101 186 101  103 188 103  89 162 89  72 132 72  16 30 16  67 67 82  68 68 83  69 69 84  69 69 85  70 70 86  71 71 87  72 72 88  73 73 89  74 74 90  74 74 91  75 75 92  76 76 93  77 77 94  78 78 95  78 78 96  79 79 97  80 80 98  80 80 99  81 81 99  82 82 100  82 82 101  83 83 102  84 84 103  84 84 103  85 85 104  85 85 105  86 86 105  87 87 106  87 87 107  88 88 107  88 88 108  89 89 109  89 89 109  90 90 110  90 90 110  91 91 111  91 91 112  91 91 112  92 92 113  92 92 113  93 93 114  
113 92 92  113 92 92  112 92 92  112 91 91  111 91 91  111 90 90  110 90 90  109 89 89  109 89 89  108 88 88  108 88 88  107 87 87  106 87 87  106 86 86  105 86 86  104 85 85  104 85 85  103 84 84  102 83 83  101 83 83  101 82 82  100 81 81  99 81 81  98 80 80  97 79 79  96 79 79  96 78 78  95 77 77  94 76 76  51 94 51  54 100 54  61 112 61  67 122 67  71 131 71  75 137 75  80 146 80  84 154 84  90 165 90  98 179 98  104 191 104  109 200 109  112 205 112  113 206 113  109 199 109  77 63 63  76 62 62  74 61 61  73 60 60  72 59 59  71 58 58  50 92 50  51 93 51  51 93 51  51 94 51  51 94 51  52 95 52  52 95 52  52 96 52  52 96 52  53 97 53  53 97 53  53 98 53  53 98 53  76 140 76  83 151 83  85 155 85  89 164 89  94 172 94  94 172 94  90 164 90  81 149 81  83 153 83  109 199 109  124 226 124  56 103 56  57 104 57  57 104 57  57 105 57  57 105 57  57 105 57  58 106 58  58 106 58  51 93 51  54 99 54  16 30 16  62 114 62  87 160 87  89 163 89  94 171 94  101 186 101  108 197 108  114 209 114  117 214 117  117 214 117  117 214 117  117 213 117  116 213 116  117 214 117  117 214 117  117 214 117  117 214 117  117 213 117  116 212 116  116 212 116  115 211 115  114 209 114  111 203 111  110 201 110  110 201 110  112 205 112  114 208 114  115 210 115  115 210 115  115 211 115  114 209 114  113 206 113  110 202 110  107 195 107  101 184 101  91 166 91  72 132 72  57 105 57  57 105 57  57 104 57  57 104 57  56 103 56  56 103 56  56 103 56  56 102 56  55 102 55  55 101 55  55 101 55  55 100 55  55 100 55  54 99 54  54 99 54  54 99 54  53 98 53  131 240 131  126 230 126  102 186 102  96 175 96  97 177 97  124 227 124  125 229 125  125 228 125  115 211 115  123 225 123  99 180 99  90 164 90  94 172 94  101 185 101  102 187 102  103 188 103  100 183 100  101 185 101  89 162 89  73 135 73  16 30 16  66 66 81  67 67 83  68 68 84  69 69 85  70 70 86  71 71 87  72 72 88  73 73 89  73 73 90  74 74 91  75 75 92  76 76 93  76 76 94  77 77 95  78 78 96  79 79 96  79 79 97  80 80 98  81 81 99  81 81 100  82 82 101  83 83 101  83 83 102  84 84 103  85 85 104  85 85 104  86 86 105  86 86 106  87 87 106  87 87 107  88 88 108  88 88 108  89 89 109  89 89 109  90 90 110  90 90 111  91 91 111  91 91 112  92 92 112  92 92 113  92 92 113  
113 92 92  112 92 92  112 91 91  111 91 91  111 90 90  110 90 90  110 89 89  109 89 89  108 88 88  108 88 88  107 87 87  107 87 87  106 86 86  105 86 86  105 85 85  104 85 85  103 84 84  103 84 84  102 83 83  101 82 82  100 82 82  99 81 81  99 80 80  98 80 80  97 79 79  96 78 78  95 78 78  94 77 77  93 76 76  92 75 75  48 89 48  62 113 62  67 123 67  72 131 72  75 138 75  82 149 82  91 166 91  98 180 98  105 191 105  108 198 108  111 203 111  114 208 114  117 215 117  116 213 116  77 62 62  75 61 61  74 60 60  73 59 59  72 58 58  71 57 57  50 92 50  50 92 50  51 93 51  51 93 51  51 94 51  51 94 51  52 95 52  52 95 52  52 96 52  52 96 52  53 97 53  53 97 53  60 109 60  88 162 88  88 161 88  86 158 86  85 155 85  89 164 89  90 164 90  88 162 88  79 145 79  79 144 79  101 186 101  107 196 107  142 255 142  56 103 56  57 104 57  57 104 57  57 104 57  57 105 57  57 105 57  57 105 57  64 118 64  60 110 60  80 147 80  94 172 94  95 173 95  95 174 95  100 183 100  104 191 104  110 201 110  115 210 115  115 210 115  115 210 115  115 210 115  115 210 115  114 209 114  115 210 115  116 212 116  116 212 116  116 211 116  115 210 115  116 212 116  117 214 117  116 213 116  116 212 116  115 211 115  112 205 112  113 206 113  114 209 114  116 212 116  116 212 116  116 212 116  116 212 116  115 211 115  113 206 113  109 200 109  105 192 105  100 183 100  93 170 93  80 147 80  57 104 57  57 104 57  57 104 57  56 103 56  56 103 56  56 102 56  56 102 56  55 102 55  55 101 55  55 101 55  55 100 55  54 100 54  54 99 54  54 99 54  54 99 54  53 98 53  127 232 127  132 242 132  116 213 116  88 161 88  89 163 89  119 217 119  123 225 123  130 237 130  130 238 130  122 222 122  104 189 104  110 201 110  89 163 89  95 173 95  98 179 98  100 182 100  101 184 101  101 186 101  99 181 99  88 161 88  72 131 72  16 30 16  66 66 81  67 67 82  68 68 83  69 69 84  70 70 85  71 71 87  71 71 88  72 72 89  73 73 90  74 74 91  75 75 92  75 75 92  76 76 93  77 77 94  78 78 95  78 78 96  79 79 97  80 80 98  80 80 99  81 81 99  82 82 100  82 82 101  83 83 102  84 84 103  84 84 103  85 85 104  85 85 105  86 86 105  86 86 106  87 87 107  87 87 107  88 88 108  88 88 108  89 89 109  89 89 110  90 90 110  90 90 111  91 91 111  91 91 112  92 92 112  92 92 113  
112 92 92  112 91 91  111 91 91  111 90 90  110 90 90  110 90 90  109 89 89  109 89 89  108 88 88  107 88 88  107 87 87  106 87 87  106 86 86  105 86 86  104 85 85  104 84 84  103 84 84  102 83 83  101 83 83  101 82 82  100 81 81  99 81 81  98 80 80  97 79 79  97 79 79  96 78 78  95 77 77  94 77 77  93 76 76  92 75 75  91 74 74  26 48 26  56 102 56  70 128 70  76 140 76  84 154 84  91 166 91  97 177 97  101 185 101  105 192 105  108 198 108  113 207 113  117 215 117  117 215 117  112 205 112  75 61 61  74 60 60  73 59 59  73 73 73  73 73 73  74 74 74  74 74 74  74 74 74  75 75 75  75 75 75  75 75 75  76 76 76  76 76 76  76 76 76  77 77 77  77 77 77  77 77 77  66 121 66  93 170 93  89 163 89  86 158 86  81 149 81  84 153 84  84 153 84  83 152 83  78 143 78  75 137 75  80 146 80  105 192 105  133 243 133  81 81 81  82 82 82  82 82 82  82 82 82  82 82 82  82 82 82  57 105 57  67 124 67  65 120 65  88 161 88  97 177 97  96 175 96  100 183 100  105 191 105  108 198 108  111 204 111  113 206 113  112 205 112  112 204 112  112 206 112  112 205 112  112 205 112  113 206 113  114 208 114  114 209 114  114 209 114  114 208 114  116 211 116  117 214 117  117 214 117  117 214 117  117 214 117  117 214 117  117 215 117  118 216 118  118 216 118  118 215 118  117 214 117  117 214 117  115 210 115  112 205 112  108 198 108  104 190 104  98 180 98  92 169 92  82 150 82  62 114 62  82 82 82  82 82 82  81 81 81  81 81 81  81 81 81  81 81 81  80 80 80  80 80 80  80 80 80  80 80 80  79 79 79  79 79 79  79 79 79  78 78 78  78 78 78  130 238 130  128 234 128  113 207 113  83 152 83  85 156 85  125 229 125  121 222 121  124 227 124  127 232 127  115 211 115  99 181 99  94 171 94  85 156 85  87 159 87  96 175 96  101 184 101  103 189 103  104 191 104  104 190 104  96 176 96  74 136 74  65 65 80  66 66 81  67 67 82  68 68 83  69 69 84  69 69 85  70 70 86  71 71 87  72 72 88  73 73 89  74 74 90  74 74 91  75 75 92  76 76 93  77 77 94  77 77 95  78 78 96  79 79 97  79 79 97  80 80 98  81 81 99  81 81 100  82 82 101  83 83 101  83 83 102  84 84 103  84 84 104  85 85 104  86 86 105  86 86 106  87 87 106  87 87 107  88 88 107  88 88 108  89 89 109  89 89 109  90 90 110  90 90 110  90 90 111  91 91 111  91 91 112  92 92 112  
112 91 91  112 91 91  111 91 91  111 90 90  110 90 90  109 89 89  109 89 89  108 88 88  108 88 88  107 87 87  106 87 87  106 86 86  105 86 86  105 85 85  104 85 85  103 84 84  102 84 84  102 83 83  101 82 82  100 82 82  99 81 81  99 80 80  98 80 80  97 79 79  96 78 78  95 78 78  94 77 77  94 76 76  93 76 76  92 75 75  91 74 74  29 54 29  58 107 58  67 123 67  72 132 72  79 145 79  87 160 87  92 169 92  97 177 97  101 184 101  104 191 104  111 203 111  114 208 114  115 210 115  112 206 112  99 182 99  79 79 79  80 80 80  80 80 80  80 80 80  81 81 81  81 81 81  81 81 81  82 82 82  82 82 82  83 83 83  83 83 83  83 83 83  84 84 84  84 84 84  84 84 84  22 40 22  63 115 63  82 150 82  83 152 83  83 151 83  79 146 79  79 145 79  79 144 79  79 144 79  75 138 75  73 133 73  85 156 85  105 193 105  125 229 125  89 89 89  89 89 89  90 90 90  90 90 90  90 90 90  90 90 90  54 99 54  71 129 71  76 139 76  90 164 90  97 177 97  99 181 99  104 190 104  107 195 107  108 198 108  109 200 109  110 200 110  108 198 108  108 197 108  110 201 110  109 200 109  109 199 109  109 200 109  110 201 110  112 204 112  113 206 113  113 207 113  115 210 115  116 213 116  118 217 118  119 218 119  120 219 120  120 219 120  119 219 119  119 218 119  119 217 119  117 215 117  117 214 117  115 210 115  113 207 113  111 203 111  107 196 107  103 188 103  97 177 97  91 166 91  82 150 82  64 118 64  90 90 90  89 89 89  89 89 89  89 89 89  89 89 89  88 88 88  88 88 88  88 88 88  87 87 87  87 87 87  87 87 87  86 86 86  86 86 86  86 86 86  85 85 85  132 241 132  125 230 125  107 197 107  80 146 80  106 194 106  125 229 125  119 218 119  118 216 118  121 221 121  117 213 117  95 174 95  75 138 75  81 149 81  96 176 96  105 191 105  106 193 106  104 191 104  106 194 106  106 194 106  102 186 102  75 137 75  49 90 49  66 66 80  66 66 82  67 67 83  68 68 84  69 69 85  70 70 86  71 71 87  72 72 88  72 72 89  73 73 90  74 74 91  75 75 92  76 76 93  76 76 94  77 77 94  78 78 95  78 78 96  79 79 97  80 80 98  80 80 99  81 81 99  82 82 100  82 82 101  83 83 102  84 84 102  84 84 103  85 85 104  85 85 105  86 86 105  86 86 106  87 87 106  87 87 107  88 88 108  88 88 108  89 89 109  89 89 109  90 90 110  90 90 111  91 91 111  91 91 112  91 91 112  
112 91 91  111 91 91  111 90 90  110 90 90  110 89 89  109 89 89  108 88 88  108 88 88  107 88 88  107 87 87  106 87 87  105 86 86  105 85 85  104 85 85  103 84 84  103 84 84  102 83 83  101 83 83  101 82 82  100 81 81  99 81 81  98 80 80  97 79 79  97 79 79  96 78 78  95 77 77  94 77 77  93 76 76  92 75 75  91 74 74  90 74 74  16 30 16  54 98 54  63 116 63  68 125 68  72 131 72  77 141 77  84 154 84  90 165 90  95 174 95  100 183 100  104 191 104  108 197 108  109 200 109  110 201 110  102 187 102  86 86 86  86 86 86  87 87 87  87 87 87  87 87 87  88 88 88  88 88 88  89 89 89  89 89 89  90 90 90  90 90 90  90 90 90  91 91 91  91 91 91  92 92 92  92 92 92  58 106 58  70 128 70  78 143 78  80 147 80  79 144 79  78 143 78  77 142 77  76 140 76  75 138 75  72 132 72  82 150 82  105 192 105  120 219 120  97 97 97  97 97 97  98 98 98  98 98 98  98 98 98  99 99 99  42 78 42  66 120 66  80 146 80  89 162 89  96 175 96  100 182 100  102 187 102  104 190 104  106 193 106  107 196 107  107 195 107  105 193 105  106 193 106  107 195 107  106 195 106  104 190 104  105 191 105  105 192 105  109 199 109  111 203 111  112 205 112  114 209 114  116 213 116  118 216 118  120 219 120  120 220 120  120 220 120  120 220 120  119 218 119  118 216 118  117 214 117  115 211 115  112 205 112  108 197 108  107 195 107  106 193 106  102 186 102  96 175 96  89 163 89  81 148 81  65 119 65  98 98 98  97 97 97  97 97 97  97 97 97  96 96 96  96 96 96  96 96 96  95 95 95  95 95 95  95 95 95  94 94 94  94 94 94  94 94 94  93 93 93  93 93 93  123 225 123  118 216 118  96 175 96  107 195 107  125 229 125  126 230 126  126 230 126  107 195 107  109 199 109  108 198 108  107 196 107  97 177 97  90 166 90  98 180 98  98 180 98  104 191 104  105 192 105  106 193 106  107 196 107  105 192 105  93 170 93  45 82 45  83 83 83  83 83 83  82 82 82  68 68 83  69 69 84  70 70 85  70 70 86  71 71 87  72 72 88  73 73 89  74 74 90  74 74 91  75 75 92  76 76 93  77 77 94  77 77 95  78 78 96  79 79 97  79 79 97  80 80 98  81 81 99  81 81 100  82 82 101  83 83 101  83 83 102  84 84 103  84 84 103  85 85 104  85 85 105  86 86 105  87 87 106  87 87 107  88 88 107  88 88 108  88 88 108  89 89 109  89 89 110  90 90 110  90 90 111  91 91 111  91 91 112  
111 91 91  111 90 90  110 90 90  110 89 89  109 89 89  109 89 89  108 88 88  107 88 88  107 87 87  106 87 87  106 86 86  105 86 86  104 85 85  104 85 85  103 84 84  102 83 83  102 83 83  101 82 82  100 82 82  99 81 81  99 80 80  98 80 80  97 79 79  96 78 78  95 78 78  95 77 77  94 76 76  93 76 76  92 75 75  91 74 74  90 73 73  16 30 16  38 70 38  57 104 57  62 114 62  65 119 65  68 125 68  72 132 72  79 145 79  86 158 86  92 169 92  97 178 97  101 184 101  103 189 103  105 192 105  101 185 101  92 92 92  93 93 93  93 93 93  94 94 94  94 94 94  95 95 95  95 95 95  95 95 95  96 96 96  96 96 96  97 97 97  97 97 97  98 98 98  98 98 98  99 99 99  99 99 99  54 100 54  66 121 66  73 134 73  77 142 77  78 142 78  78 142 78  77 141 77  76 139 76  74 136 74  72 131 72  77 141 77  104 191 104  114 209 114  105 105 105  106 106 106  106 106 106  107 107 107  107 107 107  107 107 107  27 50 27  58 106 58  74 135 74  83 152 83  90 165 90  95 174 95  99 181 99  103 188 103  105 192 105  103 189 103  103 189 103  104 190 104  104 189 104  104 189 104  104 189 104  100 184 100  98 180 98  99 181 99  102 187 102  106 194 106  111 204 111  113 206 113  116 212 116  118 216 118  119 218 119  119 217 119  118 216 118  117 215 117  116 213 116  115 211 115  114 208 114  112 205 112  109 199 109  104 190 104  104 189 104  102 186 102  100 183 100  94 172 94  87 159 87  79 145 79  66 121 66  106 106 106  106 106 106  105 105 105  105 105 105  105 105 105  104 104 104  104 104 104  103 103 103  103 103 103  102 102 102  102 102 102  101 101 101  101 101 101  101 101 101  100 100 100  86 157 86  94 171 94  115 210 115  129 235 129  125 228 125  129 236 129  125 228 125  112 205 112  107 196 107  110 201 110  114 209 114  112 206 112  101 184 101  99 181 99  95 174 95  102 187 102  106 194 106  104 191 104  107 196 107  107 197 107  100 183 100  71 129 71  90 90 90  89 89 89  89 89 89  88 88 88  88 88 88  87 87 87  87 87 87  86 86 86  72 72 88  73 73 89  73 73 90  74 74 91  75 75 92  76 76 93  76 76 94  77 77 95  78 78 95  78 78 96  79 79 97  80 80 98  80 80 99  81 81 99  82 82 100  82 82 101  83 83 102  83 83 102  84 84 103  85 85 104  85 85 104  86 86 105  86 86 106  87 87 106  87 87 107  88 88 107  88 88 108  89 89 109  89 89 109  89 89 110  90 90 110  90 90 111  91 91 111  
111 90 90  110 90 90  110 90 90  109 89 89  109 89 89  108 88 88  108 88 88  107 87 87  106 87 87  106 86 86  105 86 86  105 85 85  104 85 85  103 84 84  103 84 84  102 83 83  101 83 83  100 82 82  100 81 81  99 81 81  98 80 80  97 79 79  97 79 79  96 78 78  95 77 77  94 77 77  93 76 76  92 75 75  90 90 90  90 90 90  91 91 91  91 91 91  16 30 16  51 94 51  57 104 57  60 110 60  62 114 62  66 120 66  69 126 69  75 137 75  83 151 83  88 162 88  93 169 93  97 177 97  99 182 99  96 176 96  99 99 99  99 99 99  100 100 100  100 100 100  101 101 101  101 101 101  102 102 102  102 102 102  103 103 103  103 103 103  104 104 104  104 104 104  105 105 105  105 105 105  106 106 106  107 107 107  46 85 46  62 113 62  69 127 69  75 138 75  76 139 76  77 141 77  76 140 76  75 138 75  74 135 74  70 129 70  74 136 74  103 189 103  114 114 114  114 114 114  115 115 115  115 115 115  116 116 116  116 116 116  117 117 117  117 117 117  51 93 51  67 122 67  77 141 77  84 154 84  89 163 89  95 173 95  99 180 99  100 183 100  98 180 98  99 180 99  100 182 100  101 184 101  101 184 101  101 184 101  96 176 96  92 169 92  91 166 91  93 170 93  101 185 101  107 197 107  111 203 111  114 208 114  115 210 115  115 210 115  115 209 115  114 208 114  113 207 113  112 206 112  112 204 112  110 201 110  108 198 108  105 192 105  101 184 101  102 186 102  100 183 100  97 178 97  91 167 91  85 155 85  77 140 77  65 119 65  44 80 44  115 115 115  114 114 114  114 114 114  113 113 113  113 113 113  112 112 112  111 111 111  111 111 111  110 110 110  110 110 110  109 109 109  109 109 109  108 108 108  108 108 108  107 107 107  104 191 104  131 240 131  123 224 123  129 235 129  130 238 130  129 236 129  126 231 126  122 223 122  117 214 117  114 208 114  109 199 109  103 188 103  99 182 99  96 175 96  114 209 114  112 206 112  107 195 107  107 195 107  109 200 109  104 190 104  89 162 89  36 65 36  95 95 95  95 95 95  94 94 94  94 94 94  93 93 93  93 93 93  92 92 92  92 92 92  91 91 91  91 91 91  90 90 90  90 90 90  89 89 89  76 76 93  77 77 94  77 77 95  78 78 96  79 79 97  79 79 97  80 80 98  81 81 99  81 81 100  82 82 100  83 83 101  83 83 102  84 84 103  84 84 103  85 85 104  85 85 105  86 86 105  86 86 106  87 87 106  87 87 107  88 88 108  88 88 108  89 89 109  89 89 109  90 90 110  90 90 110  90 90 111  
110 90 90  110 90 90  109 89 89  109 89 89  108 88 88  108 88 88  107 87 87  107 87 87  106 86 86  105 86 86  105 85 85  104 85 85  104 84 84  103 84 84  102 83 83  101 83 83  101 82 82  100 82 82  99 81 81  99 80 80  98 80 80  97 79 79  96 78 78  93 93 93  93 93 93  94 94 94  94 94 94  95 95 95  95 95 95  96 96 96  96 96 96  97 97 97  97 97 97  34 63 34  50 91 50  53 97 53  56 103 56  59 109 59  64 117 64  67 122 67  72 132 72  80 146 80  86 157 86  90 165 90  93 170 93  93 170 93  105 105 105  106 106 106  106 106 106  107 107 107  107 107 107  108 108 108  109 109 109  109 109 109  110 110 110  110 110 110  111 111 111  112 112 112  112 112 112  113 113 113  114 114 114  114 114 114  31 57 31  56 102 56  66 120 66  72 131 72  75 137 75  76 139 76  76 139 76  74 136 74  72 132 72  69 126 69  74 135 74  106 194 106  123 123 123  124 124 124  124 124 124  125 125 125  126 126 126  126 126 126  127 127 127  128 128 128  40 73 40  60 109 60  70 127 70  77 141 77  83 151 83  87 160 87  91 167 91  91 167 91  92 168 92  95 174 95  97 177 97  98 178 98  97 178 97  97 178 97  94 173 94  90 164 90  85 156 85  83 153 83  95 174 95  103 188 103  106 195 106  109 200 109  110 202 110  110 201 110  109 199 109  108 197 108  108 197 108  107 196 107  107 195 107  105 193 105  103 188 103  99 181 99  98 179 98  100 182 100  98 180 98  95 173 95  88 160 88  81 149 81  73 133 73  62 113 62  41 76 41  124 124 124  124 124 124  123 123 123  122 122 122  122 122 122  121 121 121  120 120 120  120 120 120  119 119 119  118 118 118  117 117 117  117 117 117  116 116 116  115 115 115  119 218 119  131 240 131  126 230 126  127 233 127  130 238 130  129 237 129  127 232 127  123 226 123  120 220 120  119 218 119  118 216 118  114 209 114  108 198 108  102 186 102  104 190 104  110 202 110  117 214 117  115 210 115  109 199 109  110 202 110  107 197 107  99 181 99  71 130 71  101 101 101  101 101 101  100 100 100  99 99 99  99 99 99  98 98 98  98 98 98  97 97 97  97 97 97  96 96 96  96 96 96  95 95 95  95 95 95  94 94 94  94 94 94  93 93 93  93 93 93  78 78 96  79 79 97  80 80 98  80 80 99  81 81 99  82 82 100  82 82 101  83 83 101  83 83 102  84 84 103  84 84 104  85 85 104  85 85 105  86 86 105  86 86 106  87 87 107  87 87 107  88 88 108  88 88 108  89 89 109  89 89 109  90 90 110  90 90 110  
110 90 90  110 89 89  109 89 89  108 88 88  108 88 88  107 88 88  107 87 87  106 87 87  106 86 86  105 86 86  104 85 85  104 85 85  103 84 84  102 84 84  102 83 83  101 82 82  100 82 82  100 81 81  96 96 96  96 96 96  97 97 97  97 97 97  98 98 98  98 98 98  99 99 99  99 99 99  100 100 100  100 100 100  101 101 101  101 101 101  102 102 102  102 102 102  103 103 103  104 104 104  41 75 41  45 83 45  49 89 49  52 96 52  58 106 58  63 115 63  68 124 68  76 139 76  81 149 81  85 156 85  87 160 87  89 163 89  111 111 111  112 112 112  113 113 113  113 113 113  114 114 114  115 115 115  115 115 115  116 116 116  117 117 117  118 118 118  118 118 118  119 119 119  120 120 120  121 121 121  121 121 121  122 122 122  123 123 123  50 92 50  62 113 62  68 125 68  73 134 73  74 136 74  74 135 74  73 133 73  71 130 71  67 122 67  83 151 83  106 195 106  133 133 133  134 134 134  135 135 135  136 136 136  137 137 137  138 138 138  138 138 138  139 139 139  16 30 16  45 83 45  60 110 60  68 125 68  75 137 75  79 145 79  82 150 82  83 152 83  85 155 85  89 162 89  92 168 92  93 170 93  93 170 93  93 171 93  92 169 92  87 159 87  82 150 82  78 143 78  86 157 86  97 178 97  102 187 102  104 191 104  104 191 104  103 189 103  102 186 102  102 187 102  102 186 102  101 185 101  100 183 100  99 182 99  98 179 98  97 177 97  97 178 97  97 178 97  96 176 96  92 168 92  84 154 84  77 142 77  69 126 69  58 106 58  48 87 48  135 135 135  134 134 134  133 133 133  132 132 132  131 131 131  130 130 130  130 130 130  129 129 129  128 128 128  127 127 127  126 126 126  125 125 125  125 125 125  124 124 124  124 226 124  129 236 129  126 230 126  130 237 130  130 238 130  128 233 128  125 229 125  124 227 124  123 225 123  122 223 122  120 220 120  118 216 118  112 205 112  106 194 106  109 199 109  111 203 111  113 206 113  117 214 117  115 210 115  111 203 111  110 201 110  101 185 101  86 158 86  107 107 107  106 106 106  106 106 106  105 105 105  105 105 105  104 104 104  104 104 104  103 103 103  102 102 102  102 102 102  101 101 101  101 101 101  100 100 100  100 100 100  99 99 99  99 99 99  98 98 98  98 98 98  97 97 97  97 97 97  96 96 96  96 96 96  81 81 100  82 82 100  82 82 101  83 83 102  84 84 102  84 84 103  85 85 104  85 85 104  86 86 105  86 86 106  87 87 106  87 87 107  88 88 107  88 88 108  88 88 108  89 89 109  89 89 110  90 90 110  
110 89 89  109 89 89  109 89 89  108 88 88  108 88 88  107 87 87  106 87 87  106 86 86  105 86 86  105 85 85  104 85 85  103 84 84  103 84 84  98 98 98  99 99 99  99 99 99  100 100 100  100 100 100  101 101 101  101 101 101  102 102 102  102 102 102  103 103 103  103 103 103  104 104 104  104 104 104  105 105 105  106 106 106  106 106 106  107 107 107  107 107 107  108 108 108  108 108 108  109 109 109  16 30 16  36 67 36  44 81 44  51 93 51  53 96 53  58 106 58  61 112 61  72 131 72  77 141 77  81 148 81  84 154 84  85 155 85  118 118 118  119 119 119  119 119 119  120 120 120  121 121 121  122 122 122  122 122 122  123 123 123  124 124 124  125 125 125  126 126 126  127 127 127  128 128 128  128 128 128  129 129 129  130 130 130  131 131 131  45 82 45  56 103 56  65 119 65  70 128 70  73 133 73  72 132 72  75 137 75  73 133 73  69 126 69  88 160 88  103 189 103  144 144 144  145 145 145  147 147 147  148 148 148  149 149 149  150 150 150  151 151 151  152 152 152  153 153 153  22 40 22  46 84 46  58 107 58  65 120 65  71 130 71  75 137 75  76 140 76  79 144 79  82 150 82  85 155 85  87 159 87  87 159 87  87 160 87  89 162 89  84 155 84  81 148 81  76 139 76  71 131 71  86 158 86  95 174 95  96 176 96  97 177 97  95 174 95  98 179 98  100 183 100  99 182 99  99 181 99  97 178 97  96 176 96  96 176 96  95 175 95  95 174 95  95 173 95  93 171 93  86 158 86  77 141 77  74 135 74  66 120 66  57 104 57  64 116 64  147 147 147  145 145 145  144 144 144  143 143 143  142 142 142  141 141 141  140 140 140  139 139 139  138 138 138  136 136 136  135 135 135  134 134 134  133 133 133  119 218 119  129 236 129  124 227 124  129 236 129  130 238 130  128 235 128  127 232 127  126 230 126  125 228 125  123 226 123  122 223 122  121 220 121  119 217 119  115 210 115  110 202 110  112 206 112  114 209 114  115 211 115  116 212 116  116 213 116  115 210 115  112 204 112  105 192 105  96 176 96  71 130 71  112 112 112  112 112 112  111 111 111  110 110 110  110 110 110  109 109 109  108 108 108  108 108 108  107 107 107  107 107 107  106 106 106  106 106 106  105 105 105  104 104 104  104 104 104  103 103 103  103 103 103  102 102 102  102 102 102  101 101 101  101 101 101  100 100 100  100 100 100  99 99 99  99 99 99  98 98 98  84 84 103  84 84 103  85 85 104  85 85 105  86 86 105  86 86 106  87 87 106  87 87 107  88 88 108  88 88 108  89 89 109  89 89 109  89 89 110  
109 89 89  109 89 89  108 88 88  108 88 88  107 87 87  107 87 87  106 86 86  105 86 86  100 100 100  101 101 101  101 101 101  102 102 102  102 102 102  103 103 103  103 103 103  104 104 104  104 104 104  105 105 105  105 105 105  106 106 106  107 107 107  107 107 107  108 108 108  108 108 108  109 109 109  110 110 110  110 110 110  111 111 111  111 111 111  112 112 112  113 113 113  113 113 113  114 114 114  115 115 115  115 115 115  39 71 39  43 80 43  49 89 49  52 95 52  53 97 53  58 106 58  71 129 71  75 138 75  77 141 77  80 147 80  81 148 81  124 124 124  125 125 125  126 126 126  127 127 127  128 128 128  129 129 129  130 130 130  131 131 131  131 131 131  132 132 132  133 133 133  135 135 135  136 136 136  137 137 137  138 138 138  139 139 139  140 140 140  21 39 21  52 95 52  61 112 61  67 122 67  70 128 70  74 135 74  77 141 77  75 137 75  71 130 71  88 162 88  100 184 100  156 156 156  158 158 158  159 159 159  161 161 161  162 162 162  164 164 164  165 165 165  167 167 167  168 168 168  170 170 170  16 30 16  44 81 44  53 98 53  60 110 60  66 120 66  69 126 69  72 132 72  76 138 76  79 144 79  81 149 81  81 149 81  83 152 83  86 157 86  82 151 82  80 146 80  74 135 74  69 127 69  71 130 71  81 149 81  88 160 88  88 160 88  90 165 90  93 171 93  96 176 96  96 177 96  96 175 96  94 173 94  93 171 93  94 171 94  94 172 94  92 168 92  91 166 91  85 156 85  77 141 77  70 129 70  68 125 68  63 115 63  54 99 54  76 139 76  88 162 88  105 191 105  156 156 156  155 155 155  153 153 153  152 152 152  150 150 150  149 149 149  148 148 148  146 146 146  145 145 145  144 144 144  143 143 143  122 224 122  126 231 126  128 234 128  130 238 130  130 237 130  128 234 128  126 231 126  125 229 125  124 227 124  123 225 123  122 223 122  121 221 121  119 218 119  117 215 117  114 208 114  115 211 115  117 213 117  117 214 117  117 215 117  117 214 117  116 213 116  114 208 114  109 199 109  100 182 100  86 158 86  118 118 118  117 117 117  117 117 117  116 116 116  115 115 115  115 115 115  114 114 114  113 113 113  113 113 113  112 112 112  111 111 111  111 111 111  110 110 110  110 110 110  109 109 109  108 108 108  108 108 108  107 107 107  107 107 107  106 106 106  105 105 105  105 105 105  104 104 104  104 104 104  103 103 103  103 103 103  102 102 102  102 102 102  101 101 101  101 101 101  100 100 100  86 86 105  86 86 106  87 87 107  87 87 107  88 88 108  88 88 108  89 89 109  89 89 109  
109 89 89  108 88 88  108 88 88  102 102 102  102 102 102  103 103 103  104 104 104  104 104 104  105 105 105  105 105 105  106 106 106  106 106 106  107 107 107  107 107 107  108 108 108  108 108 108  109 109 109  110 110 110  110 110 110  111 111 111  111 111 111  112 112 112  113 113 113  113 113 113  114 114 114  115 115 115  115 115 115  116 116 116  117 117 117  117 117 117  118 118 118  119 119 119  119 119 119  120 120 120  121 121 121  16 30 16  48 88 48  53 97 53  56 104 56  57 105 57  60 110 60  72 132 72  77 142 77  79 144 79  78 143 78  77 141 77  131 131 131  132 132 132  133 133 133  134 134 134  135 135 135  136 136 136  137 137 137  138 138 138  139 139 139  140 140 140  141 141 141  143 143 143  144 144 144  145 145 145  146 146 146  148 148 148  149 149 149  151 151 151  44 81 44  56 103 56  63 115 63  67 123 67  71 129 71  73 134 73  72 132 72  74 135 74  90 165 90  99 181 99  169 169 169  170 170 170  172 172 172  174 174 174  176 176 176  178 178 178  180 180 180  182 182 182  184 184 184  186 186 186  188 188 188  16 30 16  38 71 38  47 86 47  54 99 54  60 109 60  64 118 64  68 125 68  72 132 72  75 138 75  78 143 78  82 150 82  82 151 82  82 150 82  80 146 80  73 134 73  67 123 67  63 115 63  72 132 72  79 144 79  82 150 82  85 156 85  89 162 89  91 167 91  93 170 93  92 168 92  91 166 91  92 168 92  93 170 93  92 168 92  90 165 90  85 155 85  77 141 77  68 125 68  68 125 68  65 120 65  62 114 62  52 95 52  85 156 85  104 191 104  110 200 110  102 187 102  68 124 68  165 165 165  163 163 163  162 162 162  160 160 160  158 158 158  157 157 157  155 155 155  153 153 153  152 152 152  120 220 120  126 231 126  129 236 129  129 236 129  129 235 129  128 234 128  126 230 126  124 227 124  123 226 123  122 224 122  121 222 121  120 220 120  119 218 119  118 215 118  117 213 117  117 215 117  117 214 117  117 214 117  116 213 116  116 212 116  115 211 115  114 209 114  111 204 111  101 185 101  93 170 93  66 121 66  123 123 123  122 122 122  121 121 121  121 121 121  120 120 120  119 119 119  119 119 119  118 118 118  117 117 117  117 117 117  116 116 116  115 115 115  115 115 115  114 114 114  113 113 113  113 113 113  112 112 112  111 111 111  111 111 111  110 110 110  110 110 110  109 109 109  108 108 108  108 108 108  107 107 107  107 107 107  106 106 106  106 106 106  105 105 105  105 105 105  104 104 104  104 104 104  103 103 103  102 102 102  102 102 102  88 88 108  88 88 108  89 89 109  
105 105 105  105 105 105  106 106 106  106 106 106  107 107 107  107 107 107  108 108 108  108 108 108  109 109 109  110 110 110  110 110 110  111 111 111  111 111 111  112 112 112  112 112 112  113 113 113  114 114 114  114 114 114  115 115 115  116 116 116  116 116 116  117 117 117  117 117 117  118 118 118  119 119 119  120 120 120  120 120 120  121 121 121  122 122 122  122 122 122  123 123 123  124 124 124  125 125 125  125 125 125  126 126 126  127 127 127  54 99 54  61 111 61  63 115 63  64 117 64  67 122 67  74 135 74  79 145 79  80 147 80  80 147 80  80 147 80  137 137 137  138 138 138  139 139 139  140 140 140  142 142 142  143 143 143  144 144 144  145 145 145  146 146 146  148 148 148  149 149 149  151 151 151  152 152 152  153 153 153  155 155 155  157 157 157  158 158 158  160 160 160  25 46 25  50 93 50  65 118 65  75 137 75  75 137 75  74 135 74  74 135 74  90 165 90  106 194 106  179 179 179  181 181 181  183 183 183  186 186 186  188 188 188  190 190 190  193 193 193  195 195 195  197 197 197  200 200 200  202 202 202  204 204 204  207 207 207  16 30 16  25 47 25  36 66 36  44 80 44  50 91 50  55 101 55  60 111 60  68 124 68  77 140 77  80 146 80  81 147 81  81 148 81  80 146 80  75 137 75  67 122 67  61 111 61  65 120 65  76 139 76  80 147 80  81 149 81  84 154 84  87 158 87  89 162 89  88 161 88  89 162 89  90 165 90  91 167 91  88 161 88  83 153 83  77 141 77  69 126 69  65 120 65  67 122 67  64 118 64  61 112 61  50 91 50  92 169 92  105 192 105  106 193 106  98 179 98  74 136 74  177 177 177  175 175 175  173 173 173  171 171 171  169 169 169  167 167 167  165 165 165  163 163 163  161 161 161  122 223 122  126 231 126  128 233 128  127 233 127  127 232 127  126 230 126  125 228 125  124 226 124  123 225 123  122 223 122  121 222 121  121 221 121  120 220 120  118 215 118  116 212 116  114 209 114  114 208 114  114 208 114  114 208 114  113 207 113  113 207 113  112 205 112  111 203 111  102 187 102  93 170 93  82 150 82  57 105 57  128 128 128  127 127 127  126 126 126  125 125 125  125 125 125  124 124 124  123 123 123  122 122 122  122 122 122  121 121 121  120 120 120  120 120 120  119 119 119  118 118 118  117 117 117  117 117 117  116 116 116  116 116 116  115 115 115  114 114 114  114 114 114  113 113 113  112 112 112  112 112 112  111 111 111  111 111 111  110 110 110  110 110 110  109 109 109  108 108 108  108 108 108  107 107 107  107 107 107  106 106 106  106 106 106  105 105 105  105 105 105  
109 109 109  109 109 109  110 110 110  110 110 110  111 111 111  112 112 112  112 112 112  113 113 113  113 113 113  114 114 114  114 114 114  115 115 115  116 116 116  116 116 116  117 117 117  118 118 118  118 118 118  119 119 119  119 119 119  120 120 120  121 121 121  122 122 122  122 122 122  123 123 123  124 124 124  124 124 124  125 125 125  126 126 126  127 127 127  127 127 127  128 128 128  129 129 129  130 130 130  131 131 131  132 132 132  132 132 132  133 133 133  71 130 71  82 150 82  94 171 94  91 166 91  86 158 86  86 157 86  90 164 90  91 167 91  93 171 93  144 144 144  145 145 145  146 146 146  147 147 147  148 148 148  150 150 150  151 151 151  152 152 152  154 154 154  155 155 155  157 157 157  158 158 158  160 160 160  162 162 162  163 163 163  165 165 165  167 167 167  169 169 169  171 171 171  42 76 42  59 109 59  76 139 76  88 160 88  88 161 88  97 177 97  115 209 115  123 226 123  108 197 108  193 193 193  196 196 196  199 199 199  201 201 201  204 204 204  207 207 207  209 209 209  212 212 212  215 215 215  218 218 218  220 220 220  223 223 223  226 226 226  16 30 16  16 30 16  16 30 16  29 52 29  37 68 37  44 81 44  62 113 62  74 136 74  78 143 78  80 146 80  80 146 80  80 146 80  76 140 76  66 121 66  60 110 60  63 115 63  74 136 74  79 146 79  81 147 81  83 151 83  84 154 84  84 154 84  86 158 86  87 158 87  88 160 88  86 158 86  81 148 81  76 140 76  69 127 69  60 111 60  65 119 65  67 124 67  63 116 63  60 111 60  66 121 66  96 175 96  103 189 103  102 187 102  93 170 93  76 139 76  188 188 188  186 186 186  184 184 184  181 181 181  179 179 179  177 177 177  175 175 175  173 173 173  110 201 110  122 222 122  124 227 124  126 230 126  125 229 125  124 227 124  124 226 124  123 225 123  123 225 123  123 224 123  123 224 123  123 224 123  122 224 122  119 217 119  117 214 117  115 211 115  114 208 114  112 205 112  111 202 111  110 200 110  110 200 110  110 200 110  109 199 109  106 195 106  101 186 101  90 164 90  66 121 66  67 123 67  48 88 48  132 132 132  132 132 132  131 131 131  130 130 130  129 129 129  128 128 128  127 127 127  127 127 127  126 126 126  125 125 125  124 124 124  124 124 124  123 123 123  122 122 122  122 122 122  121 121 121  120 120 120  119 119 119  119 119 119  118 118 118  118 118 118  117 117 117  116 116 116  116 116 116  115 115 115  114 114 114  114 114 114  113 113 113  113 113 113  112 112 112  112 112 112  111 111 111  110 110 110  110 110 110  109 109 109  109 109 109  
113 113 113  113 113 113  114 114 114  114 114 114  115 115 115  116 116 116  116 116 116  117 117 117  117 117 117  118 118 118  119 119 119  119 119 119  120 120 120  121 121 121  121 121 121  122 122 122  123 123 123  123 123 123  124 124 124  125 125 125  125 125 125  126 126 126  127 127 127  128 128 128  128 128 128  129 129 129  130 130 130  131 131 131  132 132 132  132 132 132  133 133 133  134 134 134  135 135 135  136 136 136  137 137 137  138 138 138  79 145 79  91 166 91  101 185 101  108 197 108  109 200 109  108 197 108  102 186 102  101 185 101  104 190 104  104 190 104  73 134 73  151 151 151  152 152 152  154 154 154  155 155 155  156 156 156  158 158 158  159 159 159  161 161 161  163 163 163  164 164 164  166 166 166  168 168 168  169 169 169  171 171 171  173 173 173  175 175 175  177 177 177  179 179 179  33 60 33  62 114 62  79 145 79  91 166 91  97 178 97  110 201 110  126 231 126  137 250 137  140 255 140  204 204 204  207 207 207  210 210 210  213 213 213  216 216 216  219 219 219  222 222 222  225 225 225  228 228 228  231 231 231  234 234 234  237 237 237  240 240 240  243 243 243  246 246 246  16 30 16  16 30 16  24 44 24  37 67 37  58 106 58  74 136 74  77 142 77  79 144 79  79 144 79  79 144 79  77 141 77  66 120 66  63 115 63  61 112 61  72 132 72  79 144 79  80 146 80  80 147 80  81 147 81  81 148 81  82 151 82  84 153 84  82 150 82  80 147 80  76 140 76  70 129 70  67 123 67  66 121 66  68 124 68  72 132 72  72 131 72  59 108 59  81 148 81  93 170 93  97 178 97  98 179 98  87 158 87  66 120 66  199 199 199  196 196 196  194 194 194  191 191 191  189 189 189  186 186 186  184 184 184  182 182 182  113 206 113  118 217 118  122 223 122  123 225 123  123 226 123  123 225 123  123 224 123  122 223 122  122 223 122  122 223 122  122 223 122  122 223 122  119 218 119  118 216 118  116 213 116  115 210 115  113 207 113  112 204 112  110 201 110  108 198 108  107 195 107  105 193 105  105 192 105  101 184 101  97 178 97  91 166 91  71 131 71  73 135 73  67 122 67  138 138 138  137 137 137  136 136 136  135 135 135  134 134 134  133 133 133  132 132 132  132 132 132  131 131 131  130 130 130  129 129 129  128 128 128  128 128 128  127 127 127  126 126 126  125 125 125  125 125 125  124 124 124  123 123 123  123 123 123  122 122 122  121 121 121  121 121 121  120 120 120  119 119 119  119 119 119  118 118 118  117 117 117  117 117 117  116 116 116  116 116 116  115 115 115  114 114 114  114 114 114  113 113 113  113 113 113  
117 117 117  117 117 117  118 118 118  118 118 118  119 119 119  120 120 120  120 120 120  121 121 121  122 122 122  122 122 122  123 123 123  124 124 124  124 124 124  125 125 125  126 126 126  126 126 126  127 127 127  128 128 128  128 128 128  129 129 129  130 130 130  131 131 131  131 131 131  132 132 132  133 133 133  134 134 134  135 135 135  136 136 136  136 136 136  137 137 137  138 138 138  139 139 139  140 140 140  141 141 141  90 165 90  95 174 95  101 185 101  109 200 109  112 205 112  112 205 112  112 206 112  111 203 111  108 197 108  105 192 105  106 194 106  107 195 107  105 192 105  157 157 157  158 158 158  160 160 160  161 161 161  163 163 163  164 164 164  166 166 166  168 168 168  169 169 169  171 171 171  173 173 173  175 175 175  177 177 177  179 179 179  181 181 181  183 183 183  185 185 185  187 187 187  46 84 46  75 137 75  87 160 87  96 175 96  110 201 110  121 221 121  129 236 129  136 248 136  140 255 140  141 255 141  217 217 217  220 220 220  223 223 223  226 226 226  229 229 229  233 233 233  236 236 236  239 239 239  242 242 242  245 245 245  248 248 248  251 251 251  254 254 254  255 255 255  255 255 255  255 255 255  16 30 16  36 66 36  62 114 62  78 143 78  77 142 77  78 144 78  78 143 78  78 143 78  77 142 77  72 131 72  66 120 66  64 117 64  70 128 70  78 142 78  79 144 79  79 144 79  79 145 79  81 149 81  84 153 84  80 146 80  78 142 78  75 137 75  72 131 72  71 131 71  70 128 70  70 128 70  66 121 66  71 130 71  64 118 64  60 110 60  82 150 82  87 159 87  91 166 91  91 166 91  72 133 72  40 73 40  208 208 208  205 205 205  202 202 202  200 200 200  197 197 197  194 194 194  192 192 192  190 190 190  115 211 115  116 212 116  119 218 119  121 221 121  122 222 122  122 222 122  121 222 121  121 221 121  121 221 121  121 221 121  121 221 121  120 219 120  119 217 119  117 215 117  116 212 116  114 209 114  113 206 113  111 203 111  109 200 109  108 197 108  106 194 106  104 190 104  102 186 102  100 183 100  95 173 95  89 162 89  85 155 85  79 144 79  71 129 71  68 124 68  142 142 142  141 141 141  140 140 140  139 139 139  138 138 138  137 137 137  136 136 136  136 136 136  135 135 135  134 134 134  133 133 133  132 132 132  131 131 131  131 131 131  130 130 130  129 129 129  128 128 128  128 128 128  127 127 127  126 126 126  126 126 126  125 125 125  124 124 124  124 124 124  123 123 123  122 122 122  122 122 122  121 121 121  120 120 120  120 120 120  119 119 119  118 118 118  118 118 118  117 117 117  117 117 117  
121 121 121  121 121 121  122 122 122  122 122 122  123 123 123  124 124 124  124 124 124  125 125 125  126 126 126  126 126 126  127 127 127  128 128 128  128 128 128  129 129 129  130 130 130  130 130 130  131 131 131  132 132 132  133 133 133  134 134 134  134 134 134  135 135 135  136 136 136  137 137 137  138 138 138  138 138 138  139 139 139  140 140 140  141 141 141  142 142 142  143 143 143  66 120 66  81 148 81  87 160 87  90 165 90  106 193 106  111 204 111  112 205 112  112 205 112  112 204 112  110 201 110  106 194 106  103 189 103  102 187 102  101 185 101  102 187 102  99 181 99  88 162 88  164 164 164  166 166 166  167 167 167  169 169 169  170 170 170  172 172 172  174 174 174  175 175 175  177 177 177  179 179 179  181 181 181  183 183 183  185 185 185  187 187 187  190 190 190  192 192 192  194 194 194  59 108 59  70 128 70  81 149 81  94 173 94  112 205 112  122 223 122  128 235 128  131 240 131  135 247 135  139 254 139  140 255 140  140 255 140  230 230 230  234 234 234  237 237 237  240 240 240  243 243 243  246 246 246  250 250 250  253 253 253  255 255 255  255 255 255  255 255 255  255 255 255  255 255 255  255 255 255  61 113 61  41 76 41  66 121 66  81 148 81  79 144 79  80 146 80  81 147 81  81 149 81  87 159 87  84 154 84  76 140 76  68 124 68  66 120 66  77 140 77  77 142 77  78 143 78  79 144 79  83 151 83  80 146 80  76 140 76  74 135 74  71 130 71  70 128 70  71 130 71  71 130 71  69 126 69  64 117 64  60 109 60  54 98 54  62 114 62  77 140 77  82 150 82  85 156 85  75 138 75  54 99 54  16 30 16  215 215 215  212 212 212  210 210 210  207 207 207  204 204 204  202 202 202  199 199 199  123 226 123  119 219 119  113 207 113  117 213 117  119 217 119  120 219 120  120 220 120  120 219 120  120 219 120  120 220 120  120 219 120  119 217 119  119 217 119  118 216 118  117 213 117  115 210 115  113 207 113  112 205 112  110 202 110  108 198 108  106 194 106  104 190 104  102 186 102  100 184 100  99 181 99  97 177 97  94 171 94  87 160 87  82 150 82  74 135 74  71 131 71  63 115 63  146 146 146  145 145 145  144 144 144  143 143 143  142 142 142  141 141 141  140 140 140  139 139 139  138 138 138  138 138 138  137 137 137  136 136 136  135 135 135  134 134 134  134 134 134  133 133 133  132 132 132  131 131 131  130 130 130  130 130 130  129 129 129  128 128 128  128 128 128  127 127 127  126 126 126  126 126 126  125 125 125  124 124 124  124 124 124  123 123 123  122 122 122  122 122 122  121 121 121  121 121 121  
124 124 124  125 125 125  126 126 126  126 126 126  127 127 127  128 128 128  128 128 128  129 129 129  130 130 130  130 130 130  131 131 131  132 132 132  132 132 132  133 133 133  134 134 134  135 135 135  135 135 135  136 136 136  137 137 137  138 138 138  139 139 139  139 139 139  140 140 140  141 141 141  142 142 142  143 143 143  144 144 144  145 145 145  146 146 146  78 143 78  92 168 92  77 140 77  84 154 84  89 163 89  105 192 105  110 202 110  111 203 111  110 202 110  109 199 109  107 196 107  105 192 105  102 186 102  101 184 101  99 181 99  98 179 98  97 177 97  90 164 90  77 141 77  169 169 169  171 171 171  172 172 172  174 174 174  176 176 176  177 177 177  179 179 179  181 181 181  183 183 183  185 185 185  187 187 187  189 189 189  191 191 191  193 193 193  195 195 195  197 197 197  200 200 200  30 55 30  60 111 60  73 134 73  99 182 99  117 214 117  127 233 127  126 230 126  128 235 128  129 236 129  137 251 137  138 253 138  138 253 138  135 246 135  239 239 239  242 242 242  245 245 245  248 248 248  251 251 251  254 254 254  255 255 255  255 255 255  255 255 255  255 255 255  255 255 255  255 255 255  109 200 109  94 172 94  30 55 30  73 134 73  83 152 83  85 155 85  85 156 85  87 159 87  93 171 93  95 175 95  94 171 94  88 162 88  80 146 80  71 130 71  78 143 78  74 135 74  77 141 77  78 142 78  78 142 78  76 140 76  73 134 73  71 129 71  68 124 68  65 119 65  64 118 64  66 120 66  67 123 67  53 96 53  55 100 55  47 86 47  66 120 66  70 129 70  74 135 74  75 138 75  57 105 57  16 30 16  224 224 224  221 221 221  218 218 218  215 215 215  212 212 212  210 210 210  207 207 207  124 227 124  125 228 125  120 219 120  116 212 116  117 214 117  118 216 118  119 217 119  118 217 118  118 217 118  118 216 118  118 216 118  118 215 118  116 213 116  115 210 115  115 211 115  115 210 115  114 208 114  112 206 112  110 202 110  108 198 108  106 195 106  104 191 104  102 186 102  100 184 100  99 181 99  98 179 98  96 176 96  93 171 93  90 164 90  85 155 85  78 143 78  73 134 73  65 120 65  151 151 151  150 150 150  149 149 149  148 148 148  147 147 147  146 146 146  145 145 145  144 144 144  143 143 143  142 142 142  141 141 141  140 140 140  139 139 139  139 139 139  138 138 138  137 137 137  136 136 136  135 135 135  135 135 135  134 134 134  133 133 133  132 132 132  132 132 132  131 131 131  130 130 130  130 130 130  129 129 129  128 128 128  128 128 128  127 127 127  126 126 126  126 126 126  125 125 125  124 124 124  
128 128 128  129 129 129  129 129 129  130 130 130  131 131 131  131 131 131  132 132 132  133 133 133  133 133 133  134 134 134  135 135 135  136 136 136  136 136 136  137 137 137  138 138 138  139 139 139  139 139 139  140 140 140  141 141 141  142 142 142  143 143 143  144 144 144  144 144 144  145 145 145  146 146 146  147 147 147  148 148 148  71 130 71  100 184 100  108 198 108  94 172 94  80 146 80  84 153 84  106 194 106  108 198 108  109 200 109  108 198 108  105 192 105  102 187 102  100 183 100  93 170 93  89 163 89  86 157 86  82 151 82  78 143 78  74 136 74  67 123 67  173 173 173  174 174 174  176 176 176  177 177 177  179 179 179  181 181 181  182 182 182  184 184 184  186 186 186  188 188 188  190 190 190  192 192 192  194 194 194  196 196 196  198 198 198  200 200 200  202 202 202  16 30 16  28 52 28  46 84 46  72 133 72  95 173 95  120 220 120  127 233 127  124 227 124  126 230 126  122 224 122  123 226 123  137 251 137  132 241 132  131 239 131  134 245 134  244 244 244  247 247 247  250 250 250  253 253 253  255 255 255  255 255 255  255 255 255  255 255 255  255 255 255  114 208 114  112 205 112  110 200 110  105 192 105  98 179 98  92 169 92  89 163 89  90 164 90  92 168 92  97 178 97  101 185 101  101 185 101  100 183 100  97 177 97  91 167 91  83 153 83  83 152 83  65 120 65  70 128 70  73 134 73  73 134 73  72 132 72  72 131 72  69 127 69  60 110 60  68 125 68  56 103 56  56 103 56  47 86 47  53 97 53  50 91 50  38 69 38  60 109 60  63 115 63  66 121 66  55 101 55  16 30 16  230 230 230  227 227 227  224 224 224  222 222 222  219 219 219  217 217 217  214 214 214  212 212 212  106 194 106  122 223 122  121 221 121  121 222 121  122 223 122  122 223 122  122 224 122  122 223 122  117 213 117  116 213 116  116 212 116  116 212 116  114 208 114  111 203 111  111 203 111  112 204 112  111 204 111  110 201 110  108 198 108  106 194 106  104 190 104  102 186 102  100 184 100  99 181 99  98 179 98  96 176 96  94 173 94  92 169 92  89 163 89  85 155 85  80 146 80  74 136 74  67 124 67  59 108 59  154 154 154  153 153 153  152 152 152  151 151 151  150 150 150  149 149 149  148 148 148  147 147 147  146 146 146  145 145 145  144 144 144  144 144 144  143 143 143  142 142 142  141 141 141  140 140 140  139 139 139  139 139 139  138 138 138  137 137 137  136 136 136  136 136 136  135 135 135  134 134 134  133 133 133  133 133 133  132 132 132  131 131 131  131 131 131  130 130 130  129 129 129  129 129 129  128 128 128  
132 132 132  132 132 132  133 133 133  134 134 134  134 134 134  135 135 135  136 136 136  136 136 136  137 137 137  138 138 138  139 139 139  139 139 139  140 140 140  141 141 141  142 142 142  143 143 143  143 143 143  144 144 144  145 145 145  146 146 146  147 147 147  148 148 148  148 148 148  149 149 149  150 150 150  151 151 151  87 159 87  103 189 103  102 186 102  97 177 97  92 168 92  100 184 100  104 190 104  102 187 102  99 181 99  100 183 100  100 184 100  97 177 97  92 168 92  80 147 80  66 122 66  59 108 59  54 100 54  48 88 48  41 75 41  174 174 174  176 176 176  177 177 177  179 179 179  180 180 180  182 182 182  183 183 183  185 185 185  187 187 187  188 188 188  190 190 190  192 192 192  194 194 194  196 196 196  198 198 198  199 199 199  202 202 202  204 204 204  206 206 206  208 208 208  16 30 16  28 51 28  67 122 67  89 164 89  105 192 105  132 242 132  122 224 122  122 223 122  113 207 113  100 182 100  126 230 126  119 218 119  110 201 110  115 211 115  120 220 120  247 247 247  250 250 250  252 252 252  255 255 255  255 255 255  255 255 255  255 255 255  86 158 86  83 152 83  115 211 115  114 208 114  115 211 115  117 214 117  106 194 106  102 187 102  94 172 94  98 179 98  102 187 102  106 193 106  105 192 105  104 190 104  102 186 102  100 183 100  95 173 95  88 162 88  57 104 57  61 111 61  65 118 65  68 124 68  69 126 69  71 129 71  61 112 61  59 109 59  56 102 56  55 101 55  52 95 52  53 97 53  52 96 52  41 76 41  42 78 42  48 88 48  52 95 52  45 82 45  16 30 16  234 234 234  232 232 232  229 229 229  227 227 227  224 224 224  222 222 222  219 219 219  217 217 217  215 215 215  49 91 49  87 159 87  115 211 115  122 223 122  125 229 125  125 229 125  125 228 125  124 227 124  120 220 120  114 208 114  114 208 114  114 208 114  111 203 111  108 198 108  106 193 106  107 196 107  108 197 108  108 198 108  106 194 106  104 189 104  101 185 101  100 183 100  99 181 99  98 179 98  96 176 96  94 173 94  93 169 93  91 166 91  88 162 88  85 155 85  80 147 80  75 137 75  68 124 68  60 109 60  37 69 37  157 157 157  156 156 156  155 155 155  154 154 154  153 153 153  152 152 152  151 151 151  150 150 150  149 149 149  148 148 148  148 148 148  147 147 147  146 146 146  145 145 145  144 144 144  143 143 143  143 143 143  142 142 142  141 141 141  140 140 140  139 139 139  139 139 139  138 138 138  137 137 137  136 136 136  136 136 136  135 135 135  134 134 134  134 134 134  133 133 133  132 132 132  132 132 132  
135 135 135  136 136 136  136 136 136  137 137 137  138 138 138  139 139 139  139 139 139  140 140 140  141 141 141  142 142 142  142 142 142  143 143 143  144 144 144  145 145 145  145 145 145  146 146 146  147 147 147  148 148 148  149 149 149  150 150 150  151 151 151  151 151 151  152 152 152  153 153 153  59 108 59  92 169 92  94 172 94  88 160 88  86 157 86  91 167 91  95 175 95  92 169 92  87 159 87  83 151 83  78 143 78  77 141 77  73 134 73  66 121 66  54 99 54  38 70 38  16 30 16  173 173 173  174 174 174  175 175 175  177 177 177  178 178 178  180 180 180  181 181 181  182 182 182  184 184 184  185 185 185  187 187 187  189 189 189  190 190 190  192 192 192  194 194 194  195 195 195  197 197 197  199 199 199  201 201 201  203 203 203  205 205 205  207 207 207  209 209 209  211 211 211  213 213 213  16 30 16  51 93 51  75 137 75  95 174 95  127 232 127  124 226 124  111 203 111  101 185 101  96 175 96  100 184 100  123 226 123  27 49 27  70 128 70  76 139 76  246 246 246  248 248 248  250 250 250  253 253 253  255 255 255  255 255 255  255 255 255  46 84 46  58 107 58  117 213 117  116 212 116  113 206 113  113 206 113  108 198 108  105 191 105  97 178 97  99 181 99  102 187 102  104 190 104  110 202 110  112 205 112  107 195 107  105 193 105  101 185 101  93 170 93  69 126 69  56 102 56  62 113 62  66 121 66  61 112 61  56 102 56  47 85 47  40 74 40  58 106 58  61 112 61  62 113 62  53 97 53  44 81 44  16 30 16  25 47 25  32 59 32  16 30 16  239 239 239  237 237 237  235 235 235  232 232 232  230 230 230  228 228 228  226 226 226  223 223 223  221 221 221  219 219 219  217 217 217  215 215 215  213 213 213  62 113 62  100 184 100  118 217 118  123 225 123  126 231 126  125 229 125  122 224 122  117 213 117  111 204 111  111 204 111  108 198 108  105 192 105  102 186 102  101 185 101  105 193 105  108 197 108  109 199 109  106 195 106  104 190 104  101 186 101  100 183 100  99 181 99  97 178 97  95 174 95  93 171 93  91 167 91  87 160 87  83 152 83  78 143 78  72 131 72  64 118 64  59 107 59  53 98 53  28 51 28  160 160 160  159 159 159  158 158 158  157 157 157  156 156 156  155 155 155  154 154 154  153 153 153  152 152 152  151 151 151  151 151 151  150 150 150  149 149 149  148 148 148  147 147 147  146 146 146  145 145 145  145 145 145  144 144 144  143 143 143  142 142 142  142 142 142  141 141 141  140 140 140  139 139 139  139 139 139  138 138 138  137 137 137  136 136 136  136 136 136  135 135 135  
139 139 139  139 139 139  140 140 140  141 141 141  141 141 141  142 142 142  143 143 143  144 144 144  144 144 144  145 145 145  146 146 146  147 147 147  147 147 147  148 148 148  149 149 149  150 150 150  151 151 151  152 152 152  152 152 152  153 153 153  154 154 154  155 155 155  156 156 156  51 94 51  78 142 78  71 130 71  61 112 61  74 136 74  74 136 74  69 127 69  65 120 65  37 68 37  16 30 16  167 167 167  16 30 16  16 30 16  170 170 170  172 172 172  173 173 173  174 174 174  175 175 175  176 176 176  178 178 178  179 179 179  180 180 180  182 182 182  183 183 183  184 184 184  186 186 186  187 187 187  189 189 189  190 190 190  192 192 192  193 193 193  195 195 195  197 197 197  198 198 198  200 200 200  202 202 202  203 203 203  205 205 205  207 207 207  209 209 209  211 211 211  212 212 212  214 214 214  216 216 216  16 30 16  16 30 16  75 137 75  102 187 102  106 194 106  16 30 16  16 30 16  49 90 49  79 144 79  95 175 95  238 238 238  240 240 240  242 242 242  244 244 244  246 246 246  248 248 248  250 250 250  252 252 252  253 253 253  255 255 255  22 40 22  81 149 81  99 181 99  106 194 106  108 198 108  107 196 107  106 193 106  103 188 103  100 183 100  100 183 100  97 178 97  100 183 100  108 198 108  110 201 110  110 200 110  107 196 107  103 189 103  98 179 98  91 166 91  82 150 82  71 130 71  66 122 66  59 107 59  55 101 55  51 94 51  58 106 58  65 119 65  69 127 69  71 130 71  62 113 62  16 30 16  16 30 16  16 30 16  242 242 242  240 240 240  238 238 238  236 236 236  234 234 234  232 232 232  230 230 230  228 228 228  226 226 226  224 224 224  222 222 222  220 220 220  218 218 218  216 216 216  214 214 214  212 212 212  28 52 28  77 141 77  106 194 106  118 217 118  120 219 120  120 220 120  120 219 120  113 207 113  108 198 108  105 193 105  105 193 105  105 192 105  105 192 105  105 191 105  108 197 108  109 200 109  109 199 109  107 195 107  104 191 104  102 186 102  100 183 100  98 180 98  97 177 97  93 170 93  89 163 89  84 155 84  80 146 80  75 137 75  68 125 68  64 117 64  60 109 60  55 100 55  33 61 33  164 164 164  163 163 163  162 162 162  161 161 161  160 160 160  159 159 159  158 158 158  157 157 157  156 156 156  155 155 155  154 154 154  153 153 153  152 152 152  152 152 152  151 151 151  150 150 150  149 149 149  148 148 148  147 147 147  147 147 147  146 146 146  145 145 145  144 144 144  144 144 144  143 143 143  142 142 142  141 141 141  141 141 141  140 140 140  139 139 139  139 139 139  
142 142 142  143 143 143  143 143 143  144 144 144  145 145 145  146 146 146  146 146 146  147 147 147  148 148 148  149 149 149  149 149 149  150 150 150  151 151 151  152 152 152  153 153 153  153 153 153  154 154 154  155 155 155  156 156 156  157 157 157  158 158 158  159 159 159  160 160 160  31 57 31  16 30 16  16 30 16  163 163 163  35 64 35  165 165 165  166 166 166  167 167 167  168 168 168  170 170 170  171 171 171  172 172 172  173 173 173  174 174 174  175 175 175  176 176 176  177 177 177  179 179 179  180 180 180  181 181 181  182 182 182  184 184 184  185 185 185  186 186 186  188 188 188  189 189 189  190 190 190  192 192 192  193 193 193  195 195 195  196 196 196  198 198 198  199 199 199  201 201 201  202 202 202  204 204 204  206 206 206  207 207 207  209 209 209  210 210 210  212 212 212  214 214 214  216 216 216  217 217 217  219 219 219  221 221 221  223 223 223  77 141 77  71 131 71  228 228 228  230 230 230  232 232 232  233 233 233  64 117 64  237 237 237  239 239 239  240 240 240  242 242 242  244 244 244  245 245 245  247 247 247  248 248 248  250 250 250  251 251 251  252 252 252  70 128 70  91 166 91  101 184 101  103 188 103  103 188 103  105 191 105  103 189 103  102 186 102  100 183 100  89 163 89  93 171 93  99 181 99  103 189 103  104 190 104  103 189 103  102 186 102  101 184 101  99 181 99  93 170 93  85 156 85  80 146 80  78 142 78  73 134 73  64 117 64  57 105 57  59 108 59  68 125 68  66 121 66  31 57 31  245 245 245  244 244 244  242 242 242  240 240 240  239 239 239  237 237 237  235 235 235  233 233 233  232 232 232  230 230 230  228 228 228  226 226 226  224 224 224  223 223 223  221 221 221  219 219 219  217 217 217  216 216 216  214 214 214  212 212 212  210 210 210  52 95 52  87 159 87  98 179 98  104 190 104  109 199 109  107 196 107  104 191 104  101 185 101  104 191 104  109 200 109  111 203 111  111 202 111  110 201 110  109 200 109  110 201 110  109 199 109  106 195 106  104 190 104  101 184 101  98 179 98  95 173 95  91 166 91  86 158 86  81 149 81  77 140 77  72 131 72  69 126 69  65 119 65  60 111 60  56 102 56  46 85 46  167 167 167  166 166 166  165 165 165  164 164 164  163 163 163  162 162 162  161 161 161  161 161 161  160 160 160  159 159 159  158 158 158  157 157 157  156 156 156  155 155 155  154 154 154  153 153 153  153 153 153  152 152 152  151 151 151  150 150 150  149 149 149  149 149 149  148 148 148  147 147 147  146 146 146  146 146 146  145 145 145  144 144 144  143 143 143  143 143 143  142 142 142  
145 145 145  146 146 146  147 147 147  147 147 147  148 148 148  149 149 149  150 150 150  150 150 150  151 151 151  152 152 152  153 153 153  153 153 153  154 154 154  155 155 155  156 156 156  157 157 157  158 158 158  158 158 158  159 159 159  160 160 160  161 161 161  162 162 162  163 163 163  164 164 164  165 165 165  166 166 166  167 167 167  168 168 168  169 169 169  170 170 170  171 171 171  172 172 172  173 173 173  174 174 174  175 175 175  176 176 176  177 177 177  178 178 178  179 179 179  181 181 181  182 182 182  183 183 183  184 184 184  185 185 185  187 187 187  188 188 188  189 189 189  190 190 190  192 192 192  193 193 193  194 194 194  196 196 196  197 197 197  199 199 199  200 200 200  201 201 201  203 203 203  204 204 204  206 206 206  207 207 207  209 209 209  210 210 210  212 212 212  213 213 213  215 215 215  217 217 217  218 218 218  220 220 220  221 221 221  223 223 223  224 224 224  226 226 226  228 228 228  229 229 229  231 231 231  232 232 232  234 234 234  235 235 235  237 237 237  238 238 238  240 240 240  241 241 241  242 242 242  244 244 244  245 245 245  246 246 246  247 247 247  248 248 248  55 101 55  78 143 78  91 166 91  93 171 93  97 177 97  100 183 100  103 188 103  103 188 103  100 183 100  76 138 76  85 156 85  90 166 90  93 170 93  93 171 93  92 168 92  90 165 90  89 162 89  87 159 87  85 156 85  81 147 81  78 143 78  68 125 68  58 106 58  51 93 51  46 84 46  40 73 40  47 87 47  31 58 31  244 244 244  242 242 242  241 241 241  240 240 240  238 238 238  237 237 237  235 235 235  234 234 234  232 232 232  231 231 231  229 229 229  228 228 228  226 226 226  224 224 224  223 223 223  221 221 221  220 220 220  218 218 218  217 217 217  215 215 215  213 213 213  212 212 212  210 210 210  33 60 33  46 84 46  54 99 54  62 114 62  71 131 71  81 149 81  89 164 89  88 162 88  85 156 85  88 161 88  95 174 95  101 185 101  105 193 105  109 199 109  110 202 110  107 196 107  103 188 103  99 181 99  96 176 96  92 169 92  88 161 88  83 152 83  78 143 78  74 136 74  72 132 72  71 130 71  71 130 71  71 130 71  70 129 70  65 118 65  171 171 171  170 170 170  169 169 169  168 168 168  167 167 167  166 166 166  165 165 165  164 164 164  163 163 163  162 162 162  161 161 161  160 160 160  159 159 159  158 158 158  158 158 158  157 157 157  156 156 156  155 155 155  154 154 154  153 153 153  153 153 153  152 152 152  151 151 151  150 150 150  150 150 150  149 149 149  148 148 148  147 147 147  147 147 147  146 146 146  145 145 145  
148 148 148  149 149 149  150 150 150  150 150 150  151 151 151  152 152 152  153 153 153  154 154 154  154 154 154  155 155 155  156 156 156  157 157 157  158 158 158  158 158 158  159 159 159  160 160 160  161 161 161  162 162 162  163 163 163  163 163 163  164 164 164  165 165 165  166 166 166  167 167 167  168 168 168  169 169 169  170 170 170  171 171 171  172 172 172  173 173 173  174 174 174  175 175 175  176 176 176  177 177 177  178 178 178  179 179 179  180 180 180  181 181 181  182 182 182  183 183 183  185 185 185  186 186 186  187 187 187  188 188 188  189 189 189  190 190 190  192 192 192  193 193 193  194 194 194  195 195 195  197 197 197  198 198 198  199 199 199  201 201 201  202 202 202  203 203 203  205 205 205  206 206 206  207 207 207  209 209 209  210 210 210  212 212 212  213 213 213  214 214 214  216 216 216  217 217 217  219 219 219  220 220 220  221 221 221  223 223 223  224 224 224  226 226 226  227 227 227  228 228 228  230 230 230  231 231 231  232 232 232  234 234 234  235 235 235  236 236 236  238 238 238  239 239 239  240 240 240  241 241 241  242 242 242  243 243 243  244 244 244  245 245 245  246 246 246  50 92 50  61 112 61  52 95 52  39 71 39  49 89 49  64 118 64  78 144 78  93 171 93  55 101 55  58 106 58  75 138 75  78 142 78  77 142 77  76 139 76  74 136 74  70 128 70  63 115 63  56 103 56  56 102 56  56 102 56  50 92 50  42 78 42  36 67 36  29 54 29  20 36 20  16 30 16  242 242 242  241 241 241  240 240 240  239 239 239  238 238 238  236 236 236  235 235 235  234 234 234  232 232 232  231 231 231  230 230 230  228 228 228  227 227 227  226 226 226  224 224 224  223 223 223  221 221 221  220 220 220  219 219 219  217 217 217  216 216 216  214 214 214  213 213 213  212 212 212  210 210 210  209 209 209  207 207 207  206 206 206  205 205 205  39 71 39  47 87 47  55 101 55  62 114 62  69 126 69  70 129 70  71 130 71  81 148 81  89 162 89  95 173 95  98 180 98  98 180 98  94 172 94  89 162 89  82 150 82  74 135 74  70 128 70  72 132 72  74 135 74  75 138 75  76 140 76  77 141 77  73 133 73  67 123 67  16 30 16  174 174 174  173 173 173  172 172 172  171 171 171  170 170 170  169 169 169  168 168 168  167 167 167  166 166 166  165 165 165  164 164 164  163 163 163  163 163 163  162 162 162  161 161 161  160 160 160  159 159 159  158 158 158  158 158 158  157 157 157  156 156 156  155 155 155  154 154 154  154 154 154  153 153 153  152 152 152  151 151 151  150 150 150  150 150 150  149 149 149  148 148 148  
151 151 151  152 152 152  153 153 153  154 154 154  154 154 154  155 155 155  156 156 156  157 157 157  157 157 157  158 158 158  159 159 159  160 160 160  161 161 161  161 161 161  162 162 162  163 163 163  164 164 164  165 165 165  166 166 166  167 167 167  167 167 167  168 168 168  169 169 169  170 170 170  171 171 171  172 172 172  173 173 173  174 174 174  175 175 175  176 176 176  177 177 177  178 178 178  179 179 179  180 180 180  181 181 181  182 182 182  183 183 183  184 184 184  185 185 185  186 186 186  187 187 187  188 188 188  190 190 190  191 191 191  192 192 192  193 193 193  194 194 194  195 195 195  196 196 196  198 198 198  199 199 199  200 200 200  201 201 201  202 202 202  204 204 204  205 205 205  206 206 206  207 207 207  209 209 209  210 210 210  211 211 211  213 213 213  214 214 214  215 215 215  216 216 216  218 218 218  219 219 219  220 220 220  222 222 222  223 223 223  224 224 224  225 225 225  226 226 226  228 228 228  229 229 229  230 230 230  231 231 231  232 232 232  234 234 234  235 235 235  236 236 236  237 237 237  238 238 238  239 239 239  240 240 240  240 240 240  241 241 241  242 242 242  243 243 243  243 243 243  244 244 244  245 245 245  245 245 245  245 245 245  246 246 246  246 246 246  246 246 246  247 247 247  247 247 247  247 247 247  16 30 16  16 30 16  16 30 16  16 30 16  246 246 246  246 246 246  245 245 245  245 245 245  245 245 245  244 244 244  243 243 243  243 243 243  242 242 242  241 241 241  240 240 240  240 240 240  239 239 239  238 238 238  237 237 237  236 236 236  235 235 235  234 234 234  232 232 232  231 231 231  230 230 230  229 229 229  228 228 228  226 226 226  225 225 225  224 224 224  223 223 223  222 222 222  220 220 220  219 219 219  218 218 218  216 216 216  215 215 215  214 214 214  213 213 213  211 211 211  210 210 210  209 209 209  207 207 207  206 206 206  205 205 205  204 204 204  202 202 202  201 201 201  200 200 200  38 71 38  46 85 46  53 98 53  56 103 56  63 116 63  71 130 71  73 133 73  65 119 65  58 106 58  58 107 58  60 110 60  61 112 61  56 103 56  51 93 51  45 82 45  38 70 38  31 56 31  21 39 21  16 30 16  178 178 178  177 177 177  176 176 176  175 175 175  174 174 174  173 173 173  172 172 172  171 171 171  170 170 170  169 169 169  168 168 168  167 167 167  167 167 167  166 166 166  165 165 165  164 164 164  163 163 163  162 162 162  161 161 161  161 161 161  160 160 160  159 159 159  158 158 158  157 157 157  157 157 157  156 156 156  155 155 155  154 154 154  154 154 154  153 153 153  152 152 152  151 151 151  
154 154 154  155 155 155  156 156 156  157 157 157  157 157 157  158 158 158  159 159 159  160 160 160  160 160 160  161 161 161  162 162 162  163 163 163  164 164 164  164 164 164  165 165 165  166 166 166  167 167 167  168 168 168  169 169 169  170 170 170  170 170 170  171 171 171  172 172 172  173 173 173  174 174 174  175 175 175  176 176 176  177 177 177  178 178 178  179 179 179  180 180 180  181 181 181  182 182 182  183 183 183  184 184 184  185 185 185  186 186 186  187 187 187  188 188 188  189 189 189  190 190 190  191 191 191  192 192 192  193 193 193  194 194 194  195 195 195  196 196 196  197 197 197  199 199 199  200 200 200  201 201 201  202 202 202  203 203 203  204 204 204  205 205 205  206 206 206  208 208 208  209 209 209  210 210 210  211 211 211  212 212 212  213 213 213  215 215 215  216 216 216  217 217 217  218 218 218  219 219 219  220 220 220  222 222 222  223 223 223  224 224 224  225 225 225  226 226 226  227 227 227  228 228 228  229 229 229  230 230 230  231 231 231  232 232 232  233 233 233  234 234 234  235 235 235  236 236 236  237 237 237  237 237 237  238 238 238  239 239 239  239 239 239  240 240 240  241 241 241  241 241 241  242 242 242  242 242 242  242 242 242  243 243 243  243 243 243  243 243 243  243 243 243  244 244 244  244 244 244  244 244 244  244 244 244  243 243 243  243 243 243  243 243 243  243 243 243  242 242 242  242 242 242  242 242 242  241 241 241  241 241 241  240 240 240  239 239 239  239 239 239  238 238 238  237 237 237  237 237 237  236 236 236  235 235 235  234 234 234  233 233 233  232 232 232  231 231 231  230 230 230  229 229 229  228 228 228  227 227 227  226 226 226  225 225 225  224 224 224  223 223 223  222 222 222  220 220 220  219 219 219  218 218 218  217 217 217  216 216 216  215 215 215  213 213 213  212 212 212  211 211 211  210 210 210  209 209 209  208 208 208  206 206 206  205 205 205  204 204 204  203 203 203  202 202 202  201 201 201  200 200 200  199 199 199  197 197 197  196 196 196  195 195 195  38 70 38  193 193 193  192 192 192  191 191 191  190 190 190  189 189 189  188 188 188  187 187 187  186 186 186  185 185 185  184 184 184  183 183 183  182 182 182  181 181 181  180 180 180  179 179 179  178 178 178  177 177 177  176 176 176  175 175 175  174 174 174  173 173 173  172 172 172  171 171 171  170 170 170  170 170 170  169 169 169  168 168 168  167 167 167  166 166 166  165 165 165  164 164 164  164 164 164  163 163 163  162 162 162  161 161 161  160 160 160  160 160 160  159 159 159  158 158 158  157 157 157  157 157 157  156 156 156  155 155 155  154 154 154  
157 157 157  158 158 158  159 159 159  159 159 159  160 160 160  161 161 161  162 162 162  163 163 163  163 163 163  164 164 164  165 165 165  166 166 166  167 167 167  167 167 167  168 168 168  169 169 169  170 170 170  171 171 171  172 172 172  172 172 172  173 173 173  174 174 174  175 175 175  176 176 176  177 177 177  178 178 178  179 179 179  180 180 180  180 180 180  181 181 181  182 182 182  183 183 183  184 184 184  185 185 185  186 186 186  187 187 187  188 188 188  189 189 189  190 190 190  191 191 191  192 192 192  193 193 193  194 194 194  195 195 195  196 196 196  197 197 197  198 198 198  199 199 199  200 200 200  201 201 201  203 203 203  204 204 204  205 205 205  206 206 206  207 207 207  208 208 208  209 209 209  210 210 210  211 211 211  212 212 212  213 213 213  214 214 214  215 215 215  216 216 216  218 218 218  219 219 219  220 220 220  221 221 221  222 222 222  223 223 223  224 224 224  225 225 225  226 226 226  227 227 227  228 228 228  228 228 228  229 229 229  230 230 230  231 231 231  232 232 232  233 233 233  234 234 234  234 234 234  235 235 235  236 236 236  236 236 236  237 237 237  237 237 237  238 238 238  238 238 238  239 239 239  239 239 239  240 240 240  240 240 240  240 240 240  241 241 241  241 241 241  241 241 241  241 241 241  241 241 241  241 241 241  241 241 241  241 241 241  241 241 241  241 241 241  240 240 240  240 240 240  240 240 240  239 239 239  239 239 239  238 238 238  238 238 238  237 237 237  237 237 237  236 236 236  236 236 236  235 235 235  234 234 234  234 234 234  233 233 233  232 232 232  231 231 231  230 230 230  229 229 229  228 228 228  228 228 228  227 227 227  226 226 226  225 225 225  224 224 224  223 223 223  222 222 222  221 221 221  220 220 220  219 219 219  218 218 218  216 216 216  215 215 215  214 214 214  213 213 213  212 212 212  211 211 211  210 210 210  209 209 209  208 208 208  207 207 207  206 206 206  205 205 205  204 204 204  203 203 203  201 201 201  200 200 200  199 199 199  198 198 198  197 197 197  196 196 196  195 195 195  194 194 194  193 193 193  192 192 192  191 191 191  190 190 190  189 189 189  188 188 188  187 187 187  186 186 186  185 185 185  184 184 184  183 183 183  182 182 182  181 181 181  180 180 180  180 180 180  179 179 179  178 178 178  177 177 177  176 176 176  175 175 175  174 174 174  173 173 173  172 172 172  172 172 172  171 171 171  170 170 170  169 169 169  168 168 168  167 167 167  167 167 167  166 166 166  165 165 165  164 164 164  163 163 163  163 163 163  162 162 162  161 161 161  160 160 160  159 159 159  159 159 159  158 158 158  157 157 157  
160 160 160  161 161 161  162 162 162  162 162 162  163 163 163  164 164 164  165 165 165  165 165 165  166 166 166  167 167 167  168 168 168  168 168 168  169 169 169  170 170 170  171 171 171  172 172 172  173 173 173  173 173 173  174 174 174  175 175 175  176 176 176  177 177 177  178 178 178  179 179 179  179 179 179  180 180 180  181 181 181  182 182 182  183 183 183  184 184 184  185 185 185  186 186 186  187 187 187  188 188 188  189 189 189  190 190 190  190 190 190  191 191 191  192 192 192  193 193 193  194 194 194  195 195 195  196 196 196  197 197 197  198 198 198  199 199 199  200 200 200  201 201 201  202 202 202  203 203 203  204 204 204  205 205 205  206 206 206  207 207 207  208 208 208  209 209 209  210 210 210  211 211 211  212 212 212  213 213 213  214 214 214  215 215 215  216 216 216  217 217 217  218 218 218  219 219 219  220 220 220  221 221 221  222 222 222  223 223 223  224 224 224  225 225 225  225 225 225  226 226 226  227 227 227  228 228 228  229 229 229  230 230 230  230 230 230  231 231 231  232 232 232  232 232 232  233 233 233  234 234 234  234 234 234  235 235 235  235 235 235  236 236 236  236 236 236  237 237 237  237 237 237  238 238 238  238 238 238  238 238 238  238 238 238  239 239 239  239 239 239  239 239 239  239 239 239  239 239 239  239 239 239  239 239 239  239 239 239  239 239 239  239 239 239  238 238 238  238 238 238  238 238 238  238 238 238  237 237 237  237 237 237  236 236 236  236 236 236  235 235 235  235 235 235  234 234 234  234 234 234  233 233 233  232 232 232  232 232 232  231 231 231  230 230 230  230 230 230  229 229 229  228 228 228  227 227 227  226 226 226  225 225 225  225 225 225  224 224 224  223 223 223  222 222 222  221 221 221  220 220 220  219 219 219  218 218 218  217 217 217  216 216 216  215 215 215  214 214 214  213 213 213  212 212 212  211 211 211  210 210 210  209 209 209  208 208 208  207 207 207  206 206 206  205 205 205  204 204 204  203 203 203  202 202 202  201 201 201  200 200 200  199 199 199  198 198 198  197 197 197  196 196 196  195 195 195  194 194 194  193 193 193  192 192 192  191 191 191  190 190 190  190 190 190  189 189 189  188 188 188  187 187 187  186 186 186  185 185 185  184 184 184  183 183 183  182 182 182  181 181 181  180 180 180  179 179 179  179 179 179  178 178 178  177 177 177  176 176 176  175 175 175  174 174 174  173 173 173  173 173 173  172 172 172  171 171 171  170 170 170  169 169 169  168 168 168  168 168 168  167 167 167  166 166 166  165 165 165  165 165 165  164 164 164  163 163 163  162 162 162  162 162 162  161 161 161  160 160 160  
163 163 163  163 163 163  164 164 164  165 165 165  166 166 166  166 166 166  167 167 167  168 168 168  169 169 169  170 170 170  170 170 170  171 171 171  172 172 172  173 173 173  174 174 174  174 174 174  175 175 175  176 176 176  177 177 177  178 178 178  179 179 179  179 179 179  180 180 180  181 181 181  182 182 182  183 183 183  184 184 184  185 185 185  185 185 185  186 186 186  187 187 187  188 188 188  189 189 189  190 190 190  191 191 191  192 192 192  193 193 193  194 194 194  195 195 195  195 195 195  196 196 196  197 197 197  198 198 198  199 199 199  200 200 200  201 201 201  202 202 202  203 203 203  204 204 204  205 205 205  206 206 206  207 207 207  208 208 208  209 209 209  210 210 210  211 211 211  211 211 211  212 212 212  213 213 213  214 214 214  215 215 215  216 216 216  217 217 217  218 218 218  219 219 219  220 220 220  220 220 220  221 221 221  222 222 222  223 223 223  224 224 224  225 225 225  225 225 225  226 226 226  227 227 227  228 228 228  228 228 228  229 229 229  230 230 230  230 230 230  231 231 231  232 232 232  232 232 232  233 233 233  233 233 233  234 234 234  234 234 234  235 235 235  235 235 235  235 235 235  236 236 236  236 236 236  236 236 236  237 237 237  237 237 237  237 237 237  237 237 237  237 237 237  237 237 237  237 237 237  237 237 237  237 237 237  237 237 237  237 237 237  237 237 237  237 237 237  237 237 237  236 236 236  236 236 236  236 236 236  235 235 235  235 235 235  235 235 235  234 234 234  234 234 234  233 233 233  233 233 233  232 232 232  232 232 232  231 231 231  230 230 230  230 230 230  229 229 229  228 228 228  228 228 228  227 227 227  226 226 226  225 225 225  225 225 225  224 224 224  223 223 223  222 222 222  221 221 221  220 220 220  220 220 220  219 219 219  218 218 218  217 217 217  216 216 216  215 215 215  214 214 214  213 213 213  212 212 212  211 211 211  211 211 211  210 210 210  209 209 209  208 208 208  207 207 207  206 206 206  205 205 205  204 204 204  203 203 203  202 202 202  201 201 201  200 200 200  199 199 199  198 198 198  197 197 197  196 196 196  195 195 195  195 195 195  194 194 194  193 193 193  192 192 192  191 191 191  190 190 190  189 189 189  188 188 188  187 187 187  186 186 186  185 185 185  185 185 185  184 184 184  183 183 183  182 182 182  181 181 181  180 180 180  179 179 179  179 179 179  178 178 178  177 177 177  176 176 176  175 175 175  174 174 174  174 174 174  173 173 173  172 172 172  171 171 171  170 170 170  170 170 170  169 169 169  168 168 168  167 167 167  166 166 166  166 166 166  165 165 165  164 164 164  163 163 163  163 163 163  
165 165 165  166 166 166  167 167 167  168 168 168  168 168 168  169 169 169  170 170 170  171 171 171  171 171 171  172 172 172  173 173 173  174 174 174  175 175 175  175 175 175  176 176 176  177 177 177  178 178 178  179 179 179  179 179 179  180 180 180  181 181 181  182 182 182  183 183 183  184 184 184  184 184 184  185 185 185  186 186 186  187 187 187  188 188 188  189 189 189  190 190 190  190 190 190  191 191 191  192 192 192  193 193 193  194 194 194  195 195 195  196 196 196  197 197 197  197 197 197  198 198 198  199 199 199  200 200 200  201 201 201  202 202 202  203 203 203  204 204 204  205 205 205  206 206 206  206 206 206  207 207 207  208 208 208  209 209 209  210 210 210  211 211 211  212 212 212  213 213 213  214 214 214  214 214 214  215 215 215  216 216 216  217 217 217  218 218 218  219 219 219  219 219 219  220 220 220  221 221 221  222 222 222  223 223 223  223 223 223  224 224 224  225 225 225  226 226 226  226 226 226  227 227 227  228 228 228  228 228 228  229 229 229  229 229 229  230 230 230  231 231 231  231 231 231  232 232 232  232 232 232  233 233 233  233 233 233  233 233 233  234 234 234  234 234 234  235 235 235  235 235 235  235 235 235  235 235 235  236 236 236  236 236 236  236 236 236  236 236 236  236 236 236  236 236 236  236 236 236  236 236 236  236 236 236  236 236 236  236 236 236  236 236 236  236 236 236  236 236 236  235 235 235  235 235 235  235 235 235  235 235 235  234 234 234  234 234 234  233 233 233  233 233 233  233 233 233  232 232 232  232 232 232  231 231 231  231 231 231  230 230 230  229 229 229  229 229 229  228 228 228  228 228 228  227 227 227  226 226 226  226 226 226  225 225 225  224 224 224  223 223 223  223 223 223  222 222 222  221 221 221  220 220 220  219 219 219  219 219 219  218 218 218  217 217 217  216 216 216  215 215 215  214 214 214  214 214 214  213 213 213  212 212 212  211 211 211  210 210 210  209 209 209  208 208 208  207 207 207  206 206 206  206 206 206  205 205 205  204 204 204  203 203 203  202 202 202  201 201 201  200 200 200  199 199 199  198 198 198  197 197 197  197 197 197  196 196 196  195 195 195  194 194 194  193 193 193  192 192 192  191 191 191  190 190 190  190 190 190  189 189 189  188 188 188  187 187 187  186 186 186  185 185 185  184 184 184  184 184 184  183 183 183  182 182 182  181 181 181  180 180 180  179 179 179  179 179 179  178 178 178  177 177 177  176 176 176  175 175 175  175 175 175  174 174 174  173 173 173  172 172 172  171 171 171  171 171 171  170 170 170  169 169 169  168 168 168  168 168 168  167 167 167  166 166 166  165 165 165  
168 168 168  169 169 169  169 169 169  170 170 170  171 171 171  172 172 172  172 172 172  173 173 173  174 174 174  175 175 175  175 175 175  176 176 176  177 177 177  178 178 178  179 179 179  179 179 179  180 180 180  181 181 181  182 182 182  183 183 183  183 183 183  184 184 184  185 185 185  186 186 186  187 187 187  188 188 188  188 188 188  189 189 189  190 190 190  191 191 191  192 192 192  193 193 193  193 193 193  194 194 194  195 195 195  196 196 196  197 197 197  198 198 198  199 199 199  199 199 199  200 200 200  201 201 201  202 202 202  203 203 203  204 204 204  205 205 205  205 205 205  206 206 206  207 207 207  208 208 208  209 209 209  210 210 210  210 210 210  211 211 211  212 212 212  213 213 213  214 214 214  215 215 215  215 215 215  216 216 216  217 217 217  218 218 218  219 219 219  219 219 219  220 220 220  221 221 221  222 222 222  222 222 222  223 223 223  224 224 224  224 224 224  225 225 225  226 226 226  226 226 226  227 227 227  228 228 228  228 228 228  229 229 229  229 229 229  230 230 230  230 230 230  231 231 231  231 231 231  232 232 232  232 232 232  233 233 233  233 233 233  233 233 233  234 234 234  234 234 234  234 234 234  234 234 234  235 235 235  235 235 235  235 235 235  235 235 235  235 235 235  235 235 235  235 235 235  235 235 235  235 235 235  235 235 235  235 235 235  235 235 235  235 235 235  235 235 235  235 235 235  235 235 235  234 234 234  234 234 234  234 234 234  234 234 234  233 233 233  233 233 233  233 233 233  232 232 232  232 232 232  231 231 231  231 231 231  230 230 230  230 230 230  229 229 229  229 229 229  228 228 228  228 228 228  227 227 227  226 226 226  226 226 226  225 225 225  224 224 224  224 224 224  223 223 223  222 222 222  222 222 222  221 221 221  220 220 220  219 219 219  219 219 219  218 218 218  217 217 217  216 216 216  215 215 215  215 215 215  214 214 214  213 213 213  212 212 212  211 211 211  210 210 210  210 210 210  209 209 209  208 208 208  207 207 207  206 206 206  205 205 205  205 205 205  204 204 204  203 203 203  202 202 202  201 201 201  200 200 200  199 199 199  199 199 199  198 198 198  197 197 197  196 196 196  195 195 195  194 194 194  193 193 193  193 193 193  192 192 192  191 191 191  190 190 190  189 189 189  188 188 188  188 188 188  187 187 187  186 186 186  185 185 185  184 184 184  183 183 183  183 183 183  182 182 182  181 181 181  180 180 180  179 179 179  179 179 179  178 178 178  177 177 177  176 176 176  175 175 175  175 175 175  174 174 174  173 173 173  172 172 172  172 172 172  171 171 171  170 170 170  169 169 169  169 169 169  168 168 168  
170 170 170  171 171 171  172 172 172  173 173 173  173 173 173  174 174 174  175 175 175  176 176 176  176 176 176  177 177 177  178 178 178  179 179 179  179 179 179  180 180 180  181 181 181  182 182 182  183 183 183  183 183 183  184 184 184  185 185 185  186 186 186  187 187 187  187 187 187  188 188 188  189 189 189  190 190 190  191 191 191  191 191 191  192 192 192  193 193 193  194 194 194  195 195 195  195 195 195  196 196 196  197 197 197  198 198 198  199 199 199  200 200 200  200 200 200  201 201 201  202 202 202  203 203 203  204 204 204  205 205 205  205 205 205  206 206 206  207 207 207  208 208 208  209 209 209  209 209 209  210 210 210  211 211 211  212 212 212  213 213 213  213 213 213  214 214 214  215 215 215  216 216 216  216 216 216  217 217 217  218 218 218  219 219 219  219 219 219  220 220 220  221 221 221  222 222 222  222 222 222  223 223 223  224 224 224  224 224 224  225 225 225  225 225 225  226 226 226  227 227 227  227 227 227  228 228 228  228 228 228  229 229 229  229 229 229  230 230 230  230 230 230  231 231 231  231 231 231  232 232 232  232 232 232  232 232 232  233 233 233  233 233 233  233 233 233  234 234 234  234 234 234  234 234 234  234 234 234  234 234 234  235 235 235  235 235 235  235 235 235  235 235 235  235 235 235  235 235 235  235 235 235  235 235 235  235 235 235  235 235 235  235 235 235  235 235 235  234 234 234  234 234 234  234 234 234  234 234 234  234 234 234  233 233 233  233 233 233  233 233 233  232 232 232  232 232 232  232 232 232  231 231 231  231 231 231  230 230 230  230 230 230  229 229 229  229 229 229  228 228 228  228 228 228  227 227 227  227 227 227  226 226 226  225 225 225  225 225 225  224 224 224  224 224 224  223 223 223  222 222 222  222 222 222  221 221 221  220 220 220  219 219 219  219 219 219  218 218 218  217 217 217  216 216 216  216 216 216  215 215 215  214 214 214  213 213 213  213 213 213  212 212 212  211 211 211  210 210 210  209 209 209  209 209 209  208 208 208  207 207 207  206 206 206  205 205 205  205 205 205  204 204 204  203 203 203  202 202 202  201 201 201  200 200 200  200 200 200  199 199 199  198 198 198  197 197 197  196 196 196  195 195 195  195 195 195  194 194 194  193 193 193  192 192 192  191 191 191  191 191 191  190 190 190  189 189 189  188 188 188  187 187 187  187 187 187  186 186 186  185 185 185  184 184 184  183 183 183  183 183 183  182 182 182  181 181 181  180 180 180  179 179 179  179 179 179  178 178 178  177 177 177  176 176 176  176 176 176  175 175 175  174 174 174  173 173 173  173 173 173  172 172 172  171 171 171  170 170 170  
173 173 173  174 174 174  174 174 174  175 175 175  176 176 176  176 176 176  177 177 177  178 178 178  179 179 179  179 179 179  180 180 180  181 181 181  182 182 182  183 183 183  183 183 183  184 184 184  185 185 185  186 186 186  186 186 186  187 187 187  188 188 188  189 189 189  190 190 190  190 190 190  191 191 191  192 192 192  193 193 193  193 193 193  194 194 194  195 195 195  196 196 196  197 197 197  197 197 197  198 198 198  199 199 199  200 200 200  201 201 201  201 201 201  202 202 202  203 203 203  204 204 204  205 205 205  205 205 205  206 206 206  207 207 207  208 208 208  209 209 209  209 209 209  210 210 210  211 211 211  212 212 212  212 212 212  213 213 213  214 214 214  215 215 215  215 215 215  216 216 216  217 217 217  218 218 218  218 218 218  219 219 219  220 220 220  220 220 220  221 221 221  222 222 222  222 222 222  223 223 223  224 224 224  224 224 224  225 225 225  225 225 225  226 226 226  227 227 227  227 227 227  228 228 228  228 228 228  229 229 229  229 229 229  230 230 230  230 230 230  230 230 230  231 231 231  231 231 231  232 232 232  232 232 232  232 232 232  233 233 233  233 233 233  233 233 233  233 233 233  234 234 234  234 234 234  234 234 234  234 234 234  234 234 234  234 234 234  235 235 235  235 235 235  235 235 235  235 235 235  235 235 235  235 235 235  235 235 235  235 235 235  234 234 234  234 234 234  234 234 234  234 234 234  234 234 234  234 234 234  233 233 233  233 233 233  233 233 233  233 233 233  232 232 232  232 232 232  232 232 232  231 231 231  231 231 231  230 230 230  230 230 230  230 230 230  229 229 229  229 229 229  228 228 228  228 228 228  227 227 227  227 227 227  226 226 226  225 225 225  225 225 225  224 224 224  224 224 224  223 223 223  222 222 222  222 222 222  221 221 221  220 220 220  220 220 220  219 219 219  218 218 218  218 218 218  217 217 217  216 216 216  215 215 215  215 215 215  214 214 214  213 213 213  212 212 212  212 212 212  211 211 211  210 210 210  209 209 209  209 209 209  208 208 208  207 207 207  206 206 206  205 205 205  205 205 205  204 204 204  203 203 203  202 202 202  201 201 201  201 201 201  200 200 200  199 199 199  198 198 198  197 197 197  197 197 197  196 196 196  195 195 195  194 194 194  193 193 193  193 193 193  192 192 192  191 191 191  190 190 190  190 190 190  189 189 189  188 188 188  187 187 187  186 186 186  186 186 186  185 185 185  184 184 184  183 183 183  183 183 183  182 182 182  181 181 181  180 180 180  179 179 179  179 179 179  178 178 178  177 177 177  176 176 176  176 176 176  175 175 175  174 174 174  174 174 174  173 173 173  
175 175 175  176 176 176  177 177 177  177 177 177  178 178 178  179 179 179  180 180 180  180 180 180  181 181 181  182 182 182  182 182 182  183 183 183  184 184 184  185 185 185  185 185 185  186 186 186  187 187 187  188 188 188  189 189 189  189 189 189  190 190 190  191 191 191  192 192 192  192 192 192  193 193 193  194 194 194  195 195 195  195 195 195  196 196 196  197 197 197  198 198 198  199 199 199  199 199 199  200 200 200  201 201 201  202 202 202  202 202 202  203 203 203  204 204 204  205 205 205  206 206 206  206 206 206  207 207 207  208 208 208  209 209 209  209 209 209  210 210 210  211 211 211  212 212 212  212 212 212  213 213 213  214 214 214  214 214 214  215 215 215  216 216 216  217 217 217  217 217 217  218 218 218  219 219 219  219 219 219  220 220 220  221 221 221  221 221 221  222 222 222  223 223 223  223 223 223  224 224 224  224 224 224  225 225 225  225 225 225  226 226 226  227 227 227  227 227 227  228 228 228  228 228 228  229 229 229  229 229 229  229 229 229  230 230 230  230 230 230  231 231 231  231 231 231  231 231 231  232 232 232  232 232 232  232 232 232  233 233 233  233 233 233  233 233 233  233 233 233  234 234 234  234 234 234  234 234 234  234 234 234  234 234 234  234 234 234  234 234 234  235 235 235  235 235 235  235 235 235  235 235 235  235 235 235  235 235 235  234 234 234  234 234 234  234 234 234  234 234 234  234 234 234  234 234 234  234 234 234  233 233 233  233 233 233  233 233 233  233 233 233  232 232 232  232 232 232  232 232 232  231 231 231  231 231 231  231 231 231  230 230 230  230 230 230  229 229 229  229 229 229  229 229 229  228 228 228  228 228 228  227 227 227  227 227 227  226 226 226  225 225 225  225 225 225  224 224 224  224 224 224  223 223 223  223 223 223  222 222 222  221 221 221  221 221 221  220 220 220  219 219 219  219 219 219  218 218 218  217 217 217  217 217 217  216 216 216  215 215 215  214 214 214  214 214 214  213 213 213  212 212 212  212 212 212  211 211 211  210 210 210  209 209 209  209 209 209  208 208 208  207 207 207  206 206 206  206 206 206  205 205 205  204 204 204  203 203 203  202 202 202  202 202 202  201 201 201  200 200 200  199 199 199  199 199 199  198 198 198  197 197 197  196 196 196  195 195 195  195 195 195  194 194 194  193 193 193  192 192 192  192 192 192  191 191 191  190 190 190  189 189 189  189 189 189  188 188 188  187 187 187  186 186 186  185 185 185  185 185 185  184 184 184  183 183 183  182 182 182  182 182 182  181 181 181  180 180 180  180 180 180  179 179 179  178 178 178  177 177 177  177 177 177  176 176 176  175 175 175  
177 177 177  178 178 178  179 179 179  180 180 180  180 180 180  181 181 181  182 182 182  182 182 182  183 183 183  184 184 184  185 185 185  185 185 185  186 186 186  187 187 187  188 188 188  188 188 188  189 189 189  190 190 190  191 191 191  191 191 191  192 192 192  193 193 193  194 194 194  194 194 194  195 195 195  196 196 196  197 197 197  197 197 197  198 198 198  199 199 199  200 200 200  200 200 200  201 201 201  202 202 202  203 203 203  203 203 203  204 204 204  205 205 205  206 206 206  206 206 206  207 207 207  208 208 208  209 209 209  209 209 209  210 210 210  211 211 211  212 212 212  212 212 212  213 213 213  214 214 214  214 214 214  215 215 215  216 216 216  216 216 216  217 217 217  218 218 218  218 218 218  219 219 219  220 220 220  220 220 220  221 221 221  222 222 222  222 222 222  223 223 223  223 223 223  224 224 224  225 225 225  225 225 225  226 226 226  226 226 226  227 227 227  227 227 227  228 228 228  228 228 228  229 229 229  229 229 229  230 230 230  230 230 230  230 230 230  231 231 231  231 231 231  231 231 231  232 232 232  232 232 232  232 232 232  233 233 233  233 233 233  233 233 233  233 233 233  234 234 234  234 234 234  234 234 234  234 234 234  234 234 234  234 234 234  235 235 235  235 235 235  235 235 235  235 235 235  235 235 235  235 235 235  235 235 235  235 235 235  235 235 235  235 235 235  234 234 234  234 234 234  234 234 234  234 234 234  234 234 234  234 234 234  233 233 233  233 233 233  233 233 233  233 233 233  232 232 232  232 232 232  232 232 232  231 231 231  231 231 231  231 231 231  230 230 230  230 230 230  230 230 230  229 229 229  229 229 229  228 228 228  228 228 228  227 227 227  227 227 227  226 226 226  226 226 226  225 225 225  225 225 225  224 224 224  223 223 223  223 223 223  222 222 222  222 222 222  221 221 221  220 220 220  220 220 220  219 219 219  218 218 218  218 218 218  217 217 217  216 216 216  216 216 216  215 215 215  214 214 214  214 214 214  213 213 213  212 212 212  212 212 212  211 211 211  210 210 210  209 209 209  209 209 209  208 208 208  207 207 207  206 206 206  206 206 206  205 205 205  204 204 204  203 203 203  203 203 203  202 202 202  201 201 201  200 200 200  200 200 200  199 199 199  198 198 198  197 197 197  197 197 197  196 196 196  195 195 195  194 194 194  194 194 194  193 193 193  192 192 192  191 191 191  191 191 191  190 190 190  189 189 189  188 188 188  188 188 188  187 187 187  186 186 186  185 185 185  185 185 185  184 184 184  183 183 183  182 182 182  182 182 182  181 181 181  180 180 180  180 180 180  179 179 179  178 178 178  177 177 177  
180 180 180  180 180 180  181 181 181  182 182 182  182 182 182  183 183 183  184 184 184  185 185 185  185 185 185  186 186 186  187 187 187  188 188 188  188 188 188  189 189 189  190 190 190  190 190 190  191 191 191  192 192 192  193 193 193  193 193 193  194 194 194  195 195 195  196 196 196  196 196 196  197 197 197  198 198 198  199 199 199  199 199 199  200 200 200  201 201 201  202 202 202  202 202 202  203 203 203  204 204 204  204 204 204  205 205 205  206 206 206  207 207 207  207 207 207  208 208 208  209 209 209  210 210 210  210 210 210  211 211 211  212 212 212  212 212 212  213 213 213  214 214 214  214 214 214  215 215 215  216 216 216  216 216 216  217 217 217  218 218 218  218 218 218  219 219 219  220 220 220  220 220 220  221 221 221  221 221 221  222 222 222  223 223 223  223 223 223  224 224 224  224 224 224  225 225 225  225 225 225  226 226 226  226 226 226  227 227 227  227 227 227  228 228 228  228 228 228  229 229 229  229 229 229  230 230 230  230 230 230  230 230 230  231 231 231  231 231 231  232 232 232  232 232 232  232 232 232  233 233 233  233 233 233  233 233 233  233 233 233  234 234 234  234 234 234  234 234 234  234 234 234  234 234 234  234 234 234  235 235 235  235 235 235  235 235 235  235 235 235  235 235 235  235 235 235  235 235 235  235 235 235  235 235 235  235 235 235  235 235 235  235 235 235  235 235 235  235 235 235  234 234 234  234 234 234  234 234 234  234 234 234  234 234 234  234 234 234  233 233 233  233 233 233  233 233 233  233 233 233  232 232 232  232 232 232  232 232 232  231 231 231  231 231 231  230 230 230  230 230 230  230 230 230  229 229 229  229 229 229  228 228 228  228 228 228  227 227 227  227 227 227  226 226 226  226 226 226  225 225 225  225 225 225  224 224 224  224 224 224  223 223 223  223 223 223  222 222 222  221 221 221  221 221 221  220 220 220  220 220 220  219 219 219  218 218 218  218 218 218  217 217 217  216 216 216  216 216 216  215 215 215  214 214 214  214 214 214  213 213 213  212 212 212  212 212 212  211 211 211  210 210 210  210 210 210  209 209 209  208 208 208  207 207 207  207 207 207  206 206 206  205 205 205  204 204 204  204 204 204  203 203 203  202 202 202  202 202 202  201 201 201  200 200 200  199 199 199  199 199 199  198 198 198  197 197 197  196 196 196  196 196 196  195 195 195  194 194 194  193 193 193  193 193 193  192 192 192  191 191 191  190 190 190  190 190 190  189 189 189  188 188 188  188 188 188  187 187 187  186 186 186  185 185 185  185 185 185  184 184 184  183 183 183  182 182 182  182 182 182  181 181 181  180 180 180  180 180 180  
182 182 182  182 182 182  183 183 183  184 184 184  185 185 185  185 185 185  186 186 186  187 187 187  187 187 187  188 188 188  189 189 189  190 190 190  190 190 190  191 191 191  192 192 192  192 192 192  193 193 193  194 194 194  195 195 195  195 195 195  196 196 196  197 197 197  198 198 198  198 198 198  199 199 199  200 200 200  200 200 200  201 201 201  202 202 202  203 203 203  203 203 203  204 204 204  205 205 205  205 205 205  206 206 206  207 207 207  208 208 208  208 208 208  209 209 209  210 210 210  210 210 210  211 211 211  212 212 212  212 212 212  213 213 213  214 214 214  214 214 214  215 215 215  216 216 216  216 216 216  217 217 217  218 218 218  218 218 218  219 219 219  220 220 220  220 220 220  221 221 221  221 221 221  222 222 222  223 223 223  223 223 223  224 224 224  224 224 224  225 225 225  225 225 225  226 226 226  226 226 226  227 227 227  227 227 227  228 228 228  228 228 228  229 229 229  229 229 229  230 230 230  230 230 230  230 230 230  231 231 231  231 231 231  231 231 231  232 232 232  232 232 232  232 232 232  233 233 233  233 233 233  233 233 233  234 234 234  234 234 234  234 234 234  234 234 234  234 234 234  235 235 235  235 235 235  235 235 235  235 235 235  235 235 235  235 235 235  235 235 235  235 235 235  235 235 235  235 235 235  235 235 235  235 235 235  235 235 235  235 235 235  235 235 235  235 235 235  235 235 235  235 235 235  235 235 235  235 235 235  234 234 234  234 234 234  234 234 234  234 234 234  234 234 234  233 233 233  233 233 233  233 233 233  232 232 232  232 232 232  232 232 232  231 231 231  231 231 231  231 231 231  230 230 230  230 230 230  230 230 230  229 229 229  229 229 229  228 228 228  228 228 228  227 227 227  227 227 227  226 226 226  226 226 226  225 225 225  225 225 225  224 224 224  224 224 224  223 223 223  223 223 223  222 222 222  221 221 221  221 221 221  220 220 220  220 220 220  219 219 219  218 218 218  218 218 218  217 217 217  216 216 216  216 216 216  215 215 215  214 214 214  214 214 214  213 213 213  212 212 212  212 212 212  211 211 211  210 210 210  210 210 210  209 209 209  208 208 208  208 208 208  207 207 207  206 206 206  205 205 205  205 205 205  204 204 204  203 203 203  203 203 203  202 202 202  201 201 201  200 200 200  200 200 200  199 199 199  198 198 198  198 198 198  197 197 197  196 196 196  195 195 195  195 195 195  194 194 194  193 193 193  192 192 192  192 192 192  191 191 191  190 190 190  190 190 190  189 189 189  188 188 188  187 187 187  187 187 187  186 186 186  185 185 185  185 185 185  184 184 184  183 183 183  182 182 182  182 182 182  
184 184 184  185 185 185  185 185 185  186 186 186  187 187 187  187 187 187  188 188 188  189 189 189  189 189 189  190 190 190  191 191 191  192 192 192  192 192 192  193 193 193  194 194 194  194 194 194  195 195 195  196 196 196  197 197 197  197 197 197  198 198 198  199 199 199  199 199 199  200 200 200  201 201 201  201 201 201  202 202 202  203 203 203  204 204 204  204 204 204  205 205 205  206 206 206  206 206 206  207 207 207  208 208 208  208 208 208  209 209 209  210 210 210  211 211 211  211 211 211  212 212 212  213 213 213  213 213 213  214 214 214  215 215 215  215 215 215  216 216 216  216 216 216  217 217 217  218 218 218  218 218 218  219 219 219  220 220 220  220 220 220  221 221 221  221 221 221  222 222 222  222 222 222  223 223 223  224 224 224  224 224 224  225 225 225  225 225 225  226 226 226  226 226 226  227 227 227  227 227 227  228 228 228  228 228 228  229 229 229  229 229 229  229 229 229  230 230 230  230 230 230  231 231 231  231 231 231  231 231 231  232 232 232  232 232 232  232 232 232  233 233 233  233 233 233  233 233 233  234 234 234  234 234 234  234 234 234  234 234 234  235 235 235  235 235 235  235 235 235  235 235 235  235 235 235  235 235 235  235 235 235  236 236 236  236 236 236  236 236 236  236 236 236  236 236 236  236 236 236  236 236 236  236 236 236  236 236 236  236 236 236  236 236 236  236 236 236  235 235 235  235 235 235  235 235 235  235 235 235  235 235 235  235 235 235  235 235 235  234 234 234  234 234 234  234 234 234  234 234 234  233 233 233  233 233 233  233 233 233  232 232 232  232 232 232  232 232 232  231 231 231  231 231 231  231 231 231  230 230 230  230 230 230  229 229 229  229 229 229  229 229 229  228 228 228  228 228 228  227 227 227  227 227 227  226 226 226  226 226 226  225 225 225  225 225 225  224 224 224  224 224 224  223 223 223  222 222 222  222 222 222  221 221 221  221 221 221  220 220 220  220 220 220  219 219 219  218 218 218  218 218 218  217 217 217  216 216 216  216 216 216  215 215 215  215 215 215  214 214 214  213 213 213  213 213 213  212 212 212  211 211 211  211 211 211  210 210 210  209 209 209  208 208 208  208 208 208  207 207 207  206 206 206  206 206 206  205 205 205  204 204 204  204 204 204  203 203 203  202 202 202  201 201 201  201 201 201  200 200 200  199 199 199  199 199 199  198 198 198  197 197 197  197 197 197  196 196 196  195 195 195  194 194 194  194 194 194  193 193 193  192 192 192  192 192 192  191 191 191  190 190 190  189 189 189  189 189 189  188 188 188  187 187 187  187 187 187  186 186 186  185 185 185  185 185 185  184 184 184  
186 186 186  187 187 187  187 187 187  188 188 188  189 189 189  189 189 189  190 190 190  191 191 191  191 191 191  192 192 192  193 193 193  193 193 193  194 194 194  195 195 195  196 196 196  196 196 196  197 197 197  198 198 198  198 198 198  199 199 199  200 200 200  200 200 200  201 201 201  202 202 202  203 203 203  203 203 203  204 204 204  205 205 205  205 205 205  206 206 206  207 207 207  207 207 207  208 208 208  209 209 209  209 209 209  210 210 210  211 211 211  211 211 211  212 212 212  213 213 213  213 213 213  214 214 214  215 215 215  215 215 215  216 216 216  217 217 217  217 217 217  218 218 218  218 218 218  219 219 219  220 220 220  220 220 220  221 221 221  221 221 221  222 222 222  222 222 222  223 223 223  224 224 224  224 224 224  225 225 225  225 225 225  226 226 226  226 226 226  227 227 227  227 227 227  228 228 228  228 228 228  229 229 229  229 229 229  229 229 229  230 230 230  230 230 230  231 231 231  231 231 231  231 231 231  232 232 232  232 232 232  232 232 232  233 233 233  233 233 233  233 233 233  234 234 234  234 234 234  234 234 234  234 234 234  235 235 235  235 235 235  235 235 235  235 235 235  235 235 235  236 236 236  236 236 236  236 236 236  236 236 236  236 236 236  236 236 236  236 236 236  236 236 236  236 236 236  236 236 236  236 236 236  236 236 236  236 236 236  236 236 236  236 236 236  236 236 236  236 236 236  236 236 236  236 236 236  236 236 236  235 235 235  235 235 235  235 235 235  235 235 235  235 235 235  234 234 234  234 234 234  234 234 234  234 234 234  233 233 233  233 233 233  233 233 233  232 232 232  232 232 232  232 232 232  231 231 231  231 231 231  231 231 231  230 230 230  230 230 230  229 229 229  229 229 229  229 229 229  228 228 228  228 228 228  227 227 227  227 227 227  226 226 226  226 226 226  225 225 225  225 225 225  224 224 224  224 224 224  223 223 223  222 222 222  222 222 222  221 221 221  221 221 221  220 220 220  220 220 220  219 219 219  218 218 218  218 218 218  217 217 217  217 217 217  216 216 216  215 215 215  215 215 215  214 214 214  213 213 213  213 213 213  212 212 212  211 211 211  211 211 211  210 210 210  209 209 209  209 209 209  208 208 208  207 207 207  207 207 207  206 206 206  205 205 205  205 205 205  204 204 204  203 203 203  203 203 203  202 202 202  201 201 201  200 200 200  200 200 200  199 199 199  198 198 198  198 198 198  197 197 197  196 196 196  196 196 196  195 195 195  194 194 194  193 193 193  193 193 193  192 192 192  191 191 191  191 191 191  190 190 190  189 189 189  189 189 189  188 188 188  187 187 187  187 187 187  186 186 186  
188 188 188  188 188 188  189 189 189  190 190 190  191 191 191  191 191 191  192 192 192  193 193 193  193 193 193  194 194 194  195 195 195  195 195 195  196 196 196  197 197 197  197 197 197  198 198 198  199 199 199  199 199 199  200 200 200  201 201 201  201 201 201  202 202 202  203 203 203  204 204 204  204 204 204  205 205 205  206 206 206  206 206 206  207 207 207  208 208 208  208 208 208  209 209 209  210 210 210  210 210 210  211 211 211  212 212 212  212 212 212  213 213 213  214 214 214  214 214 214  215 215 215  215 215 215  216 216 216  217 217 217  217 217 217  218 218 218  218 218 218  219 219 219  220 220 220  220 220 220  221 221 221  221 221 221  222 222 222  223 223 223  223 223 223  224 224 224  224 224 224  225 225 225  225 225 225  226 226 226  226 226 226  227 227 227  227 227 227  228 228 228  228 228 228  229 229 229  229 229 229  230 230 230  230 230 230  230 230 230  231 231 231  231 231 231  232 232 232  232 232 232  232 232 232  233 233 233  233 233 233  233 233 233  234 234 234  234 234 234  234 234 234  234 234 234  235 235 235  235 235 235  235 235 235  235 235 235  236 236 236  236 236 236  236 236 236  236 236 236  236 236 236  236 236 236  236 236 236  237 237 237  237 237 237  237 237 237  237 237 237  237 237 237  237 237 237  237 237 237  237 237 237  237 237 237  237 237 237  237 237 237  237 237 237  237 237 237  237 237 237  236 236 236  236 236 236  236 236 236  236 236 236  236 236 236  236 236 236  236 236 236  235 235 235  235 235 235  235 235 235  235 235 235  234 234 234  234 234 234  234 234 234  234 234 234  233 233 233  233 233 233  233 233 233  232 232 232  232 232 232  232 232 232  231 231 231  231 231 231  230 230 230  230 230 230  230 230 230  229 229 229  229 229 229  228 228 228  228 228 228  227 227 227  227 227 227  226 226 226  226 226 226  225 225 225  225 225 225  224 224 224  224 224 224  223 223 223  223 223 223  222 222 222  221 221 221  221 221 221  220 220 220  220 220 220  219 219 219  218 218 218  218 218 218  217 217 217  217 217 217  216 216 216  215 215 215  215 215 215  214 214 214  214 214 214  213 213 213  212 212 212  212 212 212  211 211 211  210 210 210  210 210 210  209 209 209  208 208 208  208 208 208  207 207 207  206 206 206  206 206 206  205 205 205  204 204 204  204 204 204  203 203 203  202 202 202  201 201 201  201 201 201  200 200 200  199 199 199  199 199 199  198 198 198  197 197 197  197 197 197  196 196 196  195 195 195  195 195 195  194 194 194  193 193 193  193 193 193  192 192 192  191 191 191  191 191 191  190 190 190  189 189 189  188 188 188  188 188 188  
190 190 190  190 190 190  191 191 191  192 192 192  192 192 192  193 193 193  194 194 194  194 194 194  195 195 195  196 196 196  196 196 196  197 197 197  198 198 198  198 198 198  199 199 199  200 200 200  201 201 201  201 201 201  202 202 202  203 203 203  203 203 203  204 204 204  205 205 205  205 205 205  206 206 206  207 207 207  207 207 207  208 208 208  209 209 209  209 209 209  210 210 210  210 210 210  211 211 211  212 212 212  212 212 212  213 213 213  214 214 214  214 214 214  215 215 215  216 216 216  216 216 216  217 217 217  217 217 217  218 218 218  219 219 219  219 219 219  220 220 220  220 220 220  221 221 221  222 222 222  222 222 222  223 223 223  223 223 223  224 224 224  224 224 224  225 225 225  225 225 225  226 226 226  226 226 226  227 227 227  227 227 227  228 228 228  228 228 228  229 229 229  229 229 229  230 230 230  230 230 230  230 230 230  231 231 231  231 231 231  232 232 232  232 232 232  232 232 232  233 233 233  233 233 233  233 233 233  234 234 234  234 234 234  234 234 234  235 235 235  235 235 235  235 235 235  235 235 235  236 236 236  236 236 236  236 236 236  236 236 236  236 236 236  237 237 237  237 237 237  237 237 237  237 237 237  237 237 237  237 237 237  237 237 237  237 237 237  237 237 237  237 237 237  237 237 237  237 237 237  237 237 237  237 237 237  237 237 237  237 237 237  237 237 237  237 237 237  237 237 237  237 237 237  237 237 237  237 237 237  237 237 237  237 237 237  236 236 236  236 236 236  236 236 236  236 236 236  236 236 236  235 235 235  235 235 235  235 235 235  235 235 235  234 234 234  234 234 234  234 234 234  233 233 233  233 233 233  233 233 233  232 232 232  232 232 232  232 232 232  231 231 231  231 231 231  230 230 230  230 230 230  230 230 230  229 229 229  229 229 229  228 228 228  228 228 228  227 227 227  227 227 227  226 226 226  226 226 226  225 225 225  225 225 225  224 224 224  224 224 224  223 223 223  223 223 223  222 222 222  222 222 222  221 221 221  220 220 220  220 220 220  219 219 219  219 219 219  218 218 218  217 217 217  217 217 217  216 216 216  216 216 216  215 215 215  214 214 214  214 214 214  213 213 213  212 212 212  212 212 212  211 211 211  210 210 210  210 210 210  209 209 209  209 209 209  208 208 208  207 207 207  207 207 207  206 206 206  205 205 205  205 205 205  204 204 204  203 203 203  203 203 203  202 202 202  201 201 201  201 201 201  200 200 200  199 199 199  198 198 198  198 198 198  197 197 197  196 196 196  196 196 196  195 195 195  194 194 194  194 194 194  193 193 193  192 192 192  192 192 192  191 191 191  190 190 190  190 190 190  
192 192 192  192 192 192  193 193 193  194 194 194  194 194 194  195 195 195  196 196 196  196 196 196  197 197 197  198 198 198  198 198 198  199 199 199  200 200 200  200 200 200  201 201 201  202 202 202  202 202 202  203 203 203  204 204 204  204 204 204  205 205 205  206 206 206  206 206 206  207 207 207  207 207 207  208 208 208  209 209 209  209 209 209  210 210 210  211 211 211  211 211 211  212 212 212  213 213 213  213 213 213  214 214 214  215 215 215  215 215 215  216 216 216  216 216 216  217 217 217  218 218 218  218 218 218  219 219 219  219 219 219  220 220 220  220 220 220  221 221 221  222 222 222  222 222 222  223 223 223  223 223 223  224 224 224  224 224 224  225 225 225  225 225 225  226 226 226  226 226 226  227 227 227  227 227 227  228 228 228  228 228 228  229 229 229  229 229 229  230 230 230  230 230 230  231 231 231  231 231 231  231 231 231  232 232 232  232 232 232  233 233 233  233 233 233  233 233 233  234 234 234  234 234 234  234 234 234  235 235 235  235 235 235  235 235 235  235 235 235  236 236 236  236 236 236  236 236 236  236 236 236  237 237 237  237 237 237  237 237 237  237 237 237  237 237 237  237 237 237  238 238 238  238 238 238  238 238 238  238 238 238  238 238 238  238 238 238  238 238 238  238 238 238  238 238 238  238 238 238  238 238 238  238 238 238  238 238 238  238 238 238  238 238 238  238 238 238  238 238 238  238 238 238  238 238 238  238 238 238  237 237 237  237 237 237  237 237 237  237 237 237  237 237 237  237 237 237  236 236 236  236 236 236  236 236 236  236 236 236  235 235 235  235 235 235  235 235 235  235 235 235  234 234 234  234 234 234  234 234 234  233 233 233  233 233 233  233 233 233  232 232 232  232 232 232  231 231 231  231 231 231  231 231 231  230 230 230  230 230 230  229 229 229  229 229 229  228 228 228  228 228 228  227 227 227  227 227 227  226 226 226  226 226 226  225 225 225  225 225 225  224 224 224  224 224 224  223 223 223  223 223 223  222 222 222  222 222 222  221 221 221  220 220 220  220 220 220  219 219 219  219 219 219  218 218 218  218 218 218  217 217 217  216 216 216  216 216 216  215 215 215  215 215 215  214 214 214  213 213 213  213 213 213  212 212 212  211 211 211  211 211 211  210 210 210  209 209 209  209 209 209  208 208 208  207 207 207  207 207 207  206 206 206  206 206 206  205 205 205  204 204 204  204 204 204  203 203 203  202 202 202  202 202 202  201 201 201  200 200 200  200 200 200  199 199 199  198 198 198  198 198 198  197 197 197  196 196 196  196 196 196  195 195 195  194 194 194  194 194 194  193 193 193  192 192 192  192 192 192  
193 193 193  194 194 194  195 195 195  195 195 195  196 196 196  197 197 197  197 197 197  198 198 198  199 199 199  199 199 199  200 200 200  201 201 201  201 201 201  202 202 202  203 203 203  203 203 203  204 204 204  205 205 205  205 205 205  206 206 206  206 206 206  207 207 207  208 208 208  208 208 208  209 209 209  210 210 210  210 210 210  211 211 211  212 212 212  212 212 212  213 213 213  213 213 213  214 214 214  215 215 215  215 215 215  216 216 216  217 217 217  217 217 217  218 218 218  218 218 218  219 219 219  219 219 219  220 220 220  221 221 221  221 221 221  222 222 222  222 222 222  223 223 223  223 223 223  224 224 224  224 224 224  225 225 225  225 225 225  226 226 226  227 227 227  227 227 227  227 227 227  228 228 228  228 228 228  229 229 229  229 229 229  230 230 230  230 230 230  231 231 231  231 231 231  231 231 231  232 232 232  232 232 232  233 233 233  233 233 233  233 233 233  234 234 234  234 234 234  234 234 234  235 235 235  235 235 235  235 235 235  236 236 236  236 236 236  236 236 236  236 236 236  237 237 237  237 237 237  237 237 237  237 237 237  237 237 237  238 238 238  238 238 238  238 238 238  238 238 238  238 238 238  238 238 238  238 238 238  239 239 239  239 239 239  239 239 239  239 239 239  239 239 239  239 239 239  239 239 239  239 239 239  239 239 239  239 239 239  239 239 239  239 239 239  239 239 239  239 239 239  238 238 238  238 238 238  238 238 238  238 238 238  238 238 238  238 238 238  238 238 238  237 237 237  237 237 237  237 237 237  237 237 237  237 237 237  236 236 236  236 236 236  236 236 236  236 236 236  235 235 235  235 235 235  235 235 235  234 234 234  234 234 234  234 234 234  233 233 233  233 233 233  233 233 233  232 232 232  232 232 232  231 231 231  231 231 231  231 231 231  230 230 230  230 230 230  229 229 229  229 229 229  228 228 228  228 228 228  227 227 227  227 227 227  227 227 227  226 226 226  225 225 225  225 225 225  224 224 224  224 224 224  223 223 223  223 223 223  222 222 222  222 222 222  221 221 221  221 221 221  220 220 220  219 219 219  219 219 219  218 218 218  218 218 218  217 217 217  217 217 217  216 216 216  215 215 215  215 215 215  214 214 214  213 213 213  213 213 213  212 212 212  212 212 212  211 211 211  210 210 210  210 210 210  209 209 209  208 208 208  208 208 208  207 207 207  206 206 206  206 206 206  205 205 205  205 205 205  204 204 204  203 203 203  203 203 203  202 202 202  201 201 201  201 201 201  200 200 200  199 199 199  199 199 199  198 198 198  197 197 197  197 197 197  196 196 196  195 195 195  195 195 195  194 194 194  193 193 193  
195 195 195  196 196 196  196 196 196  197 197 197  198 198 198  198 198 198  199 199 199  200 200 200  200 200 200  201 201 201  202 202 202  202 202 202  203 203 203  204 204 204  204 204 204  205 205 205  205 205 205  206 206 206  207 207 207  207 207 207  208 208 208  209 209 209  209 209 209  210 210 210  211 211 211  211 211 211  212 212 212  212 212 212  213 213 213  214 214 214  214 214 214  215 215 215  215 215 215  216 216 216  217 217 217  217 217 217  218 218 218  218 218 218  219 219 219  220 220 220  220 220 220  221 221 221  221 221 221  222 222 222  222 222 222  223 223 223  224 224 224  224 224 224  225 225 225  225 225 225  226 226 226  226 226 226  227 227 227  227 227 227  228 228 228  228 228 228  229 229 229  229 229 229  229 229 229  230 230 230  230 230 230  231 231 231  231 231 231  232 232 232  232 232 232  232 232 232  233 233 233  233 233 233  234 234 234  234 234 234  234 234 234  235 235 235  235 235 235  235 235 235  236 236 236  236 236 236  236 236 236  236 236 236  237 237 237  237 237 237  237 237 237  237 237 237  238 238 238  238 238 238  238 238 238  238 238 238  238 238 238  239 239 239  239 239 239  239 239 239  239 239 239  239 239 239  239 239 239  239 239 239  239 239 239  239 239 239  239 239 239  239 239 239  239 239 239  240 240 240  240 240 240  239 239 239  239 239 239  239 239 239  239 239 239  239 239 239  239 239 239  239 239 239  239 239 239  239 239 239  239 239 239  239 239 239  239 239 239  238 238 238  238 238 238  238 238 238  238 238 238  238 238 238  237 237 237  237 237 237  237 237 237  237 237 237  236 236 236  236 236 236  236 236 236  236 236 236  235 235 235  235 235 235  235 235 235  234 234 234  234 234 234  234 234 234  233 233 233  233 233 233  232 232 232  232 232 232  232 232 232  231 231 231  231 231 231  230 230 230  230 230 230  229 229 229  229 229 229  229 229 229  228 228 228  228 228 228  227 227 227  227 227 227  226 226 226  226 226 226  225 225 225  225 225 225  224 224 224  224 224 224  223 223 223  222 222 222  222 222 222  221 221 221  221 221 221  220 220 220  220 220 220  219 219 219  218 218 218  218 218 218  217 217 217  217 217 217  216 216 216  215 215 215  215 215 215  214 214 214  214 214 214  213 213 213  212 212 212  212 212 212  211 211 211  211 211 211  210 210 210  209 209 209  209 209 209  208 208 208  207 207 207  207 207 207  206 206 206  205 205 205  205 205 205  204 204 204  204 204 204  203 203 203  202 202 202  202 202 202  201 201 201  200 200 200  200 200 200  199 199 199  198 198 198  198 198 198  197 197 197  196 196 196  196 196 196  195 195 195  
197 197 197  197 197 197  198 198 198  199 199 199  199 199 199  200 200 200  201 201 201  201 201 201  202 202 202  203 203 203  203 203 203  204 204 204  205 205 205  205 205 205  206 206 206  206 206 206  207 207 207  208 208 208  208 208 208  209 209 209  210 210 210  210 210 210  211 211 211  211 211 211  212 212 212  213 213 213  213 213 213  214 214 214  214 214 214  215 215 215  216 216 216  216 216 216  217 217 217  217 217 217  218 218 218  219 219 219  219 219 219  220 220 220  220 220 220  221 221 221  221 221 221  222 222 222  223 223 223  223 223 223  224 224 224  224 224 224  225 225 225  225 225 225  226 226 226  226 226 226  227 227 227  227 227 227  228 228 228  228 228 228  229 229 229  229 229 229  230 230 230  230 230 230  230 230 230  231 231 231  231 231 231  232 232 232  232 232 232  233 233 233  233 233 233  233 233 233  234 234 234  234 234 234  234 234 234  235 235 235  235 235 235  235 235 235  236 236 236  236 236 236  236 236 236  237 237 237  237 237 237  237 237 237  237 237 237  238 238 238  238 238 238  238 238 238  238 238 238  239 239 239  239 239 239  239 239 239  239 239 239  239 239 239  239 239 239  240 240 240  240 240 240  240 240 240  240 240 240  240 240 240  240 240 240  240 240 240  240 240 240  240 240 240  240 240 240  240 240 240  240 240 240  240 240 240  240 240 240  240 240 240  240 240 240  240 240 240  240 240 240  240 240 240  240 240 240  240 240 240  240 240 240  239 239 239  239 239 239  239 239 239  239 239 239  239 239 239  239 239 239  238 238 238  238 238 238  238 238 238  238 238 238  237 237 237  237 237 237  237 237 237  237 237 237  236 236 236  236 236 236  236 236 236  235 235 235  235 235 235  235 235 235  234 234 234  234 234 234  234 234 234  233 233 233  233 233 233  233 233 233  232 232 232  232 232 232  231 231 231  231 231 231  230 230 230  230 230 230  230 230 230  229 229 229  229 229 229  228 228 228  228 228 228  227 227 227  227 227 227  226 226 226  226 226 226  225 225 225  225 225 225  224 224 224  224 224 224  223 223 223  223 223 223  222 222 222  221 221 221  221 221 221  220 220 220  220 220 220  219 219 219  219 219 219  218 218 218  217 217 217  217 217 217  216 216 216  216 216 216  215 215 215  214 214 214  214 214 214  213 213 213  213 213 213  212 212 212  211 211 211  211 211 211  210 210 210  210 210 210  209 209 209  208 208 208  208 208 208  207 207 207  206 206 206  206 206 206  205 205 205  205 205 205  204 204 204  203 203 203  203 203 203  202 202 202  201 201 201  201 201 201  200 200 200  199 199 199  199 199 199  198 198 198  197 197 197  197 197 197  
199 199 199  199 199 199  200 200 200  200 200 200  201 201 201  202 202 202  202 202 202  203 203 203  204 204 204  204 204 204  205 205 205  205 205 205  206 206 206  207 207 207  207 207 207  208 208 208  209 209 209  209 209 209  210 210 210  210 210 210  211 211 211  212 212 212  212 212 212  213 213 213  213 213 213  214 214 214  215 215 215  215 215 215  216 216 216  216 216 216  217 217 217  218 218 218  218 218 218  219 219 219  219 219 219  220 220 220  220 220 220  221 221 221  222 222 222  222 222 222  223 223 223  223 223 223  224 224 224  224 224 224  225 225 225  225 225 225  226 226 226  226 226 226  227 227 227  227 227 227  228 228 228  228 228 228  229 229 229  229 229 229  230 230 230  230 230 230  231 231 231  231 231 231  232 232 232  232 232 232  232 232 232  233 233 233  233 233 233  234 234 234  234 234 234  234 234 234  235 235 235  235 235 235  235 235 235  236 236 236  236 236 236  236 236 236  237 237 237  237 237 237  237 237 237  238 238 238  238 238 238  238 238 238  238 238 238  239 239 239  239 239 239  239 239 239  239 239 239  239 239 239  240 240 240  240 240 240  240 240 240  240 240 240  240 240 240  240 240 240  240 240 240  241 241 241  241 241 241  241 241 241  241 241 241  241 241 241  241 241 241  241 241 241  241 241 241  241 241 241  241 241 241  241 241 241  241 241 241  241 241 241  241 241 241  241 241 241  241 241 241  241 241 241  241 241 241  240 240 240  240 240 240  240 240 240  240 240 240  240 240 240  240 240 240  240 240 240  239 239 239  239 239 239  239 239 239  239 239 239  239 239 239  238 238 238  238 238 238  238 238 238  238 238 238  237 237 237  237 237 237  237 237 237  236 236 236  236 236 236  236 236 236  235 235 235  235 235 235  235 235 235  234 234 234  234 234 234  234 234 234  233 233 233  233 233 233  232 232 232  232 232 232  232 232 232  231 231 231  231 231 231  230 230 230  230 230 230  229 229 229  229 229 229  228 228 228  228 228 228  227 227 227  227 227 227  226 226 226  226 226 226  225 225 225  225 225 225  224 224 224  224 224 224  223 223 223  223 223 223  222 222 222  222 222 222  221 221 221  220 220 220  220 220 220  219 219 219  219 219 219  218 218 218  218 218 218  217 217 217  216 216 216  216 216 216  215 215 215  215 215 215  214 214 214  213 213 213  213 213 213  212 212 212  212 212 212  211 211 211  210 210 210  210 210 210  209 209 209  209 209 209  208 208 208  207 207 207  207 207 207  206 206 206  205 205 205  205 205 205  204 204 204  204 204 204  203 203 203  202 202 202  202 202 202  201 201 201  200 200 200  200 200 200  199 199 199  199 199 199  
200 200 200  201 201 201  201 201 201  202 202 202  203 203 203  203 203 203  204 204 204  204 204 204  205 205 205  206 206 206  206 206 206  207 207 207  208 208 208  208 208 208  209 209 209  209 209 209  210 210 210  211 211 211  211 211 211  212 212 212  212 212 212  213 213 213  214 214 214  214 214 214  215 215 215  215 215 215  216 216 216  217 217 217  217 217 217  218 218 218  218 218 218  219 219 219  220 220 220  220 220 220  221 221 221  221 221 221  222 222 222  222 222 222  223 223 223  223 223 223  224 224 224  224 224 224  225 225 225  225 225 225  226 226 226  226 226 226  227 227 227  227 227 227  228 228 228  228 228 228  229 229 229  229 229 229  230 230 230  230 230 230  231 231 231  231 231 231  232 232 232  232 232 232  232 232 232  233 233 233  233 233 233  234 234 234  234 234 234  234 234 234  235 235 235  235 235 235  236 236 236  236 236 236  236 236 236  237 237 237  237 237 237  237 237 237  237 237 237  238 238 238  238 238 238  238 238 238  239 239 239  239 239 239  239 239 239  239 239 239  240 240 240  240 240 240  240 240 240  240 240 240  240 240 240  240 240 240  241 241 241  241 241 241  241 241 241  241 241 241  241 241 241  241 241 241  241 241 241  241 241 241  241 241 241  242 242 242  242 242 242  242 242 242  242 242 242  242 242 242  242 242 242  242 242 242  242 242 242  242 242 242  242 242 242  241 241 241  241 241 241  241 241 241  241 241 241  241 241 241  241 241 241  241 241 241  241 241 241  241 241 241  240 240 240  240 240 240  240 240 240  240 240 240  240 240 240  240 240 240  239 239 239  239 239 239  239 239 239  239 239 239  238 238 238  238 238 238  238 238 238  237 237 237  237 237 237  237 237 237  237 237 237  236 236 236  236 236 236  236 236 236  235 235 235  235 235 235  234 234 234  234 234 234  234 234 234  233 233 233  233 233 233  232 232 232  232 232 232  232 232 232  231 231 231  231 231 231  230 230 230  230 230 230  229 229 229  229 229 229  228 228 228  228 228 228  227 227 227  227 227 227  226 226 226  226 226 226  225 225 225  225 225 225  224 224 224  224 224 224  223 223 223  223 223 223  222 222 222  222 222 222  221 221 221  221 221 221  220 220 220  220 220 220  219 219 219  218 218 218  218 218 218  217 217 217  217 217 217  216 216 216  215 215 215  215 215 215  214 214 214  214 214 214  213 213 213  212 212 212  212 212 212  211 211 211  211 211 211  210 210 210  209 209 209  209 209 209  208 208 208  208 208 208  207 207 207  206 206 206  206 206 206  205 205 205  204 204 204  204 204 204  203 203 203  203 203 203  202 202 202  201 201 201  201 201 201  200 200 200  
202 202 202  202 202 202  203 203 203  204 204 204  204 204 204  205 205 205  205 205 205  206 206 206  207 207 207  207 207 207  208 208 208  208 208 208  209 209 209  210 210 210  210 210 210  211 211 211  211 211 211  212 212 212  213 213 213  213 213 213  214 214 214  214 214 214  215 215 215  216 216 216  216 216 216  217 217 217  217 217 217  218 218 218  219 219 219  219 219 219  220 220 220  220 220 220  221 221 221  221 221 221  222 222 222  222 222 222  223 223 223  223 223 223  224 224 224  225 225 225  225 225 225  226 226 226  226 226 226  227 227 227  227 227 227  228 228 228  228 228 228  229 229 229  229 229 229  230 230 230  230 230 230  230 230 230  231 231 231  231 231 231  232 232 232  232 232 232  233 233 233  233 233 233  233 233 233  234 234 234  234 234 234  235 235 235  235 235 235  235 235 235  236 236 236  236 236 236  236 236 236  237 237 237  237 237 237  237 237 237  238 238 238  238 238 238  238 238 238  239 239 239  239 239 239  239 239 239  239 239 239  240 240 240  240 240 240  240 240 240  240 240 240  240 240 240  241 241 241  241 241 241  241 241 241  241 241 241  241 241 241  241 241 241  242 242 242  242 242 242  242 242 242  242 242 242  242 242 242  242 242 242  242 242 242  242 242 242  242 242 242  242 242 242  242 242 242  242 242 242  242 242 242  242 242 242  242 242 242  242 242 242  242 242 242  242 242 242  242 242 242  242 242 242  242 242 242  242 242 242  242 242 242  242 242 242  241 241 241  241 241 241  241 241 241  241 241 241  241 241 241  241 241 241  240 240 240  240 240 240  240 240 240  240 240 240  240 240 240  239 239 239  239 239 239  239 239 239  239 239 239  238 238 238  238 238 238  238 238 238  237 237 237  237 237 237  237 237 237  236 236 236  236 236 236  236 236 236  235 235 235  235 235 235  235 235 235  234 234 234  234 234 234  233 233 233  233 233 233  233 233 233  232 232 232  232 232 232  231 231 231  231 231 231  230 230 230  230 230 230  230 230 230  229 229 229  229 229 229  228 228 228  228 228 228  227 227 227  227 227 227  226 226 226  226 226 226  225 225 225  225 225 225  224 224 224  223 223 223  223 223 223  222 222 222  222 222 222  221 221 221  221 221 221  220 220 220  220 220 220  219 219 219  219 219 219  218 218 218  217 217 217  217 217 217  216 216 216  216 216 216  215 215 215  214 214 214  214 214 214  213 213 213  213 213 213  212 212 212  211 211 211  211 211 211  210 210 210  210 210 210  209 209 209  208 208 208  208 208 208  207 207 207  207 207 207  206 206 206  205 205 205  205 205 205  204 204 204  204 204 204  203 203 203  202 202 202  202 202 202  
203 203 203  204 204 204  204 204 204  205 205 205  206 206 206  206 206 206  207 207 207  207 207 207  208 208 208  209 209 209  209 209 209  210 210 210  210 210 210  211 211 211  212 212 212  212 212 212  213 213 213  213 213 213  214 214 214  215 215 215  215 215 215  216 216 216  216 216 216  217 217 217  218 218 218  218 218 218  219 219 219  219 219 219  220 220 220  220 220 220  221 221 221  221 221 221  222 222 222  223 223 223  223 223 223  224 224 224  224 224 224  225 225 225  225 225 225  226 226 226  226 226 226  227 227 227  227 227 227  228 228 228  228 228 228  229 229 229  229 229 229  230 230 230  230 230 230  231 231 231  231 231 231  231 231 231  232 232 232  232 232 232  233 233 233  233 233 233  234 234 234  234 234 234  234 234 234  235 235 235  235 235 235  236 236 236  236 236 236  236 236 236  237 237 237  237 237 237  237 237 237  238 238 238  238 238 238  238 238 238  239 239 239  239 239 239  239 239 239  239 239 239  240 240 240  240 240 240  240 240 240  240 240 240  241 241 241  241 241 241  241 241 241  241 241 241  241 241 241  242 242 242  242 242 242  242 242 242  242 242 242  242 242 242  242 242 242  242 242 242  243 243 243  243 243 243  243 243 243  243 243 243  243 243 243  243 243 243  243 243 243  243 243 243  243 243 243  243 243 243  243 243 243  243 243 243  243 243 243  243 243 243  243 243 243  243 243 243  243 243 243  243 243 243  243 243 243  243 243 243  242 242 242  242 242 242  242 242 242  242 242 242  242 242 242  242 242 242  242 242 242  241 241 241  241 241 241  241 241 241  241 241 241  241 241 241  240 240 240  240 240 240  240 240 240  240 240 240  239 239 239  239 239 239  239 239 239  239 239 239  238 238 238  238 238 238  238 238 238  237 237 237  237 237 237  237 237 237  236 236 236  236 236 236  236 236 236  235 235 235  235 235 235  234 234 234  234 234 234  234 234 234  233 233 233  233 233 233  232 232 232  232 232 232  231 231 231  231 231 231  231 231 231  230 230 230  230 230 230  229 229 229  229 229 229  228 228 228  228 228 228  227 227 227  227 227 227  226 226 226  226 226 226  225 225 225  225 225 225  224 224 224  224 224 224  223 223 223  223 223 223  222 222 222  221 221 221  221 221 221  220 220 220  220 220 220  219 219 219  219 219 219  218 218 218  218 218 218  217 217 217  216 216 216  216 216 216  215 215 215  215 215 215  214 214 214  213 213 213  213 213 213  212 212 212  212 212 212  211 211 211  210 210 210  210 210 210  209 209 209  209 209 209  208 208 208  207 207 207  207 207 207  206 206 206  206 206 206  205 205 205  204 204 204  204 204 204  203 203 203  
205 205 205  205 205 205  206 206 206  207 207 207  207 207 207  208 208 208  208 208 208  209 209 209  210 210 210  210 210 210  211 211 211  211 211 211  212 212 212  212 212 212  213 213 213  214 214 214  214 214 214  215 215 215  215 215 215  216 216 216  217 217 217  217 217 217  218 218 218  218 218 218  219 219 219  219 219 219  220 220 220  220 220 220  221 221 221  222 222 222  222 222 222  223 223 223  223 223 223  224 224 224  224 224 224  225 225 225  225 225 225  226 226 226  226 226 226  227 227 227  227 227 227  228 228 228  228 228 228  229 229 229  229 229 229  230 230 230  230 230 230  231 231 231  231 231 231  232 232 232  232 232 232  232 232 232  233 233 233  233 233 233  234 234 234  234 234 234  235 235 235  235 235 235  235 235 235  236 236 236  236 236 236  236 236 236  237 237 237  237 237 237  237 237 237  238 238 238  238 238 238  238 238 238  239 239 239  239 239 239  239 239 239  240 240 240  240 240 240  240 240 240  240 240 240  241 241 241  241 241 241  241 241 241  241 241 241  242 242 242  242 242 242  242 242 242  242 242 242  242 242 242  243 243 243  243 243 243  243 243 243  243 243 243  243 243 243  243 243 243  243 243 243  243 243 243  243 243 243  244 244 244  244 244 244  244 244 244  244 244 244  244 244 244  244 244 244  244 244 244  244 244 244  244 244 244  244 244 244  244 244 244  244 244 244  244 244 244  244 244 244  243 243 243  243 243 243  243 243 243  243 243 243  243 243 243  243 243 243  243 243 243  243 243 243  243 243 243  242 242 242  242 242 242  242 242 242  242 242 242  242 242 242  241 241 241  241 241 241  241 241 241  241 241 241  240 240 240  240 240 240  240 240 240  240 240 240  239 239 239  239 239 239  239 239 239  238 238 238  238 238 238  238 238 238  237 237 237  237 237 237  237 237 237  236 236 236  236 236 236  236 236 236  235 235 235  235 235 235  235 235 235  234 234 234  234 234 234  233 233 233  233 233 233  232 232 232  232 232 232  232 232 232  231 231 231  231 231 231  230 230 230  230 230 230  229 229 229  229 229 229  228 228 228  228 228 228  227 227 227  227 227 227  226 226 226  226 226 226  225 225 225  225 225 225  224 224 224  224 224 224  223 223 223  223 223 223  222 222 222  222 222 222  221 221 221  220 220 220  220 220 220  219 219 219  219 219 219  218 218 218  218 218 218  217 217 217  217 217 217  216 216 216  215 215 215  215 215 215  214 214 214  214 214 214  213 213 213  212 212 212  212 212 212  211 211 211  211 211 211  210 210 210  210 210 210  209 209 209  208 208 208  208 208 208  207 207 207  207 207 207  206 206 206  205 205 205  205 205 205  
206 206 206  207 207 207  207 207 207  208 208 208  209 209 209  209 209 209  210 210 210  210 210 210  211 211 211  211 211 211  212 212 212  213 213 213  213 213 213  214 214 214  214 214 214  215 215 215  216 216 216  216 216 216  217 217 217  217 217 217  218 218 218  218 218 218  219 219 219  219 219 219  220 220 220  221 221 221  221 221 221  222 222 222  222 222 222  223 223 223  223 223 223  224 224 224  224 224 224  225 225 225  225 225 225  226 226 226  226 226 226  227 227 227  227 227 227  228 228 228  228 228 228  229 229 229  229 229 229  230 230 230  230 230 230  231 231 231  231 231 231  232 232 232  232 232 232  233 233 233  233 233 233  233 233 233  234 234 234  234 234 234  235 235 235  235 235 235  235 235 235  236 236 236  236 236 236  237 237 237  237 237 237  237 237 237  238 238 238  238 238 238  238 238 238  239 239 239  239 239 239  239 239 239  240 240 240  240 240 240  240 240 240  240 240 240  241 241 241  241 241 241  241 241 241  241 241 241  242 242 242  242 242 242  242 242 242  242 242 242  243 243 243  243 243 243  243 243 243  243 243 243  243 243 243  243 243 243  244 244 244  244 244 244  244 244 244  244 244 244  244 244 244  244 244 244  244 244 244  244 244 244  244 244 244  244 244 244  244 244 244  244 244 244  244 244 244  244 244 244  244 244 244  244 244 244  244 244 244  244 244 244  244 244 244  244 244 244  244 244 244  244 244 244  244 244 244  244 244 244  244 244 244  244 244 244  244 244 244  244 244 244  243 243 243  243 243 243  243 243 243  243 243 243  243 243 243  243 243 243  242 242 242  242 242 242  242 242 242  242 242 242  241 241 241  241 241 241  241 241 241  241 241 241  240 240 240  240 240 240  240 240 240  240 240 240  239 239 239  239 239 239  239 239 239  238 238 238  238 238 238  238 238 238  237 237 237  237 237 237  237 237 237  236 236 236  236 236 236  235 235 235  235 235 235  235 235 235  234 234 234  234 234 234  233 233 233  233 233 233  233 233 233  232 232 232  232 232 232  231 231 231  231 231 231  230 230 230  230 230 230  229 229 229  229 229 229  228 228 228  228 228 228  227 227 227  227 227 227  226 226 226  226 226 226  225 225 225  225 225 225  224 224 224  224 224 224  223 223 223  223 223 223  222 222 222  222 222 222  221 221 221  221 221 221  220 220 220  219 219 219  219 219 219  218 218 218  218 218 218  217 217 217  217 217 217  216 216 216  216 216 216  215 215 215  214 214 214  214 214 214  213 213 213  213 213 213  212 212 212  211 211 211  211 211 211  210 210 210  210 210 210  209 209 209  209 209 209  208 208 208  207 207 207  207 207 207  206 206 206  
208 208 208  208 208 208  209 209 209  209 209 209  210 210 210  211 211 211  211 211 211  212 212 212  212 212 212  213 213 213  213 213 213  214 214 214  215 215 215  215 215 215  216 216 216  216 216 216  217 217 217  217 217 217  218 218 218  219 219 219  219 219 219  220 220 220  220 220 220  221 221 221  221 221 221  222 222 222  222 222 222  223 223 223  223 223 223  224 224 224  224 224 224  225 225 225  225 225 225  226 226 226  227 227 227  227 227 227  228 228 228  228 228 228  228 228 228  229 229 229  229 229 229  230 230 230  230 230 230  231 231 231  231 231 231  232 232 232  232 232 232  233 233 233  233 233 233  234 234 234  234 234 234  234 234 234  235 235 235  235 235 235  236 236 236  236 236 236  236 236 236  237 237 237  237 237 237  237 237 237  238 238 238  238 238 238  239 239 239  239 239 239  239 239 239  239 239 239  240 240 240  240 240 240  240 240 240  241 241 241  241 241 241  241 241 241  241 241 241  242 242 242  242 242 242  242 242 242  242 242 242  243 243 243  243 243 243  243 243 243  243 243 243  243 243 243  244 244 244  244 244 244  244 244 244  244 244 244  244 244 244  244 244 244  244 244 244  245 245 245  245 245 245  245 245 245  245 245 245  245 245 245  245 245 245  245 245 245  245 245 245  245 245 245  245 245 245  245 245 245  245 245 245  245 245 245  245 245 245  245 245 245  245 245 245  245 245 245  245 245 245  245 245 245  245 245 245  245 245 245  245 245 245  244 244 244  244 244 244  244 244 244  244 244 244  244 244 244  244 244 244  244 244 244  243 243 243  243 243 243  243 243 243  243 243 243  243 243 243  242 242 242  242 242 242  242 242 242  242 242 242  241 241 241  241 241 241  241 241 241  241 241 241  240 240 240  240 240 240  240 240 240  239 239 239  239 239 239  239 239 239  239 239 239  238 238 238  238 238 238  237 237 237  237 237 237  237 237 237  236 236 236  236 236 236  236 236 236  235 235 235  235 235 235  234 234 234  234 234 234  234 234 234  233 233 233  233 233 233  232 232 232  232 232 232  231 231 231  231 231 231  230 230 230  230 230 230  229 229 229  229 229 229  228 228 228  228 228 228  228 228 228  227 227 227  227 227 227  226 226 226  225 225 225  225 225 225  224 224 224  224 224 224  223 223 223  223 223 223  222 222 222  222 222 222  221 221 221  221 221 221  220 220 220  220 220 220  219 219 219  219 219 219  218 218 218  217 217 217  217 217 217  216 216 216  216 216 216  215 215 215  215 215 215  214 214 214  213 213 213  213 213 213  212 212 212  212 212 212  211 211 211  211 211 211  210 210 210  209 209 209  209 209 209  208 208 208  208 208 208  
209 209 209  210 210 210  210 210 210  211 211 211  211 211 211  212 212 212  212 212 212  213 213 213  214 214 214  214 214 214  215 215 215  215 215 215  216 216 216  216 216 216  217 217 217  218 218 218  218 218 218  219 219 219  219 219 219  220 220 220  220 220 220  221 221 221  221 221 221  222 222 222  222 222 222  223 223 223  223 223 223  224 224 224  225 225 225  225 225 225  226 226 226  226 226 226  227 227 227  227 227 227  228 228 228  228 228 228  229 229 229  229 229 229  230 230 230  230 230 230  230 230 230  231 231 231  231 231 231  232 232 232  232 232 232  233 233 233  233 233 233  234 234 234  234 234 234  234 234 234  235 235 235  235 235 235  236 236 236  236 236 236  236 236 236  237 237 237  237 237 237  238 238 238  238 238 238  238 238 238  239 239 239  239 239 239  239 239 239  240 240 240  240 240 240  240 240 240  241 241 241  241 241 241  241 241 241  241 241 241  242 242 242  242 242 242  242 242 242  242 242 242  243 243 243  243 243 243  243 243 243  243 243 243  244 244 244  244 244 244  244 244 244  244 244 244  244 244 244  244 244 244  245 245 245  245 245 245  245 245 245  245 245 245  245 245 245  245 245 245  245 245 245  245 245 245  245 245 245  246 246 246  246 246 246  246 246 246  246 246 246  246 246 246  246 246 246  246 246 246  246 246 246  246 246 246  246 246 246  246 246 246  246 246 246  246 246 246  246 246 246  245 245 245  245 245 245  245 245 245  245 245 245  245 245 245  245 245 245  245 245 245  245 245 245  245 245 245  244 244 244  244 244 244  244 244 244  244 244 244  244 244 244  244 244 244  243 243 243  243 243 243  243 243 243  243 243 243  242 242 242  242 242 242  242 242 242  242 242 242  241 241 241  241 241 241  241 241 241  241 241 241  240 240 240  240 240 240  240 240 240  239 239 239  239 239 239  239 239 239  238 238 238  238 238 238  238 238 238  237 237 237  237 237 237  236 236 236  236 236 236  236 236 236  235 235 235  235 235 235  234 234 234  234 234 234  234 234 234  233 233 233  233 233 233  232 232 232  232 232 232  231 231 231  231 231 231  230 230 230  230 230 230  230 230 230  229 229 229  229 229 229  228 228 228  228 228 228  227 227 227  227 227 227  226 226 226  226 226 226  225 225 225  225 225 225  224 224 224  223 223 223  223 223 223  222 222 222  222 222 222  221 221 221  221 221 221  220 220 220  220 220 220  219 219 219  219 219 219  218 218 218  218 218 218  217 217 217  216 216 216  216 216 216  215 215 215  215 215 215  214 214 214  214 214 214  213 213 213  212 212 212  212 212 212  211 211 211  211 211 211  210 210 210  210 210 210  209 209 209  
210 210 210  211 211 211  211 211 211  212 212 212  213 213 213  213 213 213  214 214 214  214 214 214  215 215 215  215 215 215  216 216 216  217 217 217  217 217 217  218 218 218  218 218 218  219 219 219  219 219 219  220 220 220  220 220 220  221 221 221  221 221 221  222 222 222  223 223 223  223 223 223  224 224 224  224 224 224  225 225 225  225 225 225  226 226 226  226 226 226  227 227 227  227 227 227  228 228 228  228 228 228  229 229 229  229 229 229  230 230 230  230 230 230  231 231 231  231 231 231  231 231 231  232 232 232  232 232 232  233 233 233  233 233 233  234 234 234  234 234 234  235 235 235  235 235 235  235 235 235  236 236 236  236 236 236  237 237 237  237 237 237  237 237 237  238 238 238  238 238 238  238 238 238  239 239 239  239 239 239  239 239 239  240 240 240  240 240 240  240 240 240  241 241 241  241 241 241  241 241 241  242 242 242  242 242 242  242 242 242  242 242 242  243 243 243  243 243 243  243 243 243  243 243 243  244 244 244  244 244 244  244 244 244  244 244 244  244 244 244  245 245 245  245 245 245  245 245 245  245 245 245  245 245 245  245 245 245  246 246 246  246 246 246  246 246 246  246 246 246  246 246 246  246 246 246  246 246 246  246 246 246  246 246 246  246 246 246  246 246 246  246 246 246  246 246 246  246 246 246  246 246 246  246 246 246  246 246 246  246 246 246  246 246 246  246 246 246  246 246 246  246 246 246  246 246 246  246 246 246  246 246 246  246 246 246  246 246 246  246 246 246  245 245 245  245 245 245  245 245 245  245 245 245  245 245 245  245 245 245  244 244 244  244 244 244  244 244 244  244 244 244  244 244 244  243 243 243  243 243 243  243 243 243  243 243 243  242 242 242  242 242 242  242 242 242  242 242 242  241 241 241  241 241 241  241 241 241  240 240 240  240 240 240  240 240 240  239 239 239  239 239 239  239 239 239  238 238 238  238 238 238  238 238 238  237 237 237  237 237 237  237 237 237  236 236 236  236 236 236  235 235 235  235 235 235  235 235 235  234 234 234  234 234 234  233 233 233  233 233 233  232 232 232  232 232 232  231 231 231  231 231 231  231 231 231  230 230 230  230 230 230  229 229 229  229 229 229  228 228 228  228 228 228  227 227 227  227 227 227  226 226 226  226 226 226  225 225 225  225 225 225  224 224 224  224 224 224  223 223 223  223 223 223  222 222 222  221 221 221  221 221 221  220 220 220  220 220 220  219 219 219  219 219 219  218 218 218  218 218 218  217 217 217  217 217 217  216 216 216  215 215 215  215 215 215  214 214 214  214 214 214  213 213 213  213 213 213  212 212 212  211 211 211  211 211 211  210 210 210  
212 212 212  212 212 212  213 213 213  213 213 213  214 214 214  214 214 214  215 215 215  216 216 216  216 216 216  217 217 217  217 217 217  218 218 218  218 218 218  219 219 219  219 219 219  220 220 220  220 220 220  221 221 221  222 222 222  222 222 222  223 223 223  223 223 223  224 224 224  224 224 224  225 225 225  225 225 225  226 226 226  226 226 226  227 227 227  227 227 227  228 228 228  228 228 228  229 229 229  229 229 229  230 230 230  230 230 230  231 231 231  231 231 231  232 232 232  232 232 232  232 232 232  233 233 233  233 233 233  234 234 234  234 234 234  235 235 235  235 235 235  235 235 235  236 236 236  236 236 236  237 237 237  237 237 237  237 237 237  238 238 238  238 238 238  239 239 239  239 239 239  239 239 239  240 240 240  240 240 240  240 240 240  241 241 241  241 241 241  241 241 241  242 242 242  242 242 242  242 242 242  242 242 242  243 243 243  243 243 243  243 243 243  243 243 243  244 244 244  244 244 244  244 244 244  244 244 244  245 245 245  245 245 245  245 245 245  245 245 245  245 245 245  246 246 246  246 246 246  246 246 246  246 246 246  246 246 246  246 246 246  246 246 246  246 246 246  247 247 247  247 247 247  247 247 247  247 247 247  247 247 247  247 247 247  247 247 247  247 247 247  247 247 247  247 247 247  247 247 247  247 247 247  247 247 247  247 247 247  247 247 247  247 247 247  247 247 247  247 247 247  247 247 247  247 247 247  247 247 247  247 247 247  246 246 246  246 246 246  246 246 246  246 246 246  246 246 246  246 246 246  246 246 246  246 246 246  245 245 245  245 245 245  245 245 245  245 245 245  245 245 245  244 244 244  244 244 244  244 244 244  244 244 244  243 243 243  243 243 243  243 243 243  243 243 243  242 242 242  242 242 242  242 242 242  242 242 242  241 241 241  241 241 241  241 241 241  240 240 240  240 240 240  240 240 240  239 239 239  239 239 239  239 239 239  238 238 238  238 238 238  237 237 237  237 237 237  237 237 237  236 236 236  236 236 236  235 235 235  235 235 235  235 235 235  234 234 234  234 234 234  233 233 233  233 233 233  232 232 232  232 232 232  232 232 232  231 231 231  231 231 231  230 230 230  230 230 230  229 229 229  229 229 229  228 228 228  228 228 228  227 227 227  227 227 227  226 226 226  226 226 226  225 225 225  225 225 225  224 224 224  224 224 224  223 223 223  223 223 223  222 222 222  222 222 222  221 221 221  220 220 220  220 220 220  219 219 219  219 219 219  218 218 218  218 218 218  217 217 217  217 217 217  216 216 216  216 216 216  215 215 215  214 214 214  214 214 214  213 213 213  213 213 213  212 212 212  212 212 212  
213 213 213  213 213 213  214 214 214  215 215 215  215 215 215  216 216 216  216 216 216  217 217 217  217 217 217  218 218 218  218 218 218  219 219 219  219 219 219  220 220 220  221 221 221  221 221 221  222 222 222  222 222 222  223 223 223  223 223 223  224 224 224  224 224 224  225 225 225  225 225 225  226 226 226  226 226 226  227 227 227  227 227 227  228 228 228  228 228 228  229 229 229  229 229 229  230 230 230  230 230 230  231 231 231  231 231 231  232 232 232  232 232 232  232 232 232  233 233 233  233 233 233  234 234 234  234 234 234  235 235 235  235 235 235  236 236 236  236 236 236  236 236 236  237 237 237  237 237 237  238 238 238  238 238 238  238 238 238  239 239 239  239 239 239  239 239 239  240 240 240  240 240 240  240 240 240  241 241 241  241 241 241  241 241 241  242 242 242  242 242 242  242 242 242  243 243 243  243 243 243  243 243 243  243 243 243  244 244 244  244 244 244  244 244 244  244 244 244  245 245 245  245 245 245  245 245 245  245 245 245  245 245 245  246 246 246  246 246 246  246 246 246  246 246 246  246 246 246  246 246 246  247 247 247  247 247 247  247 247 247  247 247 247  247 247 247  247 247 247  247 247 247  247 247 247  247 247 247  247 247 247  248 248 248  248 248 248  248 248 248  248 248 248  248 248 248  248 248 248  248 248 248  248 248 248  248 248 248  248 248 248  248 248 248  248 248 248  247 247 247  247 247 247  247 247 247  247 247 247  247 247 247  247 247 247  247 247 247  247 247 247  247 247 247  247 247 247  246 246 246  246 246 246  246 246 246  246 246 246  246 246 246  246 246 246  245 245 245  245 245 245  245 245 245  245 245 245  245 245 245  244 244 244  244 244 244  244 244 244  244 244 244  243 243 243  243 243 243  243 243 243  243 243 243  242 242 242  242 242 242  242 242 242  241 241 241  241 241 241  241 241 241  240 240 240  240 240 240  240 240 240  239 239 239  239 239 239  239 239 239  238 238 238  238 238 238  238 238 238  237 237 237  237 237 237  236 236 236  236 236 236  236 236 236  235 235 235  235 235 235  234 234 234  234 234 234  233 233 233  233 233 233  232 232 232  232 232 232  232 232 232  231 231 231  231 231 231  230 230 230  230 230 230  229 229 229  229 229 229  228 228 228  228 228 228  227 227 227  227 227 227  226 226 226  226 226 226  225 225 225  225 225 225  224 224 224  224 224 224  223 223 223  223 223 223  222 222 222  222 222 222  221 221 221  221 221 221  220 220 220  219 219 219  219 219 219  218 218 218  218 218 218  217 217 217  217 217 217  216 216 216  216 216 216  215 215 215  215 215 215  214 214 214  213 213 213  213 213 213  
214 214 214  215 215 215  215 215 215  216 216 216  216 216 216  217 217 217  217 217 217  218 218 218  218 218 218  219 219 219  220 220 220  220 220 220  221 221 221  221 221 221  222 222 222  222 222 222  223 223 223  223 223 223  224 224 224  224 224 224  225 225 225  225 225 225  226 226 226  226 226 226  227 227 227  227 227 227  228 228 228  228 228 228  229 229 229  229 229 229  230 230 230  230 230 230  231 231 231  231 231 231  232 232 232  232 232 232  233 233 233  233 233 233  233 233 233  234 234 234  234 234 234  235 235 235  235 235 235  236 236 236  236 236 236  236 236 236  237 237 237  237 237 237  238 238 238  238 238 238  238 238 238  239 239 239  239 239 239  239 239 239  240 240 240  240 240 240  240 240 240  241 241 241  241 241 241  241 241 241  242 242 242  242 242 242  242 242 242  243 243 243  243 243 243  243 243 243  244 244 244  244 244 244  244 244 244  244 244 244  245 245 245  245 245 245  245 245 245  245 245 245  246 246 246  246 246 246  246 246 246  246 246 246  246 246 246  246 246 246  247 247 247  247 247 247  247 247 247  247 247 247  247 247 247  247 247 247  247 247 247  248 248 248  248 248 248  248 248 248  248 248 248  248 248 248  248 248 248  248 248 248  248 248 248  248 248 248  248 248 248  248 248 248  248 248 248  248 248 248  248 248 248  248 248 248  248 248 248  248 248 248  248 248 248  248 248 248  248 248 248  248 248 248  248 248 248  248 248 248  248 248 248  248 248 248  248 248 248  247 247 247  247 247 247  247 247 247  247 247 247  247 247 247  247 247 247  247 247 247  246 246 246  246 246 246  246 246 246  246 246 246  246 246 246  246 246 246  245 245 245  245 245 245  245 245 245  245 245 245  244 244 244  244 244 244  244 244 244  244 244 244  243 243 243  243 243 243  243 243 243  242 242 242  242 242 242  242 242 242  241 241 241  241 241 241  241 241 241  240 240 240  240 240 240  240 240 240  239 239 239  239 239 239  239 239 239  238 238 238  238 238 238  238 238 238  237 237 237  237 237 237  236 236 236  236 236 236  236 236 236  235 235 235  235 235 235  234 234 234  234 234 234  233 233 233  233 233 233  233 233 233  232 232 232  232 232 232  231 231 231  231 231 231  230 230 230  230 230 230  229 229 229  229 229 229  228 228 228  228 228 228  227 227 227  227 227 227  226 226 226  226 226 226  225 225 225  225 225 225  224 224 224  224 224 224  223 223 223  223 223 223  222 222 222  222 222 222  221 221 221  221 221 221  220 220 220  220 220 220  219 219 219  218 218 218  218 218 218  217 217 217  217 217 217  216 216 216  216 216 216  215 215 215  215 215 215  214 214 214  
215 215 215  216 216 216  216 216 216  217 217 217  218 218 218  218 218 218  219 219 219  219 219 219  220 220 220  220 220 220  221 221 221  221 221 221  222 222 222  222 222 222  223 223 223  223 223 223  224 224 224  224 224 224  225 225 225  225 225 225  226 226 226  226 226 226  227 227 227  227 227 227  228 228 228  228 228 228  229 229 229  229 229 229  230 230 230  230 230 230  231 231 231  231 231 231  232 232 232  232 232 232  233 233 233  233 233 233  233 233 233  234 234 234  234 234 234  235 235 235  235 235 235  236 236 236  236 236 236  236 236 236  237 237 237  237 237 237  238 238 238  238 238 238  238 238 238  239 239 239  239 239 239  240 240 240  240 240 240  240 240 240  241 241 241  241 241 241  241 241 241  242 242 242  242 242 242  242 242 242  243 243 243  243 243 243  243 243 243  243 243 243  244 244 244  244 244 244  244 244 244  245 245 245  245 245 245  245 245 245  245 245 245  246 246 246  246 246 246  246 246 246  246 246 246  246 246 246  247 247 247  247 247 247  247 247 247  247 247 247  247 247 247  247 247 247  248 248 248  248 248 248  248 248 248  248 248 248  248 248 248  248 248 248  248 248 248  248 248 248  248 248 248  249 249 249  249 249 249  249 249 249  249 249 249  249 249 249  249 249 249  249 249 249  249 249 249  249 249 249  249 249 249  249 249 249  249 249 249  249 249 249  249 249 249  249 249 249  249 249 249  249 249 249  249 249 249  248 248 248  248 248 248  248 248 248  248 248 248  248 248 248  248 248 248  248 248 248  248 248 248  248 248 248  247 247 247  247 247 247  247 247 247  247 247 247  247 247 247  247 247 247  246 246 246  246 246 246  246 246 246  246 246 246  246 246 246  245 245 245  245 245 245  245 245 245  245 245 245  244 244 244  244 244 244  244 244 244  243 243 243  243 243 243  243 243 243  243 243 243  242 242 242  242 242 242  242 242 242  241 241 241  241 241 241  241 241 241  240 240 240  240 240 240  240 240 240  239 239 239  239 239 239  238 238 238  238 238 238  238 238 238  237 237 237  237 237 237  236 236 236  236 236 236  236 236 236  235 235 235  235 235 235  234 234 234  234 234 234  233 233 233  233 233 233  233 233 233  232 232 232  232 232 232  231 231 231  231 231 231  230 230 230  230 230 230  229 229 229  229 229 229  228 228 228  228 228 228  227 227 227  227 227 227  226 226 226  226 226 226  225 225 225  225 225 225  224 224 224  224 224 224  223 223 223  223 223 223  222 222 222  222 222 222  221 221 221  221 221 221  220 220 220  220 220 220  219 219 219  219 219 219  218 218 218  218 218 218  217 217 217  216 216 216  216 216 216  215 215 215  
217 217 217  217 217 217  218 218 218  218 218 218  219 219 219  219 219 219  220 220 220  220 220 220  221 221 221  221 221 221  222 222 222  222 222 222  223 223 223  223 223 223  224 224 224  224 224 224  225 225 225  225 225 225  226 226 226  226 226 226  227 227 227  227 227 227  228 228 228  228 228 228  229 229 229  229 229 229  230 230 230  230 230 230  231 231 231  231 231 231  232 232 232  232 232 232  233 233 233  233 233 233  233 233 233  234 234 234  234 234 234  235 235 235  235 235 235  236 236 236  236 236 236  236 236 236  237 237 237  237 237 237  238 238 238  238 238 238  238 238 238  239 239 239  239 239 239  240 240 240  240 240 240  240 240 240  241 241 241  241 241 241  241 241 241  242 242 242  242 242 242  242 242 242  243 243 243  243 243 243  243 243 243  244 244 244  244 244 244  244 244 244  244 244 244  245 245 245  245 245 245  245 245 245  245 245 245  246 246 246  246 246 246  246 246 246  246 246 246  247 247 247  247 247 247  247 247 247  247 247 247  247 247 247  248 248 248  248 248 248  248 248 248  248 248 248  248 248 248  248 248 248  248 248 248  249 249 249  249 249 249  249 249 249  249 249 249  249 249 249  249 249 249  249 249 249  249 249 249  249 249 249  249 249 249  249 249 249  249 249 249  249 249 249  249 249 249  249 249 249  249 249 249  249 249 249  249 249 249  249 249 249  249 249 249  249 249 249  249 249 249  249 249 249  249 249 249  249 249 249  249 249 249  249 249 249  249 249 249  249 249 249  249 249 249  248 248 248  248 248 248  248 248 248  248 248 248  248 248 248  248 248 248  248 248 248  247 247 247  247 247 247  247 247 247  247 247 247  247 247 247  246 246 246  246 246 246  246 246 246  246 246 246  245 245 245  245 245 245  245 245 245  245 245 245  244 244 244  244 244 244  244 244 244  244 244 244  243 243 243  243 243 243  243 243 243  242 242 242  242 242 242  242 242 242  241 241 241  241 241 241  241 241 241  240 240 240  240 240 240  240 240 240  239 239 239  239 239 239  238 238 238  238 238 238  238 238 238  237 237 237  237 237 237  236 236 236  236 236 236  236 236 236  235 235 235  235 235 235  234 234 234  234 234 234  233 233 233  233 233 233  233 233 233  232 232 232  232 232 232  231 231 231  231 231 231  230 230 230  230 230 230  229 229 229  229 229 229  228 228 228  228 228 228  227 227 227  227 227 227  226 226 226  226 226 226  225 225 225  225 225 225  224 224 224  224 224 224  223 223 223  223 223 223  222 222 222  222 222 222  221 221 221  221 221 221  220 220 220  220 220 220  219 219 219  219 219 219  218 218 218  218 218 218  217 217 217  217 217 217  
218 218 218  218 218 218  219 219 219  219 219 219  220 220 220  220 220 220  221 221 221  221 221 221  222 222 222  222 222 222  223 223 223  223 223 223  224 224 224  224 224 224  225 225 225  225 225 225  226 226 226  226 226 226  227 227 227  227 227 227  228 228 228  228 228 228  229 229 229  229 229 229  230 230 230  230 230 230  231 231 231  231 231 231  232 232 232  232 232 232  233 233 233  233 233 233  233 233 233  234 234 234  234 234 234  235 235 235  235 235 235  236 236 236  236 236 236  236 236 236  237 237 237  237 237 237  238 238 238  238 238 238  238 238 238  239 239 239  239 239 239  240 240 240  240 240 240  240 240 240  241 241 241  241 241 241  241 241 241  242 242 242  242 242 242  242 242 242  243 243 243  243 243 243  243 243 243  244 244 244  244 244 244  244 244 244  245 245 245  245 245 245  245 245 245  245 245 245  246 246 246  246 246 246  246 246 246  246 246 246  247 247 247  247 247 247  247 247 247  247 247 247  247 247 247  248 248 248  248 248 248  248 248 248  248 248 248  248 248 248  248 248 248  249 249 249  249 249 249  249 249 249  249 249 249  249 249 249  249 249 249  249 249 249  249 249 249  250 250 250  250 250 250  250 250 250  250 250 250  250 250 250  250 250 250  250 250 250  250 250 250  250 250 250  250 250 250  250 250 250  250 250 250  250 250 250  250 250 250  250 250 250  250 250 250  250 250 250  250 250 250  250 250 250  250 250 250  250 250 250  250 250 250  249 249 249  249 249 249  249 249 249  249 249 249  249 249 249  249 249 249  249 249 249  249 249 249  248 248 248  248 248 248  248 248 248  248 248 248  248 248 248  248 248 248  247 247 247  247 247 247  247 247 247  247 247 247  247 247 247  246 246 246  246 246 246  246 246 246  246 246 246  245 245 245  245 245 245  245 245 245  245 245 245  244 244 244  244 244 244  244 244 244  243 243 243  243 243 243  243 243 243  242 242 242  242 242 242  242 242 242  241 241 241  241 241 241  241 241 241  240 240 240  240 240 240  240 240 240  239 239 239  239 239 239  238 238 238  238 238 238  238 238 238  237 237 237  237 237 237  236 236 236  236 236 236  236 236 236  235 235 235  235 235 235  234 234 234  234 234 234  233 233 233  233 233 233  233 233 233  232 232 232  232 232 232  231 231 231  231 231 231  230 230 230  230 230 230  229 229 229  229 229 229  228 228 228  228 228 228  227 227 227  227 227 227  226 226 226  226 226 226  225 225 225  225 225 225  224 224 224  224 224 224  223 223 223  223 223 223  222 222 222  222 222 222  221 221 221  221 221 221  220 220 220  220 220 220  219 219 219  219 219 219  218 218 218  218 218 218  
219 219 219  219 219 219  220 220 220  220 220 220  221 221 221  221 221 221  222 222 222  222 222 222  223 223 223  223 223 223  224 224 224  224 224 224  225 225 225  225 225 225  226 226 226  226 226 226  227 227 227  227 227 227  228 228 228  228 228 228  229 229 229  229 229 229  230 230 230  230 230 230  231 231 231  231 231 231  232 232 232  232 232 232  233 233 233  233 233 233  233 233 233  234 234 234  234 234 234  235 235 235  235 235 235  236 236 236  236 236 236  236 236 236  237 237 237  237 237 237  238 238 238  238 238 238  238 238 238  239 239 239  239 239 239  240 240 240  240 240 240  240 240 240  241 241 241  241 241 241  241 241 241  242 242 242  242 242 242  242 242 242  243 243 243  243 243 243  243 243 243  244 244 244  244 244 244  244 244 244  245 245 245  245 245 245  245 245 245  245 245 245  246 246 246  246 246 246  246 246 246  246 246 246  247 247 247  247 247 247  247 247 247  247 247 247  248 248 248  248 248 248  248 248 248  248 248 248  248 248 248  249 249 249  249 249 249  249 249 249  249 249 249  249 249 249  249 249 249  249 249 249  250 250 250  250 250 250  250 250 250  250 250 250  250 250 250  250 250 250  250 250 250  250 250 250  250 250 250  250 250 250  250 250 250  250 250 250  250 250 250  251 251 251  251 251 251  251 251 251  251 251 251  251 251 251  251 251 251  250 250 250  250 250 250  250 250 250  250 250 250  250 250 250  250 250 250  250 250 250  250 250 250  250 250 250  250 250 250  250 250 250  250 250 250  250 250 250  249 249 249  249 249 249  249 249 249  249 249 249  249 249 249  249 249 249  249 249 249  248 248 248  248 248 248  248 248 248  248 248 248  248 248 248  247 247 247  247 247 247  247 247 247  247 247 247  246 246 246  246 246 246  246 246 246  246 246 246  245 245 245  245 245 245  245 245 245  245 245 245  244 244 244  244 244 244  244 244 244  243 243 243  243 243 243  243 243 243  242 242 242  242 242 242  242 242 242  241 241 241  241 241 241  241 241 241  240 240 240  240 240 240  240 240 240  239 239 239  239 239 239  238 238 238  238 238 238  238 238 238  237 237 237  237 237 237  236 236 236  236 236 236  236 236 236  235 235 235  235 235 235  234 234 234  234 234 234  233 233 233  233 233 233  233 233 233  232 232 232  232 232 232  231 231 231  231 231 231  230 230 230  230 230 230  229 229 229  229 229 229  228 228 228  228 228 228  227 227 227  227 227 227  226 226 226  226 226 226  225 225 225  225 225 225  224 224 224  224 224 224  223 223 223  223 223 223  222 222 222  222 222 222  221 221 221  221 221 221  220 220 220  220 220 220  219 219 219  219 219 219  
220 220 220  220 220 220  221 221 221  221 221 221  222 222 222  222 222 222  223 223 223  223 223 223  224 224 224  224 224 224  225 225 225  225 225 225  226 226 226  226 226 226  227 227 227  227 227 227  228 228 228  228 228 228  229 229 229  229 229 229  230 230 230  230 230 230  231 231 231  231 231 231  232 232 232  232 232 232  233 233 233  233 233 233  233 233 233  234 234 234  234 234 234  235 235 235  235 235 235  236 236 236  236 236 236  236 236 236  237 237 237  237 237 237  238 238 238  238 238 238  238 238 238  239 239 239  239 239 239  240 240 240  240 240 240  240 240 240  241 241 241  241 241 241  241 241 241  242 242 242  242 242 242  242 242 242  243 243 243  243 243 243  243 243 243  244 244 244  244 244 244  244 244 244  245 245 245  245 245 245  245 245 245  246 246 246  246 246 246  246 246 246  246 246 246  247 247 247  247 247 247  247 247 247  247 247 247  248 248 248  248 248 248  248 248 248  248 248 248  248 248 248  249 249 249  249 249 249  249 249 249  249 249 249  249 249 249  249 249 249  250 250 250  250 250 250  250 250 250  250 250 250  250 250 250  250 250 250  250 250 250  250 250 250  251 251 251  251 251 251  251 251 251  251 251 251  251 251 251  251 251 251  251 251 251  251 251 251  251 251 251  251 251 251  251 251 251  251 251 251  251 251 251  251 251 251  251 251 251  251 251 251  251 251 251  251 251 251  251 251 251  251 251 251  251 251 251  251 251 251  251 251 251  251 251 251  250 250 250  250 250 250  250 250 250  250 250 250  250 250 250  250 250 250  250 250 250  250 250 250  249 249 249  249 249 249  249 249 249  249 249 249  249 249 249  249 249 249  248 248 248  248 248 248  248 248 248  248 248 248  248 248 248  247 247 247  247 247 247  247 247 247  247 247 247  246 246 246  246 246 246  246 246 246  246 246 246  245 245 245  245 245 245  245 245 245  244 244 244  244 244 244  244 244 244  243 243 243  243 243 243  243 243 243  242 242 242  242 242 242  242 242 242  241 241 241  241 241 241  241 241 241  240 240 240  240 240 240  240 240 240  239 239 239  239 239 239  238 238 238  238 238 238  238 238 238  237 237 237  237 237 237  236 236 236  236 236 236  236 236 236  235 235 235  235 235 235  234 234 234  234 234 234  233 233 233  233 233 233  233 233 233  232 232 232  232 232 232  231 231 231  231 231 231  230 230 230  230 230 230  229 229 229  229 229 229  228 228 228  228 228 228  227 227 227  227 227 227  226 226 226  226 226 226  225 225 225  225 225 225  224 224 224  224 224 224  223 223 223  223 223 223  222 222 222  222 222 222  221 221 221  221 221 221  220 220 220  220 220 220  
221 221 221  221 221 221  222 222 222  222 222 222  223 223 223  223 223 223  224 224 224  224 224 224  225 225 225  225 225 225  226 226 226  226 226 226  227 227 227  227 227 227  228 228 228  228 228 228  229 229 229  229 229 229  230 230 230  230 230 230  231 231 231  231 231 231  232 232 232  232 232 232  233 233 233  233 233 233  233 233 233  234 234 234  234 234 234  235 235 235  235 235 235  236 236 236  236 236 236  236 236 236  237 237 237  237 237 237  238 238 238  238 238 238  238 238 238  239 239 239  239 239 239  240 240 240  240 240 240  240 240 240  241 241 241  241 241 241  241 241 241  242 242 242  242 242 242  242 242 242  243 243 243  243 243 243  243 243 243  244 244 244  244 244 244  244 244 244  245 245 245  245 245 245  245 245 245  246 246 246  246 246 246  246 246 246  246 246 246  247 247 247  247 247 247  247 247 247  247 247 247  248 248 248  248 248 248  248 248 248  248 248 248  249 249 249  249 249 249  249 249 249  249 249 249  249 249 249  250 250 250  250 250 250  250 250 250  250 250 250  250 250 250  250 250 250  250 250 250  251 251 251  251 251 251  251 251 251  251 251 251  251 251 251  251 251 251  251 251 251  251 251 251  251 251 251  251 251 251  251 251 251  251 251 251  251 251 251  252 252 252  252 252 252  252 252 252  252 252 252  252 252 252  252 252 252  252 252 252  252 252 252  251 251 251  251 251 251  251 251 251  251 251 251  251 251 251  251 251 251  251 251 251  251 251 251  251 251 251  251 251 251  251 251 251  251 251 251  251 251 251  250 250 250  250 250 250  250 250 250  250 250 250  250 250 250  250 250 250  250 250 250  249 249 249  249 249 249  249 249 249  249 249 249  249 249 249  248 248 248  248 248 248  248 248 248  248 248 248  247 247 247  247 247 247  247 247 247  247 247 247  246 246 246  246 246 246  246 246 246  246 246 246  245 245 245  245 245 245  245 245 245  244 244 244  244 244 244  244 244 244  243 243 243  243 243 243  243 243 243  242 242 242  242 242 242  242 242 242  241 241 241  241 241 241  241 241 241  240 240 240  240 240 240  240 240 240  239 239 239  239 239 239  238 238 238  238 238 238  238 238 238  237 237 237  237 237 237  236 236 236  236 236 236  236 236 236  235 235 235  235 235 235  234 234 234  234 234 234  233 233 233  233 233 233  233 233 233  232 232 232  232 232 232  231 231 231  231 231 231  230 230 230  230 230 230  229 229 229  229 229 229  228 228 228  228 228 228  227 227 227  227 227 227  226 226 226  226 226 226  225 225 225  225 225 225  224 224 224  224 224 224  223 223 223  223 223 223  222 222 222  222 222 222  221 221 221  221 221 221  
222 222 222  222 222 222  223 223 223  223 223 223  224 224 224  224 224 224  225 225 225  225 225 225  226 226 226  226 226 226  227 227 227  227 227 227  228 228 228  228 228 228  229 229 229  229 229 229  230 230 230  230 230 230  231 231 231  231 231 231  232 232 232  232 232 232  232 232 232  233 233 233  233 233 233  234 234 234  234 234 234  235 235 235  235 235 235  236 236 236  236 236 236  236 236 236  237 237 237  237 237 237  238 238 238  238 238 238  238 238 238  239 239 239  239 239 239  240 240 240  240 240 240  240 240 240  241 241 241  241 241 241  241 241 241  242 242 242  242 242 242  242 242 242  243 243 243  243 243 243  244 244 244  244 244 244  244 244 244  244 244 244  245 245 245  245 245 245  245 245 245  246 246 246  246 246 246  246 246 246  247 247 247  247 247 247  247 247 247  247 247 247  248 248 248  248 248 248  248 248 248  248 248 248  249 249 249  249 249 249  249 249 249  249 249 249  249 249 249  250 250 250  250 250 250  250 250 250  250 250 250  250 250 250  250 250 250  251 251 251  251 251 251  251 251 251  251 251 251  251 251 251  251 251 251  251 251 251  251 251 251  251 251 251  252 252 252  252 252 252  252 252 252  252 252 252  252 252 252  252 252 252  252 252 252  252 252 252  252 252 252  252 252 252  252 252 252  252 252 252  252 252 252  252 252 252  252 252 252  252 252 252  252 252 252  252 252 252  252 252 252  252 252 252  252 252 252  252 252 252  252 252 252  252 252 252  251 251 251  251 251 251  251 251 251  251 251 251  251 251 251  251 251 251  251 251 251  251 251 251  251 251 251  250 250 250  250 250 250  250 250 250  250 250 250  250 250 250  250 250 250  249 249 249  249 249 249  249 249 249  249 249 249  249 249 249  248 248 248  248 248 248  248 248 248  248 248 248  247 247 247  247 247 247  247 247 247  247 247 247  246 246 246  246 246 246  246 246 246  245 245 245  245 245 245  245 245 245  244 244 244  244 244 244  244 244 244  244 244 244  243 243 243  243 243 243  242 242 242  242 242 242  242 242 242  241 241 241  241 241 241  241 241 241  240 240 240  240 240 240  240 240 240  239 239 239  239 239 239  238 238 238  238 238 238  238 238 238  237 237 237  237 237 237  236 236 236  236 236 236  236 236 236  235 235 235  235 235 235  234 234 234  234 234 234  233 233 233  233 233 233  232 232 232  232 232 232  232 232 232  231 231 231  231 231 231  230 230 230  230 230 230  229 229 229  229 229 229  228 228 228  228 228 228  227 227 227  227 227 227  226 226 226  226 226 226  225 225 225  225 225 225  224 224 224  224 224 224  223 223 223  223 223 223  222 222 222  222 222 222  
223 223 223  223 223 223  224 224 224  224 224 224  225 225 225  225 225 225  226 226 226  226 226 226  227 227 227  227 227 227  228 228 228  228 228 228  229 229 229  229 229 229  230 230 230  230 230 230  231 231 231  231 231 231  232 232 232  232 232 232  232 232 232  233 233 233  233 233 233  234 234 234  234 234 234  235 235 235  235 235 235  235 235 235  236 236 236  236 236 236  237 237 237  237 237 237  238 238 238  238 238 238  238 238 238  239 239 239  239 239 239  240 240 240  240 240 240  240 240 240  241 241 241  241 241 241  241 241 241  242 242 242  242 242 242  242 242 242  243 243 243  243 243 243  244 244 244  244 244 244  244 244 244  244 244 244  245 245 245  245 245 245  245 245 245  246 246 246  246 246 246  246 246 246  247 247 247  247 247 247  247 247 247  247 247 247  248 248 248  248 248 248  248 248 248  248 248 248  249 249 249  249 249 249  249 249 249  249 249 249  249 249 249  250 250 250  250 250 250  250 250 250  250 250 250  250 250 250  251 251 251  251 251 251  251 251 251  251 251 251  251 251 251  251 251 251  251 251 251  252 252 252  252 252 252  252 252 252  252 252 252  252 252 252  252 252 252  252 252 252  252 252 252  252 252 252  252 252 252  252 252 252  252 252 252  252 252 252  253 253 253  253 253 253  253 253 253  253 253 253  253 253 253  253 253 253  253 253 253  253 253 253  252 252 252  252 252 252  252 252 252  252 252 252  252 252 252  252 252 252  252 252 252  252 252 252  252 252 252  252 252 252  252 252 252  252 252 252  252 252 252  251 251 251  251 251 251  251 251 251  251 251 251  251 251 251  251 251 251  251 251 251  250 250 250  250 250 250  250 250 250  250 250 250  250 250 250  249 249 249  249 249 249  249 249 249  249 249 249  249 249 249  248 248 248  248 248 248  248 248 248  248 248 248  247 247 247  247 247 247  247 247 247  247 247 247  246 246 246  246 246 246  246 246 246  245 245 245  245 245 245  245 245 245  244 244 244  244 244 244  244 244 244  244 244 244  243 243 243  243 243 243  242 242 242  242 242 242  242 242 242  241 241 241  241 241 241  241 241 241  240 240 240  240 240 240  240 240 240  239 239 239  239 239 239  238 238 238  238 238 238  238 238 238  237 237 237  237 237 237  236 236 236  236 236 236  235 235 235  235 235 235  235 235 235  234 234 234  234 234 234  233 233 233  233 233 233  232 232 232  232 232 232  232 232 232  231 231 231  231 231 231  230 230 230  230 230 230  229 229 229  229 229 229  228 228 228  228 228 228  227 227 227  227 227 227  226 226 226  226 226 226  225 225 225  225 225 225  224 224 224  224 224 224  223 223 223  223 223 223  
224 224 224  224 224 224  225 225 225  225 225 225  226 226 226  226 226 226  227 227 227  227 227 227  228 228 228  228 228 228  229 229 229  229 229 229  230 230 230  230 230 230  231 231 231  231 231 231  231 231 231  232 232 232  232 232 232  233 233 233  233 233 233  234 234 234  234 234 234  235 235 235  235 235 235  235 235 235  236 236 236  236 236 236  237 237 237  237 237 237  238 238 238  238 238 238  238 238 238  239 239 239  239 239 239  240 240 240  240 240 240  240 240 240  241 241 241  241 241 241  241 241 241  242 242 242  242 242 242  242 242 242  243 243 243  243 243 243  243 243 243  244 244 244  244 244 244  244 244 244  245 245 245  245 245 245  245 245 245  246 246 246  246 246 246  246 246 246  247 247 247  247 247 247  247 247 247  247 247 247  248 248 248  248 248 248  248 248 248  248 248 248  249 249 249  249 249 249  249 249 249  249 249 249  250 250 250  250 250 250  250 250 250  250 250 250  250 250 250  251 251 251  251 251 251  251 251 251  251 251 251  251 251 251  251 251 251  252 252 252  252 252 252  252 252 252  252 252 252  252 252 252  252 252 252  252 252 252  252 252 252  252 252 252  253 253 253  253 253 253  253 253 253  253 253 253  253 253 253  253 253 253  253 253 253  253 253 253  253 253 253  253 253 253  253 253 253  253 253 253  253 253 253  253 253 253  253 253 253  253 253 253  253 253 253  253 253 253  253 253 253  253 253 253  253 253 253  253 253 253  253 253 253  253 253 253  252 252 252  252 252 252  252 252 252  252 252 252  252 252 252  252 252 252  252 252 252  252 252 252  252 252 252  251 251 251  251 251 251  251 251 251  251 251 251  251 251 251  251 251 251  250 250 250  250 250 250  250 250 250  250 250 250  250 250 250  249 249 249  249 249 249  249 249 249  249 249 249  248 248 248  248 248 248  248 248 248  248 248 248  247 247 247  247 247 247  247 247 247  247 247 247  246 246 246  246 246 246  246 246 246  245 245 245  245 245 245  245 245 245  244 244 244  244 244 244  244 244 244  243 243 243  243 243 243  243 243 243  242 242 242  242 242 242  242 242 242  241 241 241  241 241 241  241 241 241  240 240 240  240 240 240  240 240 240  239 239 239  239 239 239  238 238 238  238 238 238  238 238 238  237 237 237  237 237 237  236 236 236  236 236 236  235 235 235  235 235 235  235 235 235  234 234 234  234 234 234  233 233 233  233 233 233  232 232 232  232 232 232  231 231 231  231 231 231  231 231 231  230 230 230  230 230 230  229 229 229  229 229 229  228 228 228  228 228 228  227 227 227  227 227 227  226 226 226  226 226 226  225 225 225  225 225 225  224 224 224  224 224 224  
